assets/luts/Agfa_Vista.cube
#Created by: Adobe Photoshop Export Color Lookup Plugin
#Copyright: (C) Copyright 2022 Tim Martin and Presetpro.com
TITLE "AGF 11  - Vista.jpg"
#LUT size
LUT_3D_SIZE 32
#data domain
DOMAIN_MIN 0.0 0.0 0.0
DOMAIN_MAX 1.0 1.0 1.0
#LUT data points
0.000000 0.000000 0.000000
0.004059 0.003784 0.003937
0.012787 0.007599 0.000244
0.028595 0.004303 0.003540
0.055908 0.000000 0.000519
0.084869 0.003937 0.008484
0.108917 0.003937 0.014923
0.144714 0.000000 0.006958
0.180511 0.002899 0.008850
0.222504 0.000000 0.021881
0.262604 0.000000 0.014435
0.303833 0.000000 0.014557
0.347870 0.001526 0.021118
0.396454 0.000000 0.013397
0.451599 0.000000 0.023529
0.501556 0.000000 0.021637
0.549561 0.000000 0.015686
0.605072 0.002167 0.023132
0.658447 0.000000 0.016693
0.719696 0.003937 0.018982
0.773193 0.000000 0.006714
0.829102 0.000000 0.013153
0.887299 0.000000 0.021881
0.936127 0.001007 0.012787
0.983826 0.003052 0.011780
0.999237 0.003174 0.014160
1.000000 0.000641 0.022278
1.000000 0.000000 0.031372
1.000000 0.000000 0.042755
0.996063 0.000244 0.061737
1.000000 0.000122 0.085907
1.000000 0.000000 0.101959
0.000000 0.008087 0.000000
0.004059 0.011902 0.000000
0.012512 0.015564 0.000000
0.028198 0.015930 0.000122
0.049469 0.018860 0.000122
0.076782 0.015930 0.004547
0.109558 0.011780 0.012909
0.147491 0.009369 0.014923
0.184570 0.000000 0.012024
0.220490 0.002777 0.013031
0.257416 0.000000 0.011505
0.302582 0.001251 0.013153
0.348755 0.002411 0.014160
0.398071 0.001648 0.013397
0.451599 0.000000 0.018982
0.505219 0.000000 0.017456
0.547638 0.001892 0.017578
0.603058 0.001892 0.017456
0.660736 0.002167 0.018585
0.714996 0.003784 0.012024
0.775970 0.000000 0.019104
0.835449 0.000000 0.011902
0.883392 0.007599 0.006592
0.935120 0.000000 0.011505
0.983704 0.003052 0.006195
0.996063 0.000000 0.011780
0.999878 0.003784 0.011627
1.000000 0.000000 0.030121
1.000000 0.003418 0.042633
0.996338 0.003662 0.054901
0.996063 0.000000 0.081726
0.996063 0.003937 0.094116
0.000000 0.020355 0.011780
0.003937 0.024048 0.007599
0.015930 0.024048 0.003937
0.027954 0.027954 0.000244
0.052246 0.020874 0.007324
0.077911 0.024048 0.001007
0.113098 0.019867 0.001526
0.141052 0.015686 0.005310
0.184692 0.003662 0.014679
0.221619 0.002777 0.010620
0.265137 0.001251 0.010376
0.304352 0.000000 0.013153
0.356842 0.000000 0.019226
0.398071 0.001404 0.013672
0.444885 0.000244 0.020996
0.495850 0.005310 0.013550
0.551331 0.000000 0.013184
0.605072 0.003937 0.016937
0.657318 0.000000 0.007446
0.717529 0.001526 0.011780
0.773193 0.001404 0.008484
0.830383 0.000000 0.007324
0.884766 0.001404 0.004181
0.935120 0.000244 0.008972
0.983551 0.003296 0.005585
0.999756 0.003662 0.011017
0.999756 0.003662 0.011780
1.000000 0.003662 0.016205
1.000000 0.000000 0.031372
1.000000 0.000244 0.054138
0.996338 0.000244 0.071106
0.999756 0.000244 0.101471
0.000000 0.040344 0.015686
0.000000 0.039978 0.007843
0.011261 0.040100 0.008209
0.027466 0.040344 0.003937
0.052612 0.044159 0.000366
0.081085 0.040100 0.003662
0.112091 0.035675 0.007843
0.148499 0.031250 0.007843
0.178619 0.020355 0.001648
0.218201 0.009491 0.007080
0.265137 0.001251 0.014923
0.305756 0.000000 0.011780
0.355316 0.000000 0.008087
0.397705 0.003540 0.010742
0.445282 0.002167 0.014282
0.496002 0.002411 0.016052
0.549561 0.000000 0.007843
0.607239 0.002167 0.006073
0.659210 0.001648 0.006714
0.719330 0.001892 0.003937
0.775970 0.000000 0.003937
0.832672 0.000000 0.000000
0.883392 0.000763 0.003174
0.933960 0.000000 0.000366
0.983826 0.003052 0.006073
0.996063 0.000000 0.000000
0.996063 0.000000 0.005829
0.999634 0.003540 0.011383
1.000000 0.000366 0.029114
0.996704 0.003662 0.052765
0.996063 0.000122 0.062500
0.996460 0.003540 0.087036
0.003418 0.056915 0.020111
0.003418 0.056793 0.016571
0.007080 0.056671 0.015686
0.016052 0.057312 0.019226
0.045166 0.060333 0.000519
0.086517 0.064636 0.006592
0.116516 0.060089 0.007080
0.148621 0.059570 0.007843
0.187958 0.047058 0.011780
0.224152 0.036560 0.003937
0.266663 0.019623 0.008087
0.309540 0.003052 0.003418
0.351776 0.002411 0.014160
0.400879 0.001129 0.007843
0.446899 0.003937 0.007324
0.493591 0.002014 0.007843
0.553833 0.001892 0.009735
0.603424 0.001770 0.007446
0.660248 0.002136 0.000000
0.716797 0.003937 0.000519
0.777130 0.000000 0.002014
0.830872 0.002167 0.000000
0.883392 0.000000 0.002777
0.934113 0.003937 0.000519
0.981934 0.003937 0.000000
0.996063 0.000000 0.001007
0.996063 0.000000 0.001007
0.996063 0.000000 0.000000
0.996582 0.000519 0.017853
0.998993 0.000519 0.044037
0.996063 0.000122 0.069061
0.999481 0.003937 0.079437
0.000000 0.080963 0.031372
0.000000 0.077148 0.027191
0.003296 0.077789 0.019989
0.010620 0.077026 0.023285
0.039215 0.084106 0.015686
0.077026 0.088165 0.011139
0.114349 0.087524 0.000000
0.153564 0.083984 0.003052
0.193542 0.082367 0.005829
0.221375 0.065155 0.000519
0.268433 0.058838 0.007843
0.311188 0.040222 0.007202
0.357849 0.017944 0.004181
0.396454 0.004181 0.006195
0.447662 0.000000 0.002167
0.492310 0.003296 0.000000
0.549561 0.001892 0.000000
0.601166 0.003296 0.000641
0.661377 0.000641 0.002258
0.722107 0.000641 0.003296
0.766632 0.003937 0.000000
0.829895 0.005951 0.000000
0.880096 0.003296 0.000641
0.935120 0.003296 0.000641
0.980774 0.000000 0.008087
0.996063 0.000000 0.001526
0.996704 0.000641 0.000641
0.996063 0.000000 0.000000
0.999634 0.003540 0.004303
1.000000 0.000885 0.027832
0.996582 0.003296 0.046539
1.000000 0.003937 0.077789
0.000763 0.105743 0.027466
0.000763 0.112091 0.024292
0.000000 0.105743 0.027466
0.000763 0.108917 0.030609
0.019348 0.109680 0.023010
0.056549 0.112823 0.012024
0.112091 0.112823 0.006317
0.157990 0.109680 0.003296
0.189880 0.109406 0.000763
0.226440 0.101440 0.001526
0.277283 0.096649 0.002655
0.306885 0.084869 0.000641
0.352539 0.082367 0.000763
0.401123 0.056793 0.000885
0.454742 0.024780 0.000000
0.503082 0.003784 0.000763
0.549561 0.001892 0.000000
0.601166 0.000000 0.003937
0.659088 0.000763 0.003143
0.716522 0.003174 0.003174
0.773193 0.003174 0.000763
0.830383 0.000000 0.000000
0.886169 0.002777 0.001526
0.939026 0.002014 0.000763
0.978363 0.003937 0.004669
0.996063 0.000000 0.001526
0.996063 0.000000 0.000000
0.998749 0.002655 0.002655
0.998871 0.005585 0.000000
0.996063 0.000000 0.010254
1.000000 0.000000 0.029602
0.999237 0.003174 0.067413
0.001770 0.133820 0.027069
0.001770 0.136871 0.028320
0.001526 0.136627 0.028076
0.000885 0.136871 0.025696
0.001526 0.137878 0.033539
0.041473 0.141663 0.016815
0.092834 0.147003 0.007477
0.152557 0.141663 0.000000
0.200256 0.144592 0.003784
0.236542 0.140289 0.000000
0.272095 0.130280 0.000000
0.314606 0.127136 0.000000
0.351776 0.120544 0.003052
0.399719 0.112701 0.006195
0.455017 0.095886 0.005188
0.500671 0.075653 0.000000
0.553070 0.046509 0.003784
0.599396 0.015015 0.001282
0.657715 0.001770 0.003937
0.718170 0.003052 0.002411
0.772675 0.002533 0.000000
0.829102 0.001251 0.000000
0.881348 0.002014 0.002777
0.935120 0.001007 0.002899
0.975586 0.006958 0.004303
0.998352 0.002289 0.002289
0.998474 0.003296 0.008484
0.996063 0.000000 0.001770
0.996063 0.000000 0.001770
0.996948 0.000885 0.000885
0.998993 0.002899 0.013672
0.996948 0.003052 0.043518
0.001007 0.172668 0.040222
0.000000 0.175446 0.042999
0.000000 0.168732 0.029968
0.000366 0.165466 0.028473
0.000519 0.168243 0.028473
0.020996 0.173309 0.022278
0.077026 0.177338 0.019104
0.129669 0.174683 0.001251
0.188354 0.183411 0.000000
0.238953 0.179504 0.000000
0.282837 0.174438 0.002258
0.320160 0.168732 0.000000
0.367340 0.161407 0.002899
0.409210 0.154083 0.001007
0.449829 0.147614 0.000763
0.498657 0.138397 0.000000
0.550568 0.127502 0.000000
0.606079 0.111298 0.000000
0.663025 0.087646 0.005829
0.714508 0.059937 0.002899
0.770172 0.023865 0.000000
0.821899 0.009094 0.002014
0.882355 0.001007 0.000000
0.935120 0.002014 0.005707
0.975983 0.003052 0.003052
0.996063 0.000000 0.002014
0.996063 0.000000 0.000000
0.997101 0.001007 0.005829
0.999634 0.003540 0.003540
0.997345 0.015411 0.000244
0.995941 0.045990 0.000000
1.000000 0.108246 0.024292
0.001129 0.202911 0.046539
0.003937 0.205688 0.049316
0.002777 0.204559 0.048187
0.000000 0.205292 0.039978
0.000000 0.209106 0.037567
0.007477 0.202393 0.032623
0.057556 0.209595 0.022247
0.114227 0.210480 0.007202
0.173553 0.214417 0.001007
0.229218 0.216309 0.000000
0.286896 0.217438 0.000000
0.331055 0.210999 0.000000
0.372284 0.207703 0.000000
0.413910 0.198975 0.003937
0.453857 0.195679 0.001129
0.498535 0.188110 0.002258
0.551208 0.179352 0.003662
0.605713 0.176086 0.001129
0.661896 0.164795 0.000000
0.713745 0.156097 0.001129
0.777374 0.140778 0.001404
0.830505 0.123169 0.004303
0.880585 0.108368 0.001129
0.932190 0.091919 0.002258
0.983551 0.079285 0.001892
0.998871 0.071686 0.000763
0.996063 0.078522 0.004944
0.998352 0.095093 0.000519
0.999634 0.116608 0.002411
0.998871 0.145966 0.000000
0.998871 0.176575 0.001129
0.998871 0.204651 0.001129
0.000000 0.244263 0.058685
0.000000 0.246918 0.055786
0.000244 0.244263 0.056152
0.003937 0.241608 0.050079
0.005188 0.240356 0.049835
0.001251 0.238953 0.045044
0.026825 0.242859 0.037201
0.093872 0.245514 0.014160
0.153809 0.253113 0.000763
0.212250 0.251221 0.001251
0.269043 0.255890 0.000000
0.336487 0.257416 0.002655
0.374054 0.256775 0.000000
0.423126 0.250336 0.002289
0.469177 0.245026 0.002533
0.507385 0.240967 0.000000
0.556122 0.232361 0.003937
0.609894 0.229828 0.003937
0.665680 0.223511 0.001251
0.716400 0.218323 0.000000
0.773315 0.211487 0.002655
0.827728 0.207428 0.001251
0.879730 0.200745 0.000000
0.932190 0.197937 0.003662
0.975098 0.193024 0.001770
0.997986 0.191132 0.001251
1.000000 0.198975 0.000000
0.999481 0.204285 0.006073
1.000000 0.222382 0.005310
0.997345 0.237061 0.005066
0.997345 0.259308 0.000000
1.000000 0.271454 0.002533
0.000000 0.281464 0.071991
0.000122 0.281586 0.072113
0.000000 0.281464 0.066925
0.000000 0.278931 0.062988
0.004791 0.279694 0.054260
0.000000 0.278931 0.059570
0.005554 0.280701 0.049469
0.075256 0.281189 0.034515
0.146088 0.289825 0.012909
0.193939 0.290680 0.000244
0.263367 0.294617 0.000122
0.319519 0.302216 0.000000
0.380249 0.304871 0.002777
0.427551 0.303345 0.000000
0.475128 0.294617 0.000000
0.522552 0.290680 0.003296
0.565979 0.282837 0.000000
0.614319 0.282471 0.002930
0.662384 0.278015 0.002533
0.715546 0.275360 0.000000
0.770905 0.271088 0.008087
0.823669 0.271088 0.002533
0.878326 0.268524 0.000000
0.930176 0.269928 0.000000
0.983063 0.269043 0.001648
0.997467 0.266022 0.002533
0.994812 0.275116 0.002533
0.998596 0.281189 0.000000
0.996857 0.291931 0.000000
0.997711 0.304718 0.000000
1.000000 0.316742 0.000000
0.997467 0.331299 0.006439
0.002411 0.325226 0.082977
0.002411 0.325226 0.082733
0.000000 0.322815 0.077545
0.000000 0.322815 0.076416
0.002411 0.318390 0.074005
0.000000 0.321930 0.074768
0.000000 0.322815 0.057922
0.045898 0.320404 0.045898
0.127014 0.327118 0.033783
0.185303 0.336243 0.006561
0.247437 0.339508 0.002411
0.297272 0.342438 0.002777
0.371399 0.346344 0.003021
0.432495 0.351776 0.001526
0.484863 0.346344 0.004547
0.532410 0.338867 0.001526
0.578888 0.336090 0.003784
0.630615 0.337616 0.000000
0.676422 0.333801 0.000763
0.720306 0.328247 0.003021
0.768127 0.328247 0.008087
0.823669 0.331268 0.000000
0.880341 0.325836 0.000000
0.931183 0.328247 0.001526
0.973572 0.328888 0.001526
0.997589 0.333679 0.000000
1.000000 0.336090 0.002411
1.000000 0.343048 0.000000
1.000000 0.350891 0.001526
1.000000 0.364563 0.003662
0.996063 0.378967 0.000122
1.000000 0.383148 0.000000
0.002289 0.367340 0.091827
0.000122 0.366699 0.091187
0.001648 0.366699 0.091187
0.001251 0.366333 0.090820
0.001007 0.362274 0.083984
0.003296 0.363434 0.086273
0.000000 0.362915 0.079437
0.013794 0.358856 0.059814
0.088806 0.372528 0.049957
0.166595 0.372406 0.023254
0.229095 0.378845 0.003418
0.287415 0.389740 0.006836
0.353180 0.390228 0.003143
0.420959 0.395813 0.001648
0.491577 0.398071 0.002167
0.542816 0.393921 0.000000
0.595459 0.393768 0.005188
0.638092 0.391876 0.000000
0.685272 0.391235 0.000000
0.729797 0.385559 0.000000
0.780914 0.383301 0.003937
0.829346 0.383392 0.000000
0.876038 0.386810 0.004425
0.922089 0.385315 0.001282
0.970886 0.387970 0.000000
0.998352 0.391876 0.000000
0.995453 0.397461 0.003296
0.995575 0.407074 0.000000
0.999634 0.408447 0.012787
0.996338 0.417053 0.006195
0.996063 0.431366 0.000122
1.000000 0.438934 0.000000
0.000000 0.408844 0.111572
0.003937 0.412750 0.111969
0.000000 0.412384 0.109802
0.000000 0.409851 0.099426
0.000000 0.410614 0.097656
0.002167 0.408844 0.095886
0.002167 0.408844 0.091583
0.000000 0.406677 0.083252
0.068176 0.406555 0.076019
0.144440 0.416565 0.051605
0.208710 0.423645 0.012512
0.276031 0.425903 0.004913
0.341919 0.433868 0.000244
0.405273 0.433624 0.003784
0.479431 0.438049 0.002167
0.546448 0.451599 0.000122
0.601898 0.449829 0.003662
0.649597 0.449432 0.001770
0.697937 0.443756 0.001770
0.749146 0.440216 0.003540
0.784821 0.441223 0.001404
0.833008 0.441589 0.000000
0.879578 0.438049 0.001129
0.922211 0.438049 0.000000
0.965485 0.440704 0.000000
0.994965 0.441986 0.000000
0.998230 0.449829 0.000000
0.999481 0.457153 0.003540
1.000000 0.463348 0.001770
0.998230 0.469177 0.000000
1.000000 0.477020 0.000000
1.000000 0.484741 0.006073
0.002014 0.458435 0.123596
0.002014 0.458435 0.123596
0.000000 0.456390 0.117523
0.003540 0.456024 0.111176
0.000000 0.456543 0.113739
0.003296 0.452606 0.111572
0.000000 0.451324 0.108765
0.000000 0.451599 0.098175
0.012115 0.454773 0.084381
0.122192 0.456909 0.074371
0.197693 0.468292 0.041107
0.262360 0.468536 0.010376
0.329010 0.477661 0.000000
0.391876 0.483978 0.002014
0.459686 0.481964 0.000000
0.526978 0.493713 0.000000
0.608368 0.505493 0.000000
0.657837 0.503448 0.001770
0.707672 0.499542 0.005554
0.755493 0.496246 0.001892
0.802155 0.496246 0.000000
0.848450 0.493591 0.000000
0.887299 0.491699 0.000000
0.930176 0.491699 0.001007
0.967255 0.492828 0.000000
0.996460 0.493713 0.001892
1.000000 0.500916 0.001404
0.995056 0.505493 0.002014
1.000000 0.510925 0.001892
0.998108 0.517120 0.002136
1.000000 0.528748 0.002167
0.994049 0.536865 0.000000
0.001892 0.504242 0.135376
0.000000 0.502350 0.133453
0.000000 0.500854 0.131195
0.000000 0.504395 0.129425
0.002411 0.500458 0.127899
0.001404 0.501740 0.123718
0.000000 0.496552 0.119171
0.000000 0.499573 0.112976
0.002014 0.496429 0.103119
0.084198 0.500336 0.091217
0.176422 0.510345 0.071136
0.252625 0.508301 0.029999
0.311035 0.517151 0.000000
0.381622 0.525635 0.000000
0.443604 0.531311 0.001892
0.513184 0.539825 0.000000
0.592560 0.543457 0.000000
0.663910 0.559296 0.000000
0.719299 0.555359 0.002014
0.768280 0.552979 0.000000
0.814819 0.548920 0.001007
0.851257 0.543610 0.001892
0.895508 0.542725 0.002777
0.937012 0.544617 0.001007
0.970032 0.542603 0.000000
0.995331 0.544739 0.003021
0.998108 0.547516 0.000000
1.000000 0.551453 0.000000
0.997986 0.560944 0.000000
0.996063 0.566742 0.000244
0.999878 0.572815 0.002014
0.998108 0.578644 0.003937
0.000000 0.549805 0.147247
0.003784 0.550049 0.149292
0.002014 0.548279 0.147491
0.003540 0.551941 0.146881
0.000000 0.548401 0.139801
0.003052 0.550171 0.139557
0.001404 0.548767 0.138031
0.000000 0.543213 0.132324
0.000000 0.542328 0.126770
0.042816 0.544373 0.107300
0.161621 0.553711 0.097290
0.236633 0.556641 0.062897
0.307617 0.560181 0.019012
0.369476 0.573181 0.001038
0.441589 0.577240 0.003540
0.506989 0.581543 0.001770
0.578644 0.585358 0.000000
0.649994 0.597229 0.000000
0.725891 0.607361 0.001892
0.781311 0.606995 0.003296
0.821259 0.599762 0.004944
0.862640 0.598511 0.000000
0.902588 0.598389 0.004181
0.947144 0.593323 0.002014
0.975983 0.595459 0.003937
0.998230 0.595459 0.001526
0.999359 0.597229 0.001129
1.000000 0.597229 0.005554
0.999634 0.606079 0.000366
1.000000 0.607483 0.000000
0.997711 0.614166 0.002167
1.000000 0.620758 0.002167
0.001648 0.599640 0.166992
0.000000 0.597992 0.165344
0.000000 0.597992 0.169891
0.000000 0.597992 0.165344
0.002289 0.594574 0.163971
0.002289 0.596344 0.159149
0.000763 0.597870 0.154358
0.000000 0.594971 0.143982
0.000000 0.595337 0.136871
0.013519 0.590668 0.129547
0.136322 0.595459 0.125000
0.225891 0.601929 0.093018
0.296875 0.605835 0.054810
0.364441 0.619873 0.015961
0.429840 0.620880 0.000000
0.499786 0.628967 0.000000
0.570801 0.633026 0.000000
0.644318 0.643280 0.000000
0.717926 0.647339 0.001648
0.786102 0.655182 0.000000
0.835449 0.648071 0.004547
0.874390 0.643158 0.000000
0.911469 0.645050 0.000519
0.953094 0.644043 0.000000
0.976868 0.642029 0.000763
0.998352 0.643402 0.000000
0.998352 0.641144 0.000000
1.000000 0.646820 0.001129
0.997711 0.645447 0.001251
1.000000 0.650604 0.002777
1.000000 0.654419 0.006073
0.997711 0.662384 0.000000
0.003937 0.645813 0.186096
0.004059 0.648346 0.181396
0.002411 0.649719 0.181274
0.000000 0.649719 0.181274
0.000000 0.649719 0.178253
0.002136 0.649994 0.173431
0.002411 0.646698 0.171936
0.003296 0.643402 0.165619
0.002899 0.641876 0.162964
0.002258 0.645569 0.153961
0.108887 0.641785 0.152985
0.219940 0.648346 0.126892
0.289673 0.652771 0.106415
0.359741 0.660736 0.060272
0.433105 0.661499 0.009521
0.503845 0.669342 0.000000
0.563202 0.678833 0.001526
0.636597 0.686279 0.001526
0.707062 0.686554 0.002411
0.777618 0.694397 0.003021
0.844025 0.700714 0.003937
0.880219 0.696777 0.000000
0.917023 0.690460 0.001892
0.957642 0.691345 0.005829
0.985321 0.687164 0.000000
0.996826 0.687286 0.000000
0.999359 0.689575 0.000000
0.997589 0.686554 0.000000
0.996063 0.686554 0.002411
0.999756 0.691711 0.000000
0.997589 0.692871 0.001526
0.997589 0.695892 0.000000
0.001404 0.698944 0.208740
0.000000 0.697540 0.207367
0.000000 0.697540 0.209625
0.002167 0.699707 0.204437
0.000000 0.701477 0.199768
0.002014 0.698303 0.198608
0.006073 0.692230 0.198761
0.000000 0.694519 0.196106
0.005066 0.695526 0.192291
0.001129 0.691101 0.175354
0.103699 0.687164 0.178772
0.211609 0.695007 0.163086
0.294586 0.696533 0.138031
0.360748 0.704498 0.113617
0.435516 0.707794 0.072388
0.496246 0.711853 0.006500
0.565369 0.718536 0.000000
0.636475 0.722473 0.001404
0.703125 0.728668 0.001648
0.766876 0.731567 0.000000
0.829742 0.738159 0.000000
0.886536 0.743469 0.000122
0.926880 0.740448 0.000000
0.958252 0.733856 0.001770
0.988617 0.731201 0.000000
1.000000 0.726257 0.000000
0.999237 0.729553 0.000000
0.994415 0.728912 0.009491
0.998230 0.728790 0.001007
1.000000 0.727783 0.000000
0.998596 0.729156 0.000000
1.000000 0.732849 0.001404
0.002655 0.742706 0.242004
0.002655 0.742706 0.239471
0.001251 0.745361 0.239471
0.001251 0.745361 0.239471
0.002167 0.742706 0.235443
0.000000 0.742065 0.230865
0.001526 0.740692 0.229492
0.000000 0.740570 0.224945
0.003296 0.742065 0.225433
0.003418 0.737122 0.205841
0.118500 0.737518 0.213440
0.220245 0.734863 0.193573
0.298523 0.741455 0.183716
0.366455 0.747650 0.158020
0.435516 0.750153 0.129181
0.498260 0.757141 0.084412
0.570557 0.759155 0.031006
0.628998 0.762329 0.001251
0.704132 0.763580 0.006836
0.763214 0.771423 0.001526
0.833160 0.774078 0.000000
0.883881 0.783325 0.002533
0.930298 0.785706 0.000000
0.964600 0.772675 0.000000
0.991272 0.770172 0.000000
1.000000 0.770172 0.000000
0.999359 0.768127 0.000000
1.000000 0.766235 0.000000
0.997345 0.763947 0.000885
1.000000 0.760925 0.000000
1.000000 0.766235 0.008850
0.997345 0.764832 0.002655
0.000000 0.790405 0.273376
0.003937 0.787598 0.271088
0.000000 0.789246 0.269958
0.003937 0.787598 0.268829
0.002777 0.787598 0.271088
0.001129 0.786102 0.261108
0.001892 0.789642 0.262115
0.001892 0.785583 0.265686
0.003418 0.782440 0.258331
0.029938 0.782562 0.247559
0.158875 0.782684 0.247711
0.236786 0.778381 0.232147
0.316254 0.778625 0.224182
0.380005 0.786987 0.205597
0.448303 0.786102 0.184082
0.514832 0.793182 0.156006
0.580536 0.793549 0.130310
0.635834 0.802155 0.060089
0.696686 0.802795 0.009857
0.756744 0.807220 0.002777
0.822296 0.809753 0.000000
0.874664 0.813812 0.005310
0.926514 0.817841 0.008362
0.967743 0.812012 0.000000
0.993439 0.803558 0.000885
1.000000 0.801270 0.000000
0.995453 0.802795 0.000519
0.996704 0.802795 0.000519
0.998871 0.796600 0.000763
0.999756 0.799377 0.000244
1.000000 0.792786 0.009369
1.000000 0.795441 0.001129
0.000000 0.827332 0.320435
0.000000 0.827332 0.318420
0.000244 0.826324 0.317413
0.002899 0.826324 0.311584
0.011139 0.826324 0.317017
0.001007 0.824432 0.308411
0.002899 0.827332 0.303741
0.000000 0.827454 0.304626
0.016052 0.823303 0.300720
0.114471 0.822388 0.286926
0.214142 0.822662 0.283630
0.281586 0.820496 0.281219
0.342316 0.815948 0.267944
0.401001 0.822388 0.257050
0.465240 0.825317 0.235687
0.524963 0.830231 0.221405
0.591797 0.831390 0.194702
0.642273 0.830994 0.162689
0.707428 0.834534 0.113983
0.761047 0.835175 0.047821
0.816833 0.837708 0.002533
0.866943 0.845673 0.003174
0.921570 0.844025 0.003937
0.960663 0.844025 0.000000
0.991394 0.845917 0.001129
1.000000 0.841766 0.000763
0.997101 0.832886 0.001007
0.997101 0.830231 0.002899
1.000000 0.828339 0.002899
1.000000 0.828339 0.005829
0.998993 0.824432 0.002899
0.998993 0.824432 0.000000
0.000000 0.866180 0.365479
0.000000 0.863892 0.363312
0.001129 0.860352 0.363586
0.003937 0.863129 0.366364
0.000885 0.859222 0.361542
0.000641 0.859833 0.363068
0.000885 0.859222 0.354095
0.040588 0.860992 0.345490
0.139801 0.856171 0.347900
0.223419 0.860229 0.344238
0.281982 0.855286 0.330170
0.330933 0.857056 0.329407
0.381134 0.852875 0.331085
0.436157 0.855286 0.314636
0.496002 0.856659 0.300568
0.550018 0.857330 0.273773
0.600647 0.860107 0.260345
0.659485 0.864410 0.235687
0.715637 0.865417 0.206970
0.767395 0.863770 0.164703
0.819489 0.867950 0.111084
0.865173 0.868835 0.016693
0.915009 0.870728 0.002777
0.955719 0.871735 0.006714
0.989502 0.874908 0.000000
0.999115 0.867798 0.000000
0.999115 0.864014 0.000000
0.995697 0.860596 0.000000
0.996948 0.853149 0.000000
0.996948 0.852509 0.000000
0.996948 0.850616 0.000000
0.996948 0.851379 0.000000
0.006317 0.894257 0.417480
0.003296 0.891968 0.415192
0.006073 0.894745 0.417969
0.003174 0.891083 0.414307
0.030365 0.888947 0.414551
0.101868 0.891083 0.412903
0.152863 0.892609 0.402527
0.216705 0.890198 0.402527
0.262756 0.886414 0.401154
0.306274 0.889954 0.396332
0.349030 0.891724 0.390656
0.389099 0.887543 0.384827
0.437561 0.885651 0.379272
0.479797 0.885651 0.365723
0.525208 0.879333 0.361176
0.577728 0.887177 0.350677
0.623688 0.890717 0.325256
0.674408 0.891846 0.305115
0.726776 0.887909 0.286926
0.776123 0.889435 0.250214
0.824432 0.891083 0.222778
0.870209 0.889435 0.177734
0.911591 0.894257 0.097412
0.948639 0.898682 0.008850
0.982300 0.892609 0.000885
1.000000 0.895752 0.006317
1.000000 0.892609 0.004669
1.000000 0.890839 0.000519
0.996826 0.879700 0.000000
1.000000 0.876678 0.003174
0.999237 0.875397 0.003174
0.996063 0.869080 0.000000
0.182465 0.919678 0.484528
0.196228 0.916504 0.481354
0.209656 0.922699 0.480591
0.224457 0.919434 0.475037
0.256073 0.916382 0.479584
0.271606 0.915741 0.473389
0.306030 0.916382 0.471985
0.332336 0.916016 0.471863
0.360535 0.915375 0.458954
0.391022 0.915131 0.460480
0.426819 0.913239 0.449219
0.456177 0.915253 0.446442
0.491211 0.912720 0.444427
0.531555 0.911835 0.433167
0.568634 0.907898 0.421906
0.607574 0.909943 0.418488
0.651520 0.911835 0.392303
0.698456 0.912476 0.378754
0.744476 0.910828 0.359406
0.790283 0.914246 0.333710
0.827728 0.915741 0.308807
0.865540 0.913086 0.270599
0.910339 0.915253 0.226196
0.944611 0.916748 0.182312
0.975342 0.915741 0.060852
0.998993 0.919556 0.000000
0.999359 0.916382 0.003937
0.996063 0.915131 0.000000
1.000000 0.904358 0.000000
1.000000 0.902985 0.003540
0.999481 0.895630 0.000000
0.993408 0.896149 0.003296
0.344849 0.939148 0.544983
0.352325 0.939545 0.545471
0.361542 0.939423 0.548401
0.375732 0.937134 0.550537
0.384583 0.940155 0.547394
0.391907 0.942963 0.542694
0.414551 0.936249 0.533966
0.434937 0.939148 0.540436
0.450470 0.937653 0.527283
0.477417 0.940796 0.531067
0.505005 0.932312 0.522583
0.529266 0.936249 0.519043
0.557861 0.932709 0.510590
0.586975 0.931824 0.496796
0.611389 0.928406 0.488312
