assets/luts/Agfa_Vista.cube
#Created by: Adobe Photoshop Export Color Lookup Plugin
#Copyright: (C) Copyright 2022 Tim Martin and Presetpro.com
TITLE "AGF 11  - Vista.jpg"
#LUT size
LUT_3D_SIZE 5
#data domain
#LUT data points
DOMAIN_MIN 0.000000 0.000000 0.000000
DOMAIN_MAX 0.903226 0.903226 0.903226
0.000000 0.000000 0.000000
0.144714 0.000000 0.006958
0.451599 0.000000 0.023529
0.829102 0.000000 0.013153
1.000000 0.000000 0.042755
0.001770 0.133820 0.027069
0.152557 0.141663 0.000000
0.455017 0.095886 0.005188
0.829102 0.001251 0.000000
0.996063 0.000000 0.001770
0.000000 0.408844 0.111572
0.000000 0.406677 0.083252
0.479431 0.438049 0.002167
0.833008 0.441589 0.000000
1.000000 0.463348 0.001770
0.002655 0.742706 0.242004
0.000000 0.740570 0.224945
0.435516 0.750153 0.129181
0.883881 0.783325 0.002533
0.997345 0.763947 0.000885
0.461731 0.952179 0.604828
0.522705 0.957001 0.603180
0.658691 0.950409 0.562805
0.874268 0.951813 0.451477
0.996460 0.948273 0.000000
0.001770 0.029205 0.139893
0.124207 0.028320 0.117249
0.441101 0.000000 0.117249
0.828613 0.000885 0.081970
0.996948 0.000885 0.006195
0.000000 0.160400 0.163055
0.157349 0.173035 0.169128
0.466766 0.158234 0.146851
0.832520 0.049286 0.079315
0.996948 0.014130 0.009613
0.000885 0.437164 0.258057
0.088440 0.437164 0.237061
0.483856 0.459442 0.155090
0.832520 0.461578 0.016541
1.000000 0.482971 0.001770
0.004425 0.758392 0.384552
0.001251 0.756226 0.354462
0.454742 0.751434 0.302612
0.877808 0.788361 0.109161
1.000000 0.768768 0.000000
0.516632 0.956116 0.677917
0.559143 0.959656 0.672363
0.683624 0.949524 0.644775
0.876923 0.951294 0.564331
1.000000 0.957886 0.278809
0.000000 0.101562 0.365692
0.105499 0.107269 0.360016
0.390991 0.103729 0.338257
0.759308 0.098358 0.367462
0.999634 0.003540 0.366333
0.000000 0.203522 0.388733
0.122467 0.216187 0.394043
0.421478 0.232758 0.381012
0.799408 0.241455 0.400604
0.998230 0.218964 0.392273
0.003540 0.445892 0.455505
0.050110 0.455902 0.459442
0.469421 0.491180 0.475494
0.849976 0.503845 0.460693
0.996460 0.528259 0.398834
0.002167 0.775848 0.624664
0.211273 0.777618 0.615936
0.519653 0.778015 0.595825
0.862518 0.801910 0.543427
0.999115 0.783569 0.446777
0.611908 0.956116 0.804565
0.671844 0.955719 0.808105
0.734589 0.950043 0.784576
0.855682 0.952698 0.744080
0.999634 0.954346 0.642609
0.000000 0.196198 0.661621
0.002655 0.206207 0.665161
0.421997 0.202301 0.653931
0.732330 0.201385 0.651245
0.999634 0.410248 0.692749
0.000000 0.274628 0.678711
0.001770 0.290314 0.690460
0.428436 0.296906 0.680847
0.751953 0.316498 0.678711
0.999115 0.498810 0.717010
0.000000 0.480682 0.715637
0.003418 0.477295 0.720947
0.397949 0.501678 0.736633
0.778503 0.547485 0.738403
0.997345 0.654266 0.778503
0.003937 0.762329 0.801544
0.006195 0.764465 0.801910
0.481842 0.771423 0.796722
0.823792 0.807983 0.824921
1.000000 0.822388 0.810120
0.600006 0.964447 0.874512
0.649597 0.960022 0.874512
0.765839 0.957367 0.872864
0.879456 0.951294 0.865784
0.990753 0.960022 0.849335
0.000366 0.413422 0.932190
0.282745 0.424286 0.935242
0.586945 0.423035 0.922974
0.859222 0.438843 0.914734
0.999634 0.499298 0.905518
0.000366 0.459198 0.936249
0.257294 0.480072 0.932587
0.581390 0.490204 0.926361
0.862762 0.506409 0.913483
1.000000 0.560272 0.912079
0.005310 0.597717 0.935730
0.002655 0.598602 0.930420
0.532440 0.626953 0.927246
0.847961 0.644775 0.922180
1.000000 0.695770 0.910828
0.000885 0.813049 0.934845
0.006561 0.805969 0.933075
0.429352 0.795074 0.924347
0.790253 0.799377 0.925110
0.984833 0.845184 0.914368
0.544098 0.948639 0.937256
0.597107 0.953461 0.945221
0.717896 0.952179 0.944733
0.862488 0.951416 0.942688
0.980377 0.964325 0.952576
