assets/luts/Agfa_Vista.cube
#Created by: Adobe Photoshop Export Color Lookup Plugin
#Copyright: (C) Copyright 2022 Tim Martin and Presetpro.com
TITLE "AGF 11  - Vista.jpg"
#LUT size
LUT_3D_SIZE 8
#data domain
#LUT data points
DOMAIN_MIN 0.000000 0.000000 0.000000
DOMAIN_MAX 0.903226 0.903226 0.903226
0.000000 0.000000 0.000000
0.055908 0.000000 0.000519
0.180511 0.002899 0.008850
0.347870 0.001526 0.021118
0.549561 0.000000 0.015686
0.773193 0.000000 0.006714
0.983826 0.003052 0.011780
1.000000 0.000000 0.042755
0.003418 0.056915 0.020111
0.045166 0.060333 0.000519
0.187958 0.047058 0.011780
0.351776 0.002411 0.014160
0.553833 0.001892 0.009735
0.777130 0.000000 0.002014
0.981934 0.003937 0.000000
0.996582 0.000519 0.017853
0.001007 0.172668 0.040222
0.000519 0.168243 0.028473
0.188354 0.183411 0.000000
0.367340 0.161407 0.002899
0.550568 0.127502 0.000000
0.770172 0.023865 0.000000
0.975983 0.003052 0.003052
0.999634 0.003540 0.003540
0.002411 0.325226 0.082977
0.002411 0.318390 0.074005
0.127014 0.327118 0.033783
0.371399 0.346344 0.003021
0.578888 0.336090 0.003784
0.768127 0.328247 0.008087
0.973572 0.328888 0.001526
1.000000 0.350891 0.001526
0.001892 0.504242 0.135376
0.002411 0.500458 0.127899
0.002014 0.496429 0.103119
0.311035 0.517151 0.000000
0.592560 0.543457 0.000000
0.814819 0.548920 0.001007
0.970032 0.542603 0.000000
0.997986 0.560944 0.000000
0.001404 0.698944 0.208740
0.000000 0.701477 0.199768
0.005066 0.695526 0.192291
0.294586 0.696533 0.138031
0.565369 0.718536 0.000000
0.829742 0.738159 0.000000
0.988617 0.731201 0.000000
0.998230 0.728790 0.001007
0.000000 0.866180 0.365479
0.000885 0.859222 0.361542
0.139801 0.856171 0.347900
0.381134 0.852875 0.331085
0.600647 0.860107 0.260345
0.819489 0.867950 0.111084
0.989502 0.874908 0.000000
0.996948 0.853149 0.000000
0.461731 0.952179 0.604828
0.489838 0.958771 0.605194
0.534332 0.959656 0.594055
0.615692 0.954224 0.575836
0.718414 0.951813 0.545624
0.844299 0.950043 0.483368
0.965485 0.948761 0.345978
0.996460 0.948273 0.000000
0.003418 0.019623 0.066681
0.040741 0.016205 0.055908
0.164429 0.009247 0.050995
0.346863 0.000000 0.043152
0.543091 0.000000 0.021484
0.767639 0.003418 0.003418
0.976868 0.001404 0.006439
1.000000 0.000000 0.030365
0.000000 0.068695 0.076019
0.049591 0.083374 0.079956
0.190369 0.068695 0.063354
0.354187 0.023132 0.051483
0.549042 0.000519 0.020996
0.773438 0.000000 0.000000
0.976868 0.003937 0.003052
0.996460 0.003784 0.001007
0.000000 0.183929 0.111328
0.024048 0.183044 0.098663
0.196716 0.191772 0.072601
0.358612 0.177612 0.044159
0.558289 0.157349 0.002014
0.770172 0.100525 0.002899
0.979889 0.018188 0.002014
0.999115 0.031342 0.000519
0.004425 0.337494 0.152039
0.001007 0.338501 0.139282
0.148621 0.330261 0.116364
0.380615 0.354187 0.031982
0.577393 0.353668 0.003418
0.772064 0.341919 0.005829
0.972565 0.344574 0.000000
0.995178 0.366455 0.000000
0.001892 0.514618 0.193176
0.000000 0.511230 0.190033
0.021332 0.512115 0.168243
0.323822 0.524384 0.117126
0.596985 0.548401 0.003418
0.813293 0.551453 0.000519
0.972565 0.550568 0.004303
0.995697 0.564728 0.001526
0.004059 0.705902 0.268829
0.000000 0.706909 0.256317
0.001404 0.700439 0.246674
0.305237 0.701477 0.212677
0.570679 0.720581 0.111694
0.835297 0.738647 0.000519
0.989258 0.734741 0.002533
0.998596 0.726898 0.000519
0.002533 0.864532 0.412170
0.004303 0.863525 0.406952
0.184692 0.865173 0.392151
0.400360 0.859100 0.372681
0.609528 0.859589 0.315247
0.819122 0.868958 0.216583
0.988129 0.875793 0.000000
1.000000 0.856537 0.001251
0.485657 0.955994 0.640228
0.499695 0.959137 0.640106
0.556091 0.955109 0.628357
0.627563 0.951538 0.613159
0.718445 0.950653 0.583191
0.851135 0.949646 0.525116
0.961182 0.951294 0.401764
0.999481 0.952179 0.075897
0.001007 0.043152 0.171661
0.019623 0.040222 0.156982
0.157990 0.036316 0.139282
0.306610 0.040741 0.145111
0.543610 0.001007 0.143311
0.779907 0.001526 0.126495
0.979767 0.003052 0.090179
0.996063 0.000000 0.002014
0.000000 0.092224 0.174194
0.036804 0.097137 0.178986
0.174683 0.103973 0.169769
0.342804 0.101562 0.164307
0.564087 0.003052 0.167236
0.778137 0.000000 0.138763
0.979004 0.003052 0.085632
0.996063 0.000000 0.005066
0.001007 0.195190 0.201141
0.025543 0.200104 0.196198
0.190369 0.212891 0.197205
0.367462 0.215302 0.191254
0.570038 0.196198 0.170776
0.784973 0.167328 0.140259
0.979889 0.139648 0.072845
0.998993 0.152527 0.001007
0.000000 0.349243 0.249207
0.002014 0.356598 0.247803
0.187347 0.361023 0.246155
0.374420 0.372772 0.201233
0.575470 0.369873 0.177490
0.783813 0.366852 0.132935
0.975586 0.373932 0.038300
0.999481 0.390228 0.001007
0.002014 0.527771 0.319794
0.001007 0.529297 0.318268
0.118744 0.535614 0.277802
0.343658 0.533356 0.258942
0.604187 0.558289 0.190643
0.807465 0.564728 0.135834
0.974976 0.560303 0.010986
0.996216 0.577759 0.002533
0.002533 0.718536 0.408234
0.003937 0.719543 0.385071
0.018555 0.719543 0.353699
0.331940 0.707794 0.332703
0.575470 0.728790 0.282227
0.840240 0.745483 0.186584
0.984192 0.741180 0.058655
0.998474 0.736755 0.000366
0.035370 0.869965 0.517273
0.079956 0.866913 0.499786
0.274780 0.865173 0.491852
0.438965 0.861755 0.469208
0.615479 0.860107 0.441864
0.818726 0.871979 0.368103
0.984589 0.879700 0.238953
0.999481 0.861115 0.072571
0.525116 0.955109 0.698944
0.541809 0.956116 0.697021
0.588989 0.952576 0.692230
0.648071 0.952698 0.674011
0.730560 0.947266 0.647675
0.843658 0.946747 0.606934
0.956604 0.949799 0.520538
1.000000 0.951172 0.332428
0.000000 0.077545 0.291443
0.000000 0.079956 0.290314
0.167236 0.081451 0.281708
0.315857 0.079956 0.272736
0.463287 0.126373 0.265411
0.731598 0.001007 0.284729
0.979279 0.002411 0.280548
0.997589 0.000000 0.255646
0.000519 0.123596 0.305481
0.004822 0.132446 0.309021
0.185944 0.138763 0.304993
0.320801 0.137360 0.283081
0.480865 0.172668 0.289062
0.753845 0.047119 0.304718
0.994446 0.001526 0.289429
1.000000 0.000000 0.263855
0.001007 0.215820 0.327637
0.001007 0.218719 0.321808
0.187836 0.231110 0.335968
0.343445 0.241364 0.316376
0.533234 0.263855 0.331024
0.793182 0.214264 0.326599
0.988739 0.202393 0.310669
0.996338 0.228333 0.259430
0.000000 0.354187 0.359009
0.001007 0.363556 0.362030
0.184326 0.371765 0.362915
0.372284 0.393402 0.377716
0.583344 0.395447 0.364044
0.795593 0.400238 0.348236
0.981415 0.405823 0.317108
0.999634 0.420868 0.265228
0.000000 0.550812 0.441101
0.002533 0.551819 0.436066
0.185425 0.557251 0.436157
0.375702 0.560669 0.421509
0.595612 0.578400 0.391510
0.799011 0.572968 0.354706
0.971527 0.582306 0.324829
1.000000 0.594086 0.271698
0.001526 0.728912 0.537750
0.004425 0.730804 0.538910
0.248077 0.730316 0.535217
0.389252 0.735626 0.499451
0.580048 0.733734 0.467285
0.823547 0.755219 0.419586
0.976868 0.750916 0.372284
0.996063 0.746002 0.294983
0.274780 0.872498 0.648071
0.338806 0.872498 0.648590
0.439087 0.871857 0.653381
0.499664 0.869446 0.609467
0.632690 0.861603 0.584930
0.811523 0.871735 0.550293
0.966858 0.881226 0.480957
0.999634 0.866425 0.405426
0.635925 0.949005 0.788116
0.644653 0.953705 0.782166
0.642365 0.952576 0.763306
0.683105 0.949402 0.749023
0.748138 0.947113 0.736237
0.843658 0.951294 0.710693
0.943085 0.953064 0.660583
1.000000 0.954956 0.545593
0.000000 0.127533 0.437592
0.000000 0.129547 0.435822
0.141174 0.128540 0.429626
0.318268 0.133972 0.420898
0.476929 0.131561 0.416077
0.649109 0.184967 0.416595
0.908295 0.153351 0.458221
0.997589 0.104553 0.472382
0.000000 0.161926 0.450867
0.002533 0.172180 0.450378
0.156830 0.179504 0.446442
0.336487 0.174194 0.439117
0.495911 0.183929 0.433167
0.656067 0.235931 0.430878
0.918518 0.213684 0.475555
0.997589 0.194702 0.482269
0.003906 0.242371 0.459076
0.002899 0.243378 0.460602
0.144196 0.264771 0.484650
0.347229 0.267792 0.473389
0.509186 0.281586 0.462128
0.685272 0.337006 0.472382
0.939789 0.320068 0.504395
0.996704 0.326630 0.508698
0.000000 0.369873 0.497040
0.004791 0.371399 0.508545
0.074951 0.382538 0.505249
0.340271 0.400238 0.514496
0.539795 0.421875 0.512207
0.745483 0.458679 0.537659
0.970886 0.456421 0.546265
1.000000 0.478424 0.536285
0.000000 0.535767 0.553345
0.003052 0.538147 0.558044
0.059357 0.554504 0.558258
0.356598 0.564728 0.574982
0.580658 0.592560 0.584839
0.795593 0.600403 0.581421
0.970917 0.612427 0.571198
0.994568 0.624298 0.534393
0.003418 0.740173 0.672638
0.001007 0.747528 0.665680
0.212524 0.746002 0.668701
0.439575 0.746124 0.666687
0.604950 0.748901 0.651886
0.805817 0.765594 0.629486
0.951691 0.758270 0.590912
0.998993 0.756989 0.557007
0.244568 0.878815 0.744598
0.309052 0.881226 0.750702
0.420380 0.877686 0.750305
0.573181 0.874908 0.749420
0.669342 0.870728 0.729675
0.797607 0.873749 0.706024
0.949158 0.886536 0.683899
0.996948 0.872742 0.636322
0.574585 0.955353 0.823273
0.602783 0.954224 0.821899
0.663879 0.956238 0.826447
0.746735 0.952576 0.835175
0.773956 0.954071 0.809235
0.840363 0.948273 0.799622
0.928162 0.952698 0.773834
1.000000 0.958130 0.719574
0.001404 0.184082 0.611267
0.002014 0.188873 0.614685
0.033356 0.188873 0.609741
0.321289 0.189758 0.607361
0.500336 0.188873 0.596985
0.675171 0.185455 0.604584
0.840240 0.271362 0.600525
0.996063 0.372070 0.653259
0.000519 0.206818 0.624054
0.005432 0.221130 0.627472
0.049133 0.228607 0.624542
0.323334 0.226196 0.616333
0.513733 0.228455 0.609375
0.681610 0.229614 0.611908
0.854034 0.316132 0.614441
0.995056 0.404938 0.663757
0.002899 0.283997 0.631775
0.001404 0.283997 0.634796
0.001007 0.301575 0.642639
0.321289 0.306122 0.642151
0.524384 0.310944 0.635803
0.700073 0.329651 0.638733
0.863403 0.408844 0.642761
1.000000 0.477936 0.691223
0.002533 0.396820 0.660583
0.002899 0.398224 0.661987
0.003052 0.401123 0.660217
0.296234 0.423248 0.676666
0.535126 0.434662 0.678925
0.721191 0.460602 0.674011
0.876404 0.543182 0.696167
0.999634 0.582916 0.733856
0.000000 0.551300 0.704529
0.000000 0.551819 0.705017
0.001007 0.555359 0.705261
0.244598 0.565979 0.712585
0.528290 0.581818 0.718689
0.740692 0.619507 0.731842
0.906647 0.669586 0.753967
0.999481 0.691223 0.766113
0.000000 0.721069 0.748535
0.000000 0.719940 0.757751
0.007721 0.722473 0.764465
0.352417 0.736115 0.769775
0.578247 0.748901 0.780273
0.782928 0.770905 0.786835
0.929047 0.781281 0.781799
1.000000 0.790131 0.770538
0.187134 0.880219 0.830994
0.276306 0.882233 0.823151
0.415192 0.882233 0.830383
0.571289 0.884644 0.832001
0.703491 0.882599 0.833008
0.811768 0.881348 0.819855
0.937134 0.887177 0.815582
0.997467 0.883636 0.794434
0.592285 0.956848 0.860474
0.613159 0.960907 0.865784
0.658081 0.957886 0.865906
0.723724 0.954956 0.860352
0.807617 0.953064 0.864777
0.858826 0.955719 0.860229
0.919922 0.952179 0.849335
0.997101 0.960022 0.836823
0.003052 0.270966 0.813416
0.000000 0.274017 0.813416
0.003784 0.266022 0.802277
0.332550 0.270355 0.803436
0.543854 0.267944 0.800659
0.735504 0.271362 0.794708
0.889709 0.281860 0.797729
0.997589 0.412537 0.779755
0.000000 0.287537 0.812408
0.007599 0.298431 0.816833
0.001404 0.300812 0.815063
0.331421 0.301697 0.801910
0.548157 0.303741 0.809998
0.731567 0.306763 0.796082
0.896790 0.324341 0.800018
0.994812 0.445801 0.785828
0.000000 0.348389 0.817078
0.000000 0.344208 0.823181
0.000000 0.363068 0.820892
0.322449 0.370392 0.824554
0.549683 0.369019 0.813416
0.737518 0.386200 0.807617
0.896545 0.409363 0.812408
0.990631 0.523224 0.802155
0.001526 0.449829 0.826080
0.006317 0.445526 0.825562
0.006317 0.448303 0.833282
0.279053 0.462250 0.833527
0.543610 0.476257 0.829865
0.746124 0.492584 0.827332
0.896667 0.523468 0.827850
0.989136 0.628082 0.824158
0.001007 0.582825 0.837708
0.002411 0.584473 0.839233
0.003021 0.577759 0.834656
0.019196 0.569397 0.833282
0.509186 0.594574 0.842651
0.742584 0.618988 0.847321
0.901581 0.654419 0.843536
0.982544 0.738647 0.845551
0.005951 0.730804 0.854797
0.001526 0.731323 0.861115
0.001526 0.732330 0.854279
0.212006 0.732483 0.858826
0.484406 0.733734 0.858185
0.734222 0.749420 0.852264
0.897919 0.782684 0.856537
0.982788 0.830750 0.864899
0.000000 0.864014 0.868835
0.069855 0.865784 0.870728
0.292603 0.865906 0.873138
0.475281 0.867950 0.867310
0.645691 0.868835 0.870575
0.796967 0.878326 0.882751
0.923737 0.890594 0.883636
0.994812 0.902863 0.883636
0.554962 0.963959 0.904633
0.578369 0.963196 0.901703
0.635162 0.961792 0.904755
0.718658 0.960510 0.904633
0.806976 0.958008 0.907898
0.878326 0.959534 0.910065
0.931305 0.956604 0.900818
0.991791 0.964325 0.899811
0.000366 0.413422 0.932190
0.137665 0.425568 0.929047
0.320068 0.427704 0.926270
0.496643 0.421265 0.931824
0.669098 0.425568 0.921204
0.823303 0.435547 0.923981
0.957001 0.459351 0.913483
0.999634 0.499298 0.905518
0.003540 0.429108 0.936493
0.109680 0.445404 0.932709
0.318024 0.446289 0.935486
0.497284 0.449829 0.920319
0.669098 0.447693 0.919800
0.827850 0.464142 0.917633
0.953461 0.487152 0.913086
1.000000 0.523346 0.906006
0.002899 0.476776 0.933716
0.005066 0.471710 0.931580
0.294495 0.501343 0.927521
0.482452 0.505249 0.928894
0.663147 0.507538 0.924103
0.824829 0.516754 0.917786
0.950043 0.545624 0.909668
0.998993 0.576233 0.910431
0.001526 0.552063 0.928650
0.005829 0.550415 0.933960
0.109314 0.550537 0.931671
0.457550 0.579132 0.925995
0.652405 0.589874 0.925873
0.816193 0.595825 0.922089
0.938141 0.619873 0.910553
0.998108 0.652130 0.909943
0.001526 0.655914 0.930023
0.000000 0.654419 0.928528
0.006836 0.647064 0.928528
0.296204 0.641754 0.928528
0.615204 0.674652 0.925385
0.800262 0.683014 0.926117
0.925873 0.706024 0.917786
1.000000 0.738281 0.911316
0.002899 0.779755 0.936127
0.000519 0.781403 0.937775
0.000000 0.775726 0.935242
0.291077 0.769135 0.930939
0.487823 0.751434 0.932587
0.762695 0.773315 0.922333
0.910828 0.794708 0.922974
0.992798 0.822540 0.914368
0.202698 0.886658 0.932587
0.266052 0.880585 0.932190
0.365601 0.881592 0.933075
0.492981 0.878571 0.934204
0.618988 0.871857 0.934082
0.740448 0.870972 0.926636
0.889069 0.875793 0.920441
0.979126 0.902863 0.927277
0.544098 0.948639 0.937256
0.560669 0.958771 0.937897
0.612396 0.950043 0.952576
0.676270 0.948273 0.947876
0.761444 0.950165 0.940033
0.844666 0.952179 0.946869
0.914246 0.955231 0.949646
0.980377 0.964325 0.952576
