assets/luts/Fuji_Film.cube
#Created by: Adobe Photoshop Export Color Lookup Plugin
#Copyright: (C) Copyright 2026 Tim Martin and Presetpro.com
TITLE "Presetpro - Fuji Film.jpg"
#LUT size
LUT_3D_SIZE 8
#data domain
#LUT data points
DOMAIN_MIN 0.000000 0.000000 0.000000
DOMAIN_MAX 0.903226 0.903226 0.903226
0.066681 0.082367 0.078430
0.090698 0.086792 0.077911
0.126495 0.093109 0.082367
0.219330 0.099548 0.082367
0.380829 0.106018 0.068695
0.565613 0.095520 0.052368
0.721069 0.097168 0.012634
0.872223 0.128662 0.003540
0.067169 0.110321 0.086792
0.087799 0.110809 0.093628
0.143707 0.121063 0.095001
0.247803 0.136749 0.082367
0.412689 0.142334 0.064270
0.585205 0.145233 0.035797
0.733337 0.153564 0.000519
0.872986 0.185059 0.000000
0.000000 0.192261 0.092102
0.045410 0.196716 0.089172
0.149017 0.209991 0.076538
0.287018 0.233002 0.062744
0.460266 0.247314 0.040100
0.618591 0.253632 0.001007
0.762177 0.263885 0.003784
0.892090 0.287415 0.001007
0.001526 0.373779 0.086273
0.002899 0.377197 0.085663
0.020721 0.392365 0.077911
0.301666 0.405151 0.039215
0.515503 0.424744 0.000519
0.660217 0.419434 0.001526
0.790131 0.415405 0.000000
0.908142 0.425659 0.002014
0.005951 0.557281 0.141296
0.003937 0.559174 0.141571
0.001892 0.573822 0.154083
0.276855 0.578796 0.138580
0.488464 0.588531 0.090485
0.670715 0.607513 0.002045
0.802277 0.602325 0.000000
0.920441 0.600800 0.002014
0.000000 0.718536 0.267578
0.002533 0.719940 0.278320
0.127655 0.723724 0.279205
0.332825 0.728790 0.292114
0.488220 0.736267 0.277954
0.640106 0.742065 0.251892
0.788879 0.751434 0.216370
0.914978 0.769531 0.205231
0.232574 0.842255 0.412140
0.267670 0.849976 0.420868
0.337769 0.852386 0.418091
0.439331 0.852875 0.441772
0.541748 0.856049 0.452515
0.650604 0.863129 0.445312
0.759003 0.859222 0.424316
0.887024 0.874512 0.406464
0.491852 0.940033 0.585571
0.507660 0.939911 0.589874
0.549896 0.943970 0.604431
0.587341 0.942810 0.606842
0.648071 0.946381 0.622009
0.711334 0.948639 0.618713
0.784821 0.952179 0.613525
0.865143 0.955353 0.609100
0.075012 0.094116 0.105896
0.094635 0.091217 0.109314
0.143188 0.093109 0.102966
0.240845 0.092590 0.102478
0.409668 0.084747 0.101593
0.579254 0.063263 0.085388
0.735382 0.055542 0.061493
0.870331 0.096130 0.005829
0.077911 0.114746 0.110321
0.094635 0.118164 0.103485
0.154968 0.121582 0.110809
0.264008 0.127502 0.105896
0.430786 0.132446 0.095123
0.598358 0.127014 0.077911
0.744110 0.137390 0.051483
0.880707 0.165344 0.007324
0.023407 0.200104 0.123596
0.060211 0.201630 0.127899
0.156982 0.219727 0.115753
0.301819 0.234009 0.101074
0.476837 0.242737 0.090179
0.630737 0.243774 0.074005
0.764221 0.254639 0.032898
0.893097 0.280060 0.000000
0.000519 0.374786 0.135986
0.005310 0.384003 0.138397
0.078552 0.390472 0.148132
0.317841 0.409576 0.121674
0.522339 0.427643 0.081818
0.666046 0.412994 0.060974
0.798737 0.414520 0.043762
0.910675 0.429199 0.008606
0.000000 0.559692 0.203552
0.001526 0.561218 0.208862
0.024506 0.568054 0.210876
0.309875 0.580322 0.209503
0.508545 0.585236 0.181152
0.679565 0.613037 0.127258
0.808105 0.599915 0.117401
0.922455 0.604340 0.121429
0.000519 0.716003 0.311584
0.001556 0.723999 0.319061
0.194794 0.719055 0.319550
0.358765 0.729431 0.337128
0.503265 0.734741 0.325226
0.646423 0.740540 0.302338
0.787476 0.759644 0.273499
0.913971 0.767639 0.266815
0.280853 0.843536 0.442780
0.311218 0.843536 0.444916
0.367615 0.851746 0.451996
0.461212 0.850616 0.460083
0.554382 0.856812 0.481110
0.660217 0.860107 0.471619
0.765106 0.864014 0.453522
0.885529 0.874268 0.437714
0.511078 0.942963 0.601898
0.523346 0.937012 0.602142
0.555237 0.936890 0.612671
0.595306 0.942444 0.622009
0.655792 0.942444 0.632629
0.722198 0.948273 0.641113
0.786102 0.951294 0.629486
0.865540 0.952179 0.618713
0.077423 0.091217 0.154083
0.103485 0.094635 0.152557
0.155975 0.098053 0.160889
0.280701 0.079315 0.183044
0.445587 0.005829 0.176575
0.601257 0.001404 0.156982
0.743469 0.003937 0.154083
0.877289 0.006073 0.142303
0.070068 0.125488 0.177979
0.109314 0.125488 0.174194
0.173187 0.127014 0.184937
0.305695 0.120056 0.193787
0.467072 0.071594 0.179993
0.611145 0.076416 0.168732
0.752808 0.091339 0.163940
0.881226 0.130157 0.153046
0.022400 0.210876 0.200104
0.085785 0.216827 0.205566
0.189362 0.224670 0.212891
0.333649 0.228577 0.210999
0.496429 0.230621 0.196320
0.643890 0.235046 0.187836
0.776978 0.247314 0.186462
0.896149 0.272339 0.162933
0.002899 0.379211 0.258942
0.006958 0.385040 0.254517
0.183014 0.398315 0.254639
0.360474 0.411957 0.245392
0.540039 0.417419 0.233002
0.677673 0.414001 0.224152
0.798859 0.415924 0.211884
0.910187 0.431732 0.203156
0.019226 0.554260 0.325867
0.066498 0.555267 0.320312
0.218933 0.567902 0.317902
0.369507 0.581207 0.327240
0.526794 0.588531 0.308167
0.693481 0.606384 0.287018
0.812012 0.601440 0.284637
0.922852 0.599426 0.276550
0.147491 0.713348 0.388855
0.201508 0.715515 0.396332
0.298553 0.719940 0.396454
0.414551 0.723969 0.413544
0.529846 0.738007 0.408722
0.663635 0.742065 0.395081
0.796967 0.759644 0.369141
0.913452 0.764984 0.372162
0.353577 0.841644 0.504761
0.375977 0.843018 0.501587
0.427063 0.845551 0.513367
0.503845 0.848328 0.521942
0.587738 0.854279 0.539673
0.675659 0.858704 0.529144
0.773834 0.864014 0.513092
0.892090 0.874908 0.495270
0.535370 0.938660 0.631866
0.544220 0.939545 0.634033
0.572418 0.939026 0.636169
0.618347 0.941803 0.645020
0.673004 0.945465 0.661224
0.730286 0.948639 0.670074
0.797852 0.947876 0.660858
0.870453 0.952820 0.650085
0.072113 0.102844 0.282074
0.116241 0.101471 0.286011
0.198730 0.101471 0.290436
0.324310 0.090210 0.314941
0.500000 0.003937 0.333191
0.656311 0.001007 0.334564
0.773560 0.001526 0.303192
0.892456 0.002014 0.272217
0.051880 0.131927 0.306122
0.108398 0.134857 0.307648
0.208466 0.139282 0.317841
0.336578 0.133850 0.325714
0.520477 0.103455 0.354034
0.661621 0.064850 0.329102
0.784576 0.033234 0.308350
0.889435 0.081390 0.289185
0.000000 0.241852 0.337982
0.098145 0.240845 0.339478
0.221252 0.243774 0.347198
0.376678 0.247284 0.351654
0.544861 0.251556 0.360992
0.662109 0.243347 0.341766
0.774933 0.247803 0.321289
0.892487 0.276276 0.317841
0.003937 0.389496 0.378571
0.105194 0.396790 0.373383
0.265991 0.400726 0.386047
0.419922 0.412994 0.395782
0.552307 0.412994 0.388947
0.678558 0.415894 0.378052
0.792542 0.429321 0.367432
0.901947 0.438934 0.354523
0.166748 0.556274 0.422363
0.225952 0.555786 0.424805
0.340942 0.565491 0.439484
0.440857 0.578796 0.443909
0.563934 0.588531 0.437958
0.699951 0.597412 0.434540
0.810638 0.598541 0.429596
0.917023 0.598419 0.419586
0.321442 0.706665 0.488556
0.359283 0.708160 0.502838
0.423401 0.710693 0.500824
0.479309 0.723846 0.503845
0.577728 0.733734 0.519043
0.683502 0.741943 0.503723
0.810883 0.760651 0.490814
0.909180 0.761047 0.485504
0.461609 0.830231 0.585571
0.474640 0.834167 0.585571
0.486267 0.841003 0.576202
0.547882 0.843506 0.588623
0.619385 0.850250 0.603790
0.700836 0.860596 0.606323
0.784698 0.863129 0.584686
0.901703 0.876282 0.580017
0.577240 0.934601 0.680847
0.576324 0.934082 0.675903
0.602783 0.935608 0.676910
0.643524 0.938538 0.689056
0.689056 0.940033 0.699036
0.754852 0.947876 0.718292
0.808746 0.948395 0.707794
0.885529 0.948639 0.695648
0.058838 0.109924 0.439606
0.127014 0.104370 0.440887
0.232635 0.107788 0.446350
0.368347 0.104492 0.455078
0.520111 0.080597 0.470886
0.679077 0.043060 0.492523
0.818970 0.090759 0.498474
0.918549 0.123260 0.480377
0.045685 0.146606 0.449371
0.128540 0.152069 0.454163
0.240845 0.154968 0.459229
0.381653 0.163818 0.462524
0.532745 0.158142 0.478729
0.685150 0.151825 0.494415
0.819763 0.186737 0.502533
0.920166 0.197479 0.484680
0.025116 0.247314 0.469971
0.132568 0.252106 0.476288
0.261993 0.260956 0.476807
0.410126 0.281097 0.483276
0.555267 0.286530 0.497406
0.696411 0.301208 0.510468
0.814056 0.314117 0.511139
0.914246 0.308167 0.481262
0.125519 0.410126 0.498169
0.196960 0.413391 0.492493
0.323334 0.418976 0.507538
0.442993 0.424774 0.516876
0.574860 0.442871 0.527283
0.708160 0.452728 0.536499
0.806335 0.439606 0.513275
0.907166 0.424408 0.482147
0.251404 0.557159 0.533630
0.293640 0.559174 0.536011
0.376740 0.563110 0.533783
0.487549 0.570435 0.547760
0.602325 0.582733 0.559174
0.701721 0.588654 0.551971
0.806061 0.591583 0.536530
0.909546 0.588898 0.520721
0.369019 0.697296 0.574493
0.394073 0.703369 0.577759
0.452393 0.703217 0.579803
0.538025 0.708679 0.596863
0.613068 0.727783 0.601776
0.705505 0.739532 0.602692
0.815063 0.751556 0.598022
0.914856 0.750305 0.593475
0.481720 0.827850 0.639587
0.496033 0.831757 0.644165
0.536377 0.830750 0.654297
0.598877 0.838074 0.665527
0.652130 0.847321 0.666046
0.728271 0.859222 0.681213
0.806213 0.861115 0.665161
0.914734 0.878174 0.663513
0.597717 0.929047 0.724365
0.613159 0.930695 0.730682
0.647430 0.929779 0.734467
0.669067 0.931671 0.730713
0.711578 0.938019 0.742065
0.771423 0.944733 0.761414
0.827972 0.948395 0.761810
0.895386 0.949921 0.749146
0.117157 0.128021 0.582428
0.174713 0.133972 0.584076
0.281586 0.129425 0.583679
0.418976 0.141663 0.595947
0.560211 0.165344 0.600403
0.695007 0.174835 0.621643
0.816956 0.204437 0.634155
0.937500 0.270966 0.642883
0.129669 0.176605 0.586456
0.191895 0.179138 0.587097
0.296387 0.183411 0.592926
0.426819 0.199097 0.598724
0.567535 0.221252 0.602783
0.692474 0.238586 0.618469
0.823151 0.266541 0.641876
0.938538 0.319427 0.651245
0.176727 0.276642 0.606079
0.222900 0.281219 0.599396
0.322845 0.290314 0.601776
0.450836 0.303741 0.610260
0.583588 0.332947 0.616974
0.709167 0.348267 0.630371
0.824799 0.371033 0.648590
0.931580 0.406586 0.656189
0.284363 0.436523 0.621521
0.304718 0.433990 0.625824
0.370392 0.423889 0.625305
0.478149 0.441864 0.628235
0.601776 0.462463 0.635681
0.709686 0.480682 0.647430
0.824677 0.496887 0.661621
0.924255 0.518402 0.666046
0.324371 0.567413 0.636566
0.352844 0.569061 0.635040
0.416565 0.574890 0.637451
0.512604 0.580322 0.648468
0.612396 0.590576 0.653778
0.717529 0.610687 0.670990
0.822266 0.624939 0.683746
0.914612 0.606750 0.658203
0.414062 0.700317 0.665039
0.430756 0.703735 0.665039
0.482727 0.704254 0.677795
0.550659 0.713593 0.676788
0.636566 0.719940 0.685150
0.729156 0.734222 0.695251
0.814423 0.732208 0.688568
0.902588 0.728790 0.666412
0.497925 0.823425 0.704742
0.512085 0.820374 0.707153
0.549286 0.822266 0.710571
0.605042 0.829224 0.719055
0.676666 0.836578 0.733093
0.750427 0.853912 0.746490
0.828217 0.860870 0.747009
0.919922 0.867950 0.740173
0.610260 0.924744 0.776489
0.615570 0.928284 0.775330
0.640472 0.931580 0.779633
0.683228 0.931183 0.786072
0.744110 0.934082 0.798859
0.794708 0.943970 0.810394
0.848450 0.947876 0.823273
0.907654 0.949646 0.808228
0.249603 0.186462 0.724121
0.291077 0.183044 0.721588
0.372040 0.192291 0.719940
0.485138 0.209991 0.724976
0.605499 0.241516 0.727905
0.720947 0.290588 0.741058
0.827850 0.310181 0.749420
0.927765 0.350403 0.764343
0.271484 0.235046 0.721069
0.311188 0.238068 0.724121
0.386597 0.244904 0.725739
0.494995 0.261597 0.730438
0.609161 0.288666 0.732697
0.726379 0.333344 0.740173
0.828339 0.350403 0.754333
0.925751 0.385712 0.766357
0.310181 0.329803 0.731812
0.342438 0.332581 0.732697
0.414185 0.337494 0.729797
0.514618 0.352692 0.737122
0.621948 0.379883 0.739807
0.731201 0.416199 0.745117
0.826691 0.429718 0.757111
0.929932 0.461212 0.771423
0.343079 0.449829 0.739136
0.376709 0.450348 0.739044
0.439606 0.455261 0.744995
0.530670 0.469452 0.748779
0.629242 0.486145 0.749390
0.734222 0.520416 0.753693
0.827820 0.535217 0.766602
0.920441 0.559753 0.773438
0.424805 0.599396 0.745483
0.446442 0.599518 0.744598
0.493225 0.602448 0.749420
0.536621 0.588654 0.757629
0.632660 0.601318 0.756226
0.733582 0.627716 0.768005
0.824799 0.646301 0.778748
0.916504 0.664642 0.790649
0.456543 0.712097 0.760651
0.474762 0.714630 0.759277
0.509674 0.713593 0.764587
0.563934 0.714508 0.759155
0.648834 0.722961 0.778870
0.737518 0.731689 0.788116
0.828979 0.752197 0.795441
0.915253 0.764954 0.806061
0.525879 0.820007 0.792542
0.538513 0.824799 0.794556
0.563049 0.823914 0.786713
0.615173 0.827850 0.799500
0.676788 0.833801 0.801270
0.756226 0.839111 0.812653
0.844421 0.854401 0.826080
0.915131 0.847961 0.808746
0.614563 0.920441 0.832397
0.626312 0.919434 0.835815
0.650482 0.919037 0.836700
0.686279 0.924866 0.835175
0.736115 0.931305 0.847443
0.803925 0.936127 0.858459
0.867188 0.940430 0.875031
0.921204 0.948395 0.874512
0.429108 0.300079 0.853760
0.453522 0.308411 0.854279
0.502472 0.320068 0.856293
0.583801 0.340790 0.858826
0.668488 0.372314 0.861237
0.764465 0.411407 0.860840
0.856689 0.452637 0.866028
0.936890 0.472229 0.873749
0.439972 0.343719 0.854279
0.464905 0.351166 0.857056
0.517151 0.356873 0.862366
0.587097 0.372559 0.859192
0.674011 0.398621 0.862885
0.768005 0.442383 0.868317
0.855804 0.480591 0.871613
0.937378 0.500183 0.874268
0.456543 0.420105 0.863770
0.479584 0.418091 0.861237
0.523071 0.429962 0.859314
0.591125 0.442261 0.859070
0.681213 0.465790 0.865143
0.765594 0.498688 0.866547
0.854797 0.536499 0.869202
0.934967 0.552673 0.875763
0.475037 0.509277 0.863129
0.491089 0.515228 0.861481
0.533722 0.517120 0.865540
0.603424 0.530792 0.871094
0.679840 0.552429 0.866058
0.766754 0.576477 0.868683
0.850342 0.609222 0.872986
0.931671 0.621124 0.878815
0.515167 0.639648 0.867432
0.517914 0.632812 0.870453
0.536743 0.619171 0.869720
0.595184 0.622284 0.869446
0.675903 0.636688 0.873505
0.767639 0.659729 0.878937
0.846313 0.688690 0.877930
0.928406 0.699432 0.887665
0.531830 0.750549 0.868073
0.542816 0.745850 0.868439
0.580505 0.747131 0.870605
0.628204 0.749023 0.871979
0.669586 0.733093 0.877289
0.754089 0.746002 0.882751
0.843903 0.767639 0.885651
0.922455 0.783325 0.893616
0.570892 0.838318 0.881104
0.581299 0.843536 0.880341
0.598877 0.845428 0.881714
0.638214 0.845184 0.887787
0.690948 0.840485 0.888184
0.763580 0.842499 0.889191
0.840118 0.848328 0.894745
0.920441 0.867950 0.907288
0.645538 0.924347 0.901581
0.653381 0.930817 0.907776
0.670593 0.925873 0.903107
0.701965 0.924225 0.907532
0.741302 0.926636 0.912201
0.795441 0.933716 0.917267
0.860992 0.934845 0.920563
0.936890 0.937256 0.928284
