assets/luts/Fuji_Film.cube
#Created by: Adobe Photoshop Export Color Lookup Plugin
#Copyright: (C) Copyright 2026 Tim Martin and Presetpro.com
TITLE "Presetpro - Fuji Film.jpg"
#LUT size
LUT_3D_SIZE 5
#data domain
#LUT data points
DOMAIN_MIN 0.000000 0.000000 0.000000
DOMAIN_MAX 0.903226 0.903226 0.903226
0.066681 0.082367 0.078430
0.121582 0.090210 0.082367
0.299011 0.104126 0.078430
0.605438 0.092865 0.041870
0.872223 0.128662 0.003540
0.031769 0.160400 0.087158
0.121185 0.176086 0.084106
0.358337 0.209229 0.060089
0.651611 0.224030 0.005188
0.886902 0.258942 0.000885
0.000000 0.471161 0.095490
0.000885 0.482056 0.097260
0.393127 0.500763 0.034912
0.709167 0.513397 0.001770
0.917908 0.513916 0.000000
0.001251 0.749146 0.300842
0.127930 0.756622 0.317902
0.430695 0.766235 0.331848
0.677307 0.779266 0.294373
0.910309 0.803162 0.253906
0.491852 0.940033 0.585571
0.528015 0.943085 0.590637
0.614166 0.944336 0.610260
0.732208 0.948273 0.615051
0.865143 0.955353 0.609100
0.078430 0.093231 0.139893
0.129913 0.095001 0.146851
0.353027 0.055664 0.159515
0.628479 0.002136 0.136749
0.876923 0.024048 0.106262
0.053131 0.176086 0.168243
0.155212 0.187836 0.175201
0.401459 0.196564 0.166473
0.668182 0.200867 0.150787
0.893494 0.235779 0.115479
0.000885 0.474213 0.265015
0.080414 0.482422 0.254120
0.432831 0.505951 0.235413
0.712585 0.508606 0.205292
0.920807 0.512543 0.199188
0.152954 0.748779 0.396210
0.272980 0.752686 0.399750
0.474243 0.766235 0.427582
0.689941 0.774078 0.397980
0.911316 0.798859 0.372803
0.531189 0.942688 0.623413
0.559906 0.939545 0.629089
0.637329 0.942566 0.645172
0.747009 0.945984 0.655151
0.869446 0.952179 0.640869
0.070587 0.103729 0.365662
0.190491 0.097656 0.372253
0.424500 0.074524 0.394897
0.712585 0.002167 0.419678
0.908661 0.000000 0.377045
0.000000 0.208344 0.400085
0.200989 0.212250 0.406647
0.459412 0.230988 0.425751
0.719543 0.238403 0.431427
0.902588 0.229340 0.388702
0.131744 0.475464 0.461548
0.285095 0.483307 0.461060
0.514679 0.502930 0.475494
0.720062 0.504700 0.461060
0.904755 0.516846 0.440552
0.381531 0.737030 0.550171
0.445404 0.741455 0.556091
0.559998 0.754852 0.568756
0.720428 0.773712 0.571411
0.910431 0.788879 0.562683
0.611633 0.929047 0.707275
0.622009 0.930786 0.705994
0.678284 0.940430 0.713959
0.775726 0.946106 0.734467
0.889069 0.947876 0.720032
0.143982 0.137390 0.615967
0.276398 0.141296 0.622406
0.504364 0.163940 0.631653
0.729675 0.206726 0.648590
0.933838 0.289581 0.676544
0.192413 0.258057 0.628479
0.309937 0.266785 0.637207
0.522186 0.297272 0.640228
0.737030 0.337891 0.662506
0.933960 0.399384 0.685272
0.329559 0.513458 0.650208
0.413666 0.517334 0.656433
0.558746 0.517365 0.670715
0.744354 0.553558 0.689056
0.926117 0.588867 0.706909
0.447205 0.733459 0.698181
0.488190 0.735229 0.699951
0.603149 0.743958 0.710327
0.759644 0.764832 0.729675
0.909943 0.762329 0.707794
0.612915 0.928772 0.788879
0.637695 0.925232 0.792419
0.708679 0.932190 0.802795
0.806213 0.937378 0.814941
0.912201 0.949158 0.823792
0.429108 0.300079 0.853760
0.489563 0.317017 0.855042
0.627716 0.352814 0.857330
0.791534 0.423523 0.864777
0.936890 0.472229 0.873749
0.452637 0.396332 0.859955
0.508301 0.405060 0.861237
0.631989 0.434265 0.865662
0.791138 0.489197 0.866425
0.937775 0.536255 0.874268
0.469452 0.560638 0.863373
0.517395 0.564056 0.870331
0.637695 0.584930 0.870850
0.784943 0.629852 0.874268
0.926514 0.659454 0.881195
0.532318 0.774597 0.869965
0.559265 0.771912 0.871216
0.651978 0.774078 0.876770
0.769653 0.768768 0.881226
0.922089 0.801910 0.896027
0.645538 0.924347 0.901581
0.666046 0.921326 0.903870
0.724365 0.928284 0.912201
0.809357 0.931824 0.912201
0.936890 0.937256 0.928284
