assets/luts/Fuji_Film.cube
#Created by: Adobe Photoshop Export Color Lookup Plugin
#Copyright: (C) Copyright 2026 Tim Martin and Presetpro.com
TITLE "Presetpro - Fuji Film.jpg"
#LUT size
LUT_3D_SIZE 32
#data domain
DOMAIN_MIN 0.0 0.0 0.0
DOMAIN_MAX 1.0 1.0 1.0
#LUT data points
0.066681 0.082367 0.078430
0.078430 0.086273 0.082367
0.082367 0.090210 0.078430
0.086273 0.086273 0.078430
0.090698 0.086792 0.077911
0.095367 0.089569 0.074524
0.107391 0.090942 0.079193
0.121582 0.090210 0.082367
0.126495 0.093109 0.082367
0.150146 0.094116 0.087921
0.165955 0.094116 0.083740
0.195190 0.098053 0.079834
0.219330 0.099548 0.082367
0.253632 0.103607 0.078430
0.299011 0.104126 0.078430
0.342651 0.103973 0.078430
0.380829 0.106018 0.068695
0.430786 0.105499 0.068420
0.478729 0.098053 0.066681
0.523376 0.098053 0.054901
0.565613 0.095520 0.052368
0.605438 0.092865 0.041870
0.648071 0.094116 0.031372
0.682220 0.086273 0.023529
0.721069 0.097168 0.012634
0.759399 0.101196 0.000000
0.796844 0.105896 0.000000
0.825928 0.112701 0.000000
0.872223 0.128662 0.003540
0.904633 0.140686 0.000244
0.936737 0.156494 0.000000
0.972534 0.172546 0.003937
0.070587 0.086517 0.082489
0.070709 0.086517 0.082214
0.082367 0.090576 0.078674
0.086029 0.093872 0.082092
0.090698 0.090454 0.082214
0.099670 0.094238 0.079071
0.109924 0.094757 0.081726
0.119293 0.097412 0.082489
0.130676 0.101196 0.078674
0.151428 0.095367 0.081329
0.167480 0.095642 0.077423
0.196198 0.103210 0.083618
0.220612 0.104980 0.078552
0.257660 0.107635 0.074646
0.295197 0.112091 0.076782
0.341125 0.113739 0.068573
0.386627 0.111816 0.074249
0.436615 0.109924 0.066528
0.482025 0.107788 0.056427
0.522003 0.106140 0.053253
0.568390 0.106140 0.044647
0.611786 0.106018 0.035309
0.648224 0.103363 0.028595
0.686279 0.098297 0.024170
0.718292 0.106140 0.001129
0.760925 0.109314 0.003296
0.800629 0.117279 0.000641
0.836700 0.124725 0.000000
0.865662 0.140533 0.000000
0.908417 0.152802 0.000366
0.936493 0.164581 0.000000
0.968506 0.176727 0.003784
0.070343 0.094635 0.086517
0.074371 0.097900 0.089813
0.078430 0.098053 0.082367
0.079193 0.098053 0.082092
0.094116 0.094879 0.085510
0.102203 0.098297 0.082214
0.104736 0.099304 0.079681
0.120941 0.101318 0.085144
0.137512 0.102203 0.082611
0.148254 0.103363 0.085388
0.167999 0.106140 0.084015
0.193787 0.108673 0.087158
0.226929 0.107910 0.082092
0.262238 0.111450 0.072479
0.301025 0.117889 0.082092
0.345551 0.119537 0.069458
0.392731 0.119934 0.065033
0.438507 0.120056 0.066406
0.485291 0.116119 0.054779
0.528412 0.117889 0.055145
0.568878 0.115875 0.044525
0.609619 0.115234 0.039734
0.655670 0.114227 0.025543
0.686401 0.114471 0.012268
0.725250 0.121185 0.003937
0.765594 0.122314 0.004669
0.800751 0.128662 0.003052
0.836945 0.139923 0.006592
0.868439 0.152313 0.000000
0.905365 0.161530 0.000763
0.933197 0.172546 0.000000
0.968628 0.188751 0.003662
0.063507 0.105896 0.089813
0.066681 0.101959 0.089447
0.077667 0.102325 0.086273
0.082367 0.102722 0.078796
0.086792 0.106384 0.082855
0.098419 0.106628 0.086273
0.110565 0.106628 0.089813
0.125122 0.106262 0.088440
0.139008 0.109558 0.085022
0.152802 0.107391 0.081604
0.179382 0.111816 0.080597
0.200623 0.119415 0.075531
0.230713 0.119537 0.074524
0.273071 0.125854 0.076782
0.307617 0.127625 0.074524
0.353790 0.127380 0.074127
0.397522 0.131805 0.068329
0.446472 0.131927 0.063751
0.483917 0.130157 0.051483
0.535858 0.129791 0.048584
0.579132 0.130554 0.048462
0.614929 0.126251 0.029602
0.656677 0.132965 0.021881
0.693634 0.131165 0.009247
0.727142 0.138397 0.000885
0.768005 0.141937 0.000000
0.807861 0.149139 0.002899
0.838074 0.153564 0.006073
0.869843 0.165070 0.000000
0.908417 0.180267 0.000366
0.936737 0.188751 0.000000
0.968628 0.200378 0.003540
0.067169 0.110321 0.086792
0.071106 0.114227 0.089691
0.071350 0.114227 0.089691
0.075012 0.114227 0.082855
0.087799 0.110809 0.093628
0.098297 0.118164 0.092468
0.111572 0.121307 0.085785
0.119781 0.118652 0.078796
0.143707 0.121063 0.095001
0.156219 0.117004 0.076782
0.185455 0.126495 0.083099
0.208588 0.127380 0.081482
0.247803 0.136749 0.082367
0.275879 0.138885 0.071106
0.319611 0.140930 0.072754
0.360870 0.142181 0.070587
0.412689 0.142334 0.064270
0.454956 0.142181 0.058441
0.497040 0.148376 0.051361
0.538055 0.148010 0.042755
0.585205 0.145233 0.035797
0.625580 0.148254 0.022644
0.659851 0.152313 0.014557
0.695007 0.153961 0.006836
0.733337 0.153564 0.000519
0.772675 0.161041 0.004181
0.807587 0.168365 0.001770
0.838196 0.176971 0.000000
0.872986 0.185059 0.000000
0.909058 0.193420 0.000519
0.937378 0.205322 0.000519
0.972534 0.220612 0.004425
0.057556 0.126129 0.086273
0.062866 0.126129 0.086914
0.070465 0.122589 0.086273
0.075531 0.126129 0.086914
0.082733 0.129913 0.089691
0.098663 0.130035 0.086914
0.106781 0.131165 0.088684
0.124207 0.131561 0.086273
0.143829 0.135223 0.086273
0.161041 0.135864 0.085785
0.192657 0.142426 0.083130
0.215820 0.141296 0.074615
0.259155 0.150909 0.080200
0.293427 0.152557 0.074890
0.332153 0.155975 0.073639
0.375397 0.163300 0.072601
0.417389 0.164062 0.060730
0.465210 0.162689 0.054260
0.507416 0.168884 0.048065
0.546631 0.164459 0.043152
0.590393 0.165833 0.034668
0.632904 0.169250 0.028229
0.667297 0.173798 0.014038
0.702484 0.173431 0.000000
0.738281 0.178986 0.002411
0.773438 0.182281 0.001526
0.809875 0.189484 0.000000
0.843018 0.194061 0.001251
0.876282 0.208344 0.000000
0.912720 0.216705 0.000244
0.941315 0.228455 0.000000
0.973816 0.240479 0.000000
0.058075 0.139526 0.094116
0.058075 0.139526 0.094116
0.064636 0.139771 0.091217
0.069458 0.143066 0.093750
0.078949 0.142944 0.094238
0.091339 0.146606 0.092468
0.106628 0.149780 0.086273
0.123077 0.152039 0.087036
0.142303 0.158875 0.079681
0.170013 0.155975 0.078430
0.196075 0.166992 0.078430
0.231873 0.167114 0.074005
0.264008 0.173187 0.072998
0.303802 0.175720 0.064392
0.343658 0.178497 0.071991
0.386169 0.183411 0.061615
0.433319 0.183929 0.058075
0.478180 0.186218 0.051117
0.518188 0.190521 0.038574
0.562714 0.190521 0.032257
0.598114 0.194427 0.025665
0.642639 0.194427 0.018585
0.677795 0.199249 0.009369
0.711212 0.201508 0.000000
0.743195 0.203674 0.000000
0.785217 0.209351 0.000000
0.818970 0.215942 0.002533
0.848969 0.222137 0.000763
0.881592 0.232513 0.002777
0.920319 0.241241 0.000244
0.941559 0.249207 0.000763
0.977234 0.261841 0.002258
0.031769 0.160400 0.087158
0.042877 0.163422 0.091095
0.045532 0.164062 0.091949
0.053009 0.163818 0.093628
0.065796 0.167358 0.090210
0.087921 0.169128 0.089813
0.102478 0.172028 0.092224
0.121185 0.176086 0.084106
0.148132 0.179993 0.086151
0.172302 0.182281 0.080597
0.202911 0.194794 0.078064
0.242615 0.195679 0.080078
0.278168 0.200256 0.077545
0.318878 0.202148 0.067291
0.358337 0.209229 0.060089
0.402466 0.210236 0.048065
0.451111 0.213409 0.050110
0.491364 0.213531 0.037842
0.531586 0.218323 0.030365
0.571289 0.219208 0.024170
0.610504 0.221741 0.008728
0.651611 0.224030 0.005188
0.685394 0.225922 0.003052
0.721191 0.224915 0.000000
0.754211 0.230988 0.006073
0.793945 0.236664 0.000885
0.824280 0.241241 0.000000
0.855164 0.249573 0.000000
0.886902 0.258942 0.000885
0.923340 0.266022 0.000000
0.950531 0.273987 0.000000
0.980377 0.286774 0.006958
0.000000 0.192261 0.092102
0.008728 0.195312 0.089325
0.011658 0.193298 0.090210
0.025696 0.192657 0.093475
0.045410 0.196716 0.089172
0.060211 0.200500 0.089813
0.087280 0.203522 0.089172
0.112213 0.205048 0.085144
0.149017 0.209991 0.076538
0.168243 0.218597 0.085022
0.207977 0.216919 0.071991
0.249329 0.230103 0.064636
0.287018 0.233002 0.062744
0.328461 0.240356 0.056793
0.374512 0.243500 0.049591
0.418152 0.245148 0.044006
0.460266 0.247314 0.040100
0.503021 0.248322 0.030121
0.548035 0.253754 0.023773
0.587097 0.251099 0.007324
0.618591 0.253632 0.001007
0.658447 0.253754 0.001648
0.693359 0.256042 0.001770
0.728394 0.259949 0.003815
0.762177 0.263885 0.003784
0.797974 0.268951 0.000000
0.828857 0.274994 0.004944
0.858307 0.281952 0.004944
0.892090 0.287415 0.001007
0.924225 0.293976 0.002655
0.952301 0.302948 0.000000
0.981415 0.313843 0.000000
0.002777 0.226440 0.092987
0.005707 0.229340 0.095886
0.000885 0.230591 0.088562
0.002777 0.234283 0.091339
0.000641 0.239716 0.088043
0.021393 0.238831 0.083374
0.060852 0.242126 0.087921
0.098175 0.240845 0.085785
0.138000 0.249695 0.082367
0.165344 0.256653 0.077301
0.211243 0.258942 0.069336
0.251740 0.259949 0.061218
0.303558 0.279053 0.055420
0.345428 0.280701 0.047699
0.385406 0.284119 0.033020
0.432465 0.288788 0.029114
0.478821 0.285248 0.025177
0.521698 0.286255 0.017334
0.560425 0.285248 0.005585
0.597473 0.284119 0.002777
0.633392 0.288025 0.002777
0.670593 0.285645 0.000000
0.702972 0.289673 0.002777
0.741180 0.295990 0.005188
0.770142 0.298920 0.000000
0.805939 0.304993 0.002014
0.833893 0.311310 0.000000
0.861847 0.313324 0.000000
0.896912 0.322571 0.000000
0.926117 0.327240 0.001129
0.958893 0.337616 0.003784
0.982666 0.345734 0.008972
0.000000 0.274231 0.085022
0.000000 0.276886 0.085266
0.000000 0.274231 0.084869
0.003937 0.275513 0.088043
0.000519 0.282715 0.081726
0.005951 0.279419 0.087677
0.007965 0.287262 0.083252
0.066681 0.287781 0.084106
0.118896 0.294586 0.078186
0.162537 0.296631 0.078552
0.212891 0.308258 0.070709
0.260437 0.310791 0.059082
0.301666 0.311279 0.049591
0.356171 0.326843 0.032898
0.400970 0.327881 0.016205
0.444611 0.328369 0.007965
0.485321 0.328369 0.000000
0.528442 0.326111 0.000000
0.571167 0.329132 0.001648
0.607727 0.330505 0.000000
0.636200 0.326477 0.000000
0.676025 0.326630 0.001404
0.711975 0.328003 0.000000
0.745850 0.333710 0.001648
0.778107 0.334839 0.002655
0.814026 0.340912 0.002014
0.841095 0.346222 0.006592
0.868195 0.350159 0.002167
0.903351 0.353699 0.000000
0.931427 0.359253 0.000244
0.957886 0.366974 0.003784
0.986847 0.377594 0.006592
0.000000 0.322021 0.082367
0.000000 0.324554 0.084900
0.001404 0.320892 0.083740
0.003937 0.324799 0.083496
0.000519 0.328094 0.084381
0.001526 0.328735 0.084900
0.000000 0.333801 0.086670
0.008484 0.336060 0.084900
0.088806 0.343658 0.078064
0.141052 0.346954 0.069214
0.203400 0.352264 0.064148
0.259064 0.352051 0.057190
0.303192 0.362640 0.035309
0.352386 0.366547 0.022522
0.408051 0.376923 0.012146
0.459900 0.380859 0.000000
0.500580 0.376923 0.000000
0.541199 0.374146 0.000763
0.578003 0.373047 0.000000
0.617706 0.371735 0.001007
0.647949 0.366333 0.001404
0.689056 0.368988 0.000000
0.722351 0.369110 0.000000
0.754211 0.373047 0.001404
0.785309 0.374176 0.000000
0.817963 0.380890 0.000000
0.845154 0.382141 0.000000
0.872986 0.386841 0.005951
0.905365 0.392029 0.004303
0.936493 0.395172 0.000000
0.965454 0.401520 0.000000
0.993561 0.408325 0.003937
0.001526 0.373779 0.086273
0.001526 0.373779 0.086029
0.001526 0.373779 0.078430
0.001526 0.373779 0.078430
0.002899 0.377197 0.085663
0.002411 0.380463 0.087799
0.001526 0.383881 0.082367
0.000000 0.386169 0.082367
0.020721 0.392365 0.077911
0.121063 0.396545 0.069824
0.188110 0.398804 0.059326
0.244904 0.403870 0.057678
0.301666 0.405151 0.039215
0.348602 0.406769 0.021881
0.402985 0.409058 0.007965
0.461548 0.417664 0.000366
0.515503 0.424744 0.000519
0.551941 0.421478 0.000000
0.591034 0.420837 0.003937
0.626831 0.416901 0.000000
0.660217 0.419434 0.001526
0.695007 0.417145 0.000000
0.730316 0.416901 0.004181
0.762177 0.415375 0.003021
0.790131 0.415405 0.000000
0.825928 0.416931 0.000000
0.856934 0.424103 0.003540
0.886261 0.423248 0.000000
0.908142 0.425659 0.002014
0.938019 0.435425 0.000244
0.968262 0.439850 0.000000
0.995178 0.446777 0.001526
0.000000 0.425507 0.083984
0.000000 0.423218 0.083984
0.002289 0.425751 0.086517
0.002289 0.426758 0.087524
0.006714 0.426636 0.086792
0.004303 0.426147 0.085632
0.000000 0.432465 0.090942
0.001648 0.433350 0.089569
0.001648 0.439941 0.082977
0.075012 0.441193 0.083496
0.173553 0.443481 0.077545
0.231598 0.452209 0.066040
0.298889 0.450562 0.046295
0.347076 0.454590 0.033020
0.401093 0.456879 0.011505
0.452972 0.458771 0.000000
0.507324 0.467560 0.000763
0.555878 0.472046 0.003418
0.594086 0.470276 0.001648
0.633148 0.468628 0.000000
0.663239 0.470032 0.001648
0.703491 0.467621 0.000000
0.733856 0.462433 0.001129
0.766235 0.460785 0.001648
0.801514 0.459167 0.001648
0.829987 0.460785 0.000763
0.857544 0.464722 0.000000
0.886536 0.464722 0.000000
0.914490 0.467377 0.002289
0.940155 0.470947 0.000000
0.966614 0.480804 0.002289
0.992157 0.486603 0.000000
0.000000 0.471161 0.095490
0.005676 0.471558 0.097656
0.002167 0.473328 0.097656
0.002167 0.472931 0.096893
0.004303 0.475464 0.099792
0.000641 0.476105 0.100433
0.001770 0.479401 0.097260
0.000885 0.482056 0.097260
0.000000 0.485077 0.107025
0.035645 0.489014 0.093719
0.152893 0.490143 0.095490
0.222595 0.492554 0.083740
0.287231 0.498108 0.074371
0.344543 0.500519 0.056549
0.393127 0.500763 0.034912
0.448669 0.506714 0.018188
0.500763 0.506592 0.001770
0.548828 0.509430 0.000000
0.600159 0.516449 0.003540
0.640625 0.516846 0.000000
0.671112 0.512543 0.002533
0.709167 0.513397 0.001770
0.740540 0.508606 0.001129
0.775208 0.509613 0.001129
0.803925 0.507721 0.002167
0.832642 0.505463 0.000000
0.861755 0.508362 0.001526
0.889191 0.510773 0.001770
0.917908 0.513916 0.000000
0.946106 0.512543 0.000000
0.974060 0.518616 0.000000
1.000000 0.526062 0.000000
0.002014 0.517212 0.117371
0.002014 0.517212 0.117371
0.000000 0.517212 0.117371
0.002777 0.517212 0.116608
0.004059 0.515839 0.120056
0.005310 0.521759 0.121307
0.000000 0.523041 0.117523
0.000000 0.525055 0.113464
0.002777 0.528107 0.123444
0.027954 0.529877 0.125214
0.131989 0.534943 0.125366
0.221954 0.536835 0.108887
0.285461 0.536682 0.103577
0.334930 0.539093 0.090698
0.390961 0.542908 0.076782
0.442719 0.544678 0.062347
0.498474 0.550476 0.036621
0.540344 0.550354 0.015045
0.587158 0.553314 0.003784
0.639252 0.564270 0.000000
0.676147 0.565521 0.001404
0.711212 0.563385 0.003784
0.743591 0.559448 0.003021
0.778381 0.554535 0.000000
0.806061 0.553650 0.000000
0.836182 0.551361 0.000000
0.862244 0.550629 0.001892
0.892609 0.557831 0.005676
0.917389 0.554779 0.000000
0.946106 0.556671 0.000000
0.974335 0.560364 0.001892
0.992157 0.558502 0.000000
0.005951 0.557281 0.141296
0.003937 0.559326 0.141296
0.003937 0.561218 0.137543
0.002014 0.563110 0.139404
0.003937 0.559174 0.141571
0.004425 0.562469 0.143463
0.002533 0.563721 0.147247
0.000000 0.569946 0.150177
0.001892 0.573822 0.154083
0.028442 0.569061 0.151062
0.138702 0.576141 0.153381
0.211334 0.576782 0.141602
0.276855 0.578796 0.138580
0.331390 0.584229 0.128845
0.390717 0.586517 0.118591
0.438904 0.584625 0.102661
0.488464 0.588531 0.090485
0.536560 0.592468 0.076447
0.583954 0.592468 0.050140
0.625305 0.594482 0.027771
0.670715 0.607513 0.002045
0.712585 0.610291 0.002014
0.745239 0.605499 0.000000
0.780273 0.606384 0.000000
0.802277 0.602325 0.000000
0.838226 0.601196 0.000000
0.862122 0.600433 0.000000
0.892609 0.599274 0.004669
0.920441 0.600800 0.002014
0.946625 0.600433 0.002014
0.974335 0.602325 0.002045
1.000000 0.606384 0.005859
0.004303 0.600800 0.169800
0.004181 0.600677 0.169647
0.002167 0.604736 0.171539
0.002167 0.604736 0.171539
0.002167 0.602966 0.169800
0.003540 0.605103 0.175079
0.000000 0.607635 0.175842
0.000000 0.610809 0.173706
0.000000 0.607635 0.182434
0.032593 0.612579 0.173859
0.151886 0.618622 0.189911
0.221069 0.618652 0.185120
0.282196 0.620789 0.179169
0.333038 0.623688 0.169952
0.389587 0.624298 0.156677
0.432953 0.622833 0.147919
0.486572 0.624725 0.142487
0.532379 0.630402 0.130219
0.572296 0.634338 0.114655
0.616577 0.635834 0.098969
0.661102 0.636871 0.078735
0.704498 0.643677 0.036621
0.747894 0.651794 0.012939
0.782440 0.653564 0.005096
0.803436 0.650391 0.011688
0.834290 0.648499 0.015106
0.863525 0.645477 0.015106
0.893372 0.645966 0.021576
0.922211 0.644714 0.026245
0.946747 0.644318 0.033478
0.974335 0.648132 0.045227
0.997833 0.646088 0.046875
0.002289 0.642761 0.203552
0.002289 0.640503 0.201263
0.000244 0.643066 0.199249
0.001892 0.645081 0.201263
0.005066 0.643433 0.197998
0.000000 0.646729 0.198608
0.004547 0.646698 0.207489
0.002808 0.649231 0.206635
0.008209 0.646454 0.208496
0.075653 0.652252 0.213043
0.177429 0.654907 0.222656
0.238312 0.658844 0.217896
0.290558 0.659973 0.213959
0.343781 0.663391 0.208160
0.390961 0.660126 0.203064
0.438293 0.660522 0.192596
0.480377 0.664429 0.187897
0.524536 0.666443 0.180054
0.569916 0.672516 0.168304
0.605835 0.673370 0.152496
0.653259 0.675781 0.154114
0.689819 0.673889 0.133392
0.731445 0.688049 0.103027
0.776337 0.697662 0.079132
0.804321 0.696045 0.079132
0.839111 0.692108 0.089386
0.869720 0.684937 0.095062
0.894257 0.685425 0.095062
0.919403 0.685944 0.098724
0.947998 0.683411 0.105682
0.974579 0.685944 0.116180
0.998352 0.688232 0.120239
0.003937 0.678711 0.238586
0.001648 0.677979 0.228485
0.001526 0.682617 0.230743
0.003937 0.685028 0.231628
0.002411 0.685028 0.228241
0.002411 0.686554 0.234680
0.000000 0.683289 0.240875
0.003906 0.684143 0.247314
0.026428 0.688049 0.243134
0.137909 0.687683 0.244019
0.205566 0.695892 0.247437
0.260712 0.694397 0.255157
0.308014 0.695892 0.256683
0.352661 0.699188 0.252777
0.402100 0.700684 0.248230
0.444733 0.701721 0.239502
0.484680 0.701843 0.240387
0.526947 0.704376 0.230621
0.566742 0.703857 0.219879
0.607208 0.707672 0.209625
0.645538 0.708679 0.205078
0.680573 0.706787 0.188385
0.722839 0.713104 0.177155
0.760284 0.719940 0.166779
0.799744 0.731201 0.143005
0.836945 0.730438 0.143890
0.868073 0.728149 0.144501
0.894104 0.729187 0.146393
0.918396 0.729675 0.159180
0.945221 0.725769 0.160828
0.972046 0.724365 0.173615
0.996063 0.727264 0.183105
0.000000 0.718536 0.267578
0.003937 0.719940 0.271484
0.002533 0.718536 0.270111
0.003937 0.719940 0.271484
0.002533 0.719940 0.278320
0.004425 0.716766 0.273621
0.000031 0.724609 0.271484
0.030762 0.719818 0.275024
0.127655 0.723724 0.279205
0.183929 0.723846 0.280457
0.238586 0.725128 0.284637
0.286285 0.726379 0.288330
0.332825 0.728790 0.292114
0.372681 0.731964 0.287964
0.412140 0.733093 0.287811
0.453735 0.734985 0.285919
0.488220 0.736267 0.277954
0.527069 0.739166 0.275421
0.564331 0.741821 0.272644
0.601654 0.743347 0.259735
0.640106 0.742065 0.251892
0.676147 0.747375 0.245056
0.709167 0.744843 0.235474
0.746368 0.750671 0.226990
0.788879 0.751434 0.216370
0.835419 0.770172 0.197510
0.862244 0.770172 0.193848
0.893494 0.768646 0.199280
0.914978 0.769531 0.205231
0.938385 0.763062 0.208771
0.970795 0.761688 0.221558
0.993561 0.760529 0.228394
0.001251 0.749146 0.300842
0.001251 0.749420 0.300964
0.000000 0.753204 0.302216
0.000000 0.756104 0.303497
0.000031 0.753204 0.308167
0.007111 0.753693 0.306030
0.061157 0.754486 0.308044
0.127930 0.756622 0.317902
0.188995 0.760040 0.317535
0.230865 0.756866 0.318909
0.277161 0.758118 0.321564
0.312836 0.760925 0.320435
0.350037 0.764984 0.329681
0.385681 0.766235 0.330292
0.430695 0.766235 0.331848
0.459961 0.768890 0.334229
0.495056 0.770782 0.324982
0.531464 0.769257 0.316895
0.569672 0.773712 0.311340
0.601776 0.772675 0.306396
0.631012 0.777863 0.300964
0.677307 0.779266 0.294373
0.705261 0.779266 0.285156
0.739655 0.776611 0.281616
0.774567 0.783569 0.272247
0.814423 0.785217 0.261505
0.852997 0.798859 0.253296
0.893372 0.806702 0.247986
0.910309 0.803162 0.253906
0.935089 0.799133 0.258331
0.965454 0.796204 0.266815
0.992157 0.798859 0.277435
0.005615 0.782043 0.344482
0.000031 0.784943 0.344208
0.007111 0.786224 0.341064
0.043182 0.786102 0.347626
0.076752 0.784180 0.344971
0.131104 0.786987 0.349030
0.165863 0.789246 0.350922
0.207977 0.787598 0.355103
0.243774 0.791534 0.354980
0.270599 0.791534 0.353455
0.312836 0.791260 0.359161
0.351440 0.787354 0.360413
0.381897 0.796600 0.364716
0.412140 0.795441 0.369659
0.442871 0.793701 0.373169
0.474884 0.799622 0.368896
0.507843 0.801788 0.368011
0.538696 0.803284 0.360779
0.573822 0.802155 0.359039
0.602020 0.806854 0.353821
0.636200 0.808105 0.349792
0.669464 0.807220 0.344604
0.700195 0.809998 0.338287
0.734467 0.810120 0.334351
0.767365 0.811127 0.323486
0.796448 0.812653 0.309174
0.834412 0.819489 0.308563
0.873230 0.829224 0.303619
0.909424 0.836182 0.297913
0.940155 0.832764 0.305267
0.964325 0.830750 0.314636
0.989380 0.831879 0.318146
0.127960 0.815582 0.376343
0.139862 0.815582 0.380280
0.155914 0.815582 0.382416
0.171967 0.822388 0.383575
0.193817 0.818970 0.383179
0.214050 0.818848 0.381927
0.243164 0.816589 0.386353
0.271118 0.819366 0.389130
0.300842 0.819489 0.392029
0.313477 0.820129 0.395081
0.354980 0.817596 0.393433
0.379517 0.822906 0.399750
0.412262 0.823792 0.407593
0.435913 0.824677 0.403534
0.464386 0.825562 0.408875
0.493866 0.833160 0.413544
0.522614 0.826324 0.403687
0.554901 0.831512 0.403809
0.580322 0.835541 0.396576
0.609131 0.835175 0.393036
0.637207 0.834808 0.390015
0.671875 0.841492 0.389771
0.701965 0.841766 0.386993
0.729279 0.839111 0.368500
0.761292 0.842133 0.376221
0.788239 0.839355 0.363831
0.823395 0.844421 0.361542
0.857819 0.847443 0.361053
0.895630 0.857422 0.348907
0.935486 0.866547 0.352570
0.958374 0.862762 0.352692
0.981415 0.862640 0.357635
0.232574 0.842255 0.412140
0.237610 0.845428 0.416199
0.246094 0.846558 0.419098
0.258698 0.848328 0.423920
0.267670 0.849976 0.420868
0.281342 0.845306 0.420624
0.306519 0.846558 0.423920
0.325500 0.846161 0.420502
0.337769 0.852386 0.418091
0.369019 0.854279 0.431763
0.390778 0.851379 0.434784
0.414551 0.853394 0.439606
0.439331 0.852875 0.441772
0.463623 0.856415 0.443512
0.488922 0.856171 0.452637
0.512573 0.859222 0.452515
0.541748 0.856049 0.452515
0.570679 0.856171 0.452637
0.597229 0.856171 0.447327
0.625946 0.858582 0.444153
0.650604 0.863129 0.445312
0.677673 0.860992 0.436066
0.704620 0.861237 0.436951
0.733215 0.866791 0.426941
0.759003 0.859222 0.424316
0.793060 0.864014 0.420380
0.817078 0.867065 0.413177
0.843384 0.872223 0.402527
0.887024 0.874512 0.406464
0.922089 0.880341 0.402802
0.953583 0.891327 0.398743
0.980377 0.894501 0.395569
0.307678 0.868317 0.458191
0.314758 0.872223 0.462128
0.322601 0.868317 0.462128
0.330444 0.869080 0.466034
0.333710 0.871490 0.461884
0.348907 0.869080 0.466675
0.360931 0.875397 0.466034
0.380127 0.874512 0.464508
0.390503 0.875153 0.467041
0.418091 0.876160 0.467194
0.429962 0.879974 0.474396
0.458191 0.877533 0.478577
0.476929 0.877686 0.478577
0.498291 0.879333 0.483368
0.518799 0.878326 0.489563
0.541931 0.881989 0.495514
0.563354 0.879700 0.495514
0.589264 0.884003 0.495270
0.611664 0.884888 0.494385
0.630737 0.884003 0.494263
0.660339 0.885376 0.484253
0.686920 0.887421 0.483002
0.707153 0.884369 0.472992
0.740295 0.893738 0.476288
0.759003 0.888062 0.467041
0.785950 0.887909 0.460480
0.817078 0.888794 0.456543
0.844788 0.891327 0.458466
0.871735 0.895020 0.451508
0.909546 0.898926 0.453766
0.935089 0.904236 0.447937
0.974060 0.912201 0.451111
0.379272 0.899445 0.502716
0.383820 0.896790 0.502716
0.389771 0.893097 0.501831
0.391144 0.896790 0.499817
0.396088 0.899567 0.503357
0.404694 0.893494 0.502716
0.419983 0.899445 0.510071
0.436554 0.900055 0.506897
0.444397 0.896790 0.509918
0.463501 0.898285 0.516022
0.473877 0.902740 0.521698
0.498932 0.898163 0.527008
0.513611 0.900696 0.529175
0.530792 0.901703 0.525238
0.550659 0.903992 0.531952
0.570526 0.907898 0.533325
0.590393 0.903351 0.539276
0.613556 0.904633 0.540161
0.633423 0.907288 0.539673
0.649963 0.908539 0.531067
0.674377 0.911713 0.533356
0.694885 0.907898 0.529541
0.719696 0.908539 0.529419
0.746002 0.911438 0.524994
0.769257 0.911591 0.517273
0.793182 0.911713 0.517517
0.817078 0.915131 0.517151
0.841736 0.912598 0.509430
0.869080 0.911713 0.502716
0.894104 0.916138 0.498810
0.918518 0.923096 0.501465
0.946350 0.928772 0.498169
0.436188 0.920044 0.552307
0.443665 0.920441 0.545990
0.447449 0.916626 0.545990
0.457703 0.920044 0.549408
0.458191 0.920563 0.549896
0.466553 0.920044 0.553314
0.470459 0.917145 0.546997
0.483124 0.921448 0.551300
0.490692 0.923462 0.552826
0.508545 0.922852 0.556122
0.520691 0.921326 0.560028
0.527649 0.926514 0.562805
0.551941 0.920563 0.565491
0.569397 0.922699 0.566742
0.582031 0.925751 0.572540
