assets/luts/Moody_Stock.cube
#Created by: Adobe Photoshop Export Color Lookup Plugin
#Copyright: (C) Copyright 2022 Tim Martin and Presetpro.com
TITLE "Presetpro - Moody Stock.jpg"
#LUT size
LUT_3D_SIZE 5
#data domain
#LUT data points
DOMAIN_MIN 0.000000 0.000000 0.000000
DOMAIN_MAX 0.903226 0.903226 0.903226
0.003937 0.050995 0.050995
0.023529 0.062744 0.066681
0.218842 0.064514 0.058838
0.601654 0.000000 0.018219
0.900452 0.003937 0.000366
0.003052 0.132935 0.084503
0.006073 0.135986 0.074524
0.308258 0.183044 0.017334
0.690460 0.176971 0.000000
0.919159 0.177460 0.000000
0.005676 0.390991 0.135101
0.000000 0.380493 0.136383
0.374939 0.377472 0.070984
0.745880 0.431091 0.004791
0.940430 0.498657 0.004303
0.000000 0.696899 0.266937
0.069214 0.683014 0.285645
0.495605 0.662506 0.254272
0.717773 0.676025 0.150543
0.889313 0.708282 0.001648
0.468323 0.869080 0.569885
0.552307 0.862885 0.595062
0.643005 0.858063 0.579498
0.749664 0.856812 0.552185
0.846313 0.869446 0.491455
0.000000 0.058838 0.135101
0.034027 0.062744 0.119019
0.244141 0.072754 0.105896
0.637329 0.000885 0.049591
0.910828 0.007446 0.002655
0.006073 0.160400 0.172150
0.003052 0.164307 0.162537
0.328735 0.173431 0.124603
0.700073 0.158264 0.035645
0.927765 0.217957 0.000366
0.000000 0.421478 0.248444
0.001770 0.422760 0.232758
0.424622 0.406677 0.197845
0.771423 0.445526 0.051453
0.945740 0.481201 0.001770
0.003540 0.702972 0.364960
0.032959 0.702087 0.354828
0.518768 0.677307 0.354095
0.728424 0.686920 0.282104
0.893738 0.713470 0.151428
0.453522 0.874268 0.598602
0.528534 0.869446 0.602905
0.642883 0.862488 0.614685
0.742065 0.856812 0.593414
0.839203 0.869843 0.537872
0.000000 0.080200 0.365692
0.003052 0.079315 0.361389
0.414154 0.000000 0.338257
0.721832 0.000000 0.253235
0.910431 0.003937 0.177856
0.000885 0.205688 0.399628
0.001770 0.189117 0.404907
0.470428 0.157745 0.383545
0.726624 0.069305 0.286011
0.929535 0.072113 0.203522
0.002167 0.461975 0.483337
0.003937 0.467285 0.482452
0.522186 0.481201 0.473358
0.772308 0.462463 0.400970
0.937256 0.453369 0.280182
0.001251 0.730957 0.563171
0.215302 0.727783 0.557861
0.553040 0.720825 0.551270
0.735229 0.709930 0.520935
0.881989 0.742188 0.458801
0.411255 0.880188 0.673004
0.479950 0.877655 0.670685
0.628082 0.873383 0.689056
0.737244 0.863770 0.673859
0.834534 0.871979 0.641602
0.000000 0.116394 0.660339
0.000000 0.109039 0.664795
0.505615 0.004822 0.675140
0.840759 0.000000 0.636963
0.973938 0.002655 0.504395
0.000885 0.227570 0.676941
0.000885 0.227570 0.678711
0.518250 0.206207 0.683868
0.834656 0.184174 0.652496
0.963959 0.246063 0.535767
0.000885 0.482483 0.690338
0.053741 0.484772 0.687408
0.535217 0.498657 0.702087
0.795837 0.538757 0.691193
0.907806 0.514862 0.594940
0.158661 0.732208 0.736115
0.331207 0.735229 0.737030
0.558258 0.740417 0.734344
0.739899 0.764832 0.738647
0.856659 0.749146 0.687286
0.415558 0.895142 0.809875
0.465546 0.891205 0.801025
0.579620 0.888184 0.794952
0.717651 0.881592 0.787476
0.828461 0.881226 0.768768
0.000000 0.225922 0.877686
0.209106 0.216309 0.882111
0.570648 0.213409 0.879456
0.830627 0.280212 0.884644
0.968628 0.362427 0.850220
0.001251 0.329285 0.878937
0.279938 0.323975 0.876404
0.583679 0.340149 0.881592
0.816193 0.409485 0.884247
0.949890 0.475281 0.853760
0.297791 0.557098 0.877686
0.424652 0.565308 0.879456
0.592407 0.562805 0.879456
0.781036 0.615936 0.882996
0.907654 0.649445 0.858063
0.348022 0.759277 0.885529
0.419983 0.758392 0.887421
0.556091 0.752686 0.878174
0.726013 0.768372 0.882111
0.860199 0.797089 0.879578
0.493347 0.889069 0.905518
0.525238 0.889954 0.910309
0.601379 0.891205 0.908661
0.704254 0.893372 0.902985
0.834534 0.905121 0.905121
