assets/luts/Moody_Stock.cube
#Created by: Adobe Photoshop Export Color Lookup Plugin
#Copyright: (C) Copyright 2022 Tim Martin and Presetpro.com
TITLE "Presetpro - Moody Stock.jpg"
#LUT size
LUT_3D_SIZE 8
#data domain
#LUT data points
DOMAIN_MIN 0.000000 0.000000 0.000000
DOMAIN_MAX 0.903226 0.903226 0.903226
0.003937 0.050995 0.050995
0.000000 0.054901 0.058838
0.037323 0.055908 0.065643
0.136993 0.066681 0.065155
0.306427 0.054901 0.049072
0.541840 0.001404 0.029999
0.748535 0.003052 0.000000
0.900452 0.003937 0.000366
0.000000 0.083374 0.074524
0.003937 0.079956 0.064758
0.038452 0.101959 0.055420
0.168854 0.113220 0.055298
0.354980 0.109802 0.030853
0.586365 0.063232 0.002533
0.771301 0.006439 0.004303
0.908173 0.003052 0.003418
0.000000 0.162811 0.084381
0.002899 0.156982 0.087280
0.009857 0.163818 0.076416
0.201752 0.185455 0.044159
0.458344 0.211884 0.002899
0.664154 0.218719 0.003784
0.819122 0.219849 0.002899
0.928284 0.228210 0.000000
0.006317 0.303223 0.114624
0.000000 0.300171 0.120056
0.003540 0.291321 0.117157
0.221466 0.304108 0.091095
0.474518 0.320801 0.003021
0.698944 0.355194 0.000000
0.852264 0.389496 0.000000
0.941559 0.412628 0.000000
0.000000 0.484528 0.156982
0.005432 0.484283 0.166504
0.003021 0.468079 0.159760
0.317261 0.457184 0.127655
0.506409 0.468964 0.060730
0.691101 0.487183 0.004059
0.842377 0.523987 0.000000
0.932587 0.563080 0.000000
0.003937 0.661102 0.232269
0.003296 0.656433 0.257446
0.097168 0.650879 0.245422
0.399475 0.632141 0.233276
0.554993 0.626953 0.194824
0.686035 0.636200 0.112091
0.802277 0.652374 0.000000
0.902222 0.676788 0.003540
0.000000 0.786865 0.392944
0.222656 0.779144 0.403931
0.371552 0.770905 0.409363
0.484863 0.770782 0.388000
0.608246 0.755219 0.373322
0.697418 0.762054 0.332458
0.782532 0.765961 0.273132
0.863770 0.774323 0.188110
0.468323 0.869080 0.569885
0.504242 0.865540 0.578613
0.557892 0.864014 0.587341
0.611267 0.860474 0.584442
0.670471 0.857697 0.570282
0.731201 0.853760 0.550659
0.785950 0.865021 0.530823
0.846313 0.869446 0.491455
0.003418 0.054901 0.086792
0.000000 0.055420 0.082855
0.044647 0.059845 0.071594
0.152283 0.079834 0.069580
0.335754 0.083252 0.047058
0.574951 0.035553 0.004425
0.764221 0.003052 0.000000
0.904877 0.006592 0.003937
0.003937 0.087280 0.100067
0.000519 0.095642 0.102966
0.041351 0.100555 0.095642
0.177216 0.110809 0.083374
0.383820 0.110809 0.050110
0.605835 0.097015 0.006714
0.786102 0.079437 0.000000
0.913483 0.059967 0.000885
0.000000 0.173187 0.129913
0.002899 0.166840 0.119659
0.008453 0.178986 0.110809
0.224274 0.199097 0.082367
0.462250 0.209869 0.026947
0.666290 0.207977 0.000519
0.817200 0.226685 0.000000
0.929047 0.249207 0.002899
0.001007 0.312958 0.156982
0.000000 0.320282 0.150146
0.004425 0.308533 0.159271
0.247040 0.313965 0.129028
0.498047 0.329651 0.062225
0.718536 0.358612 0.001007
0.856171 0.386566 0.002014
0.940552 0.410614 0.002014
0.001526 0.495514 0.197083
0.000519 0.494904 0.195557
0.003540 0.489441 0.199127
0.340515 0.468964 0.180908
0.511353 0.478821 0.121826
0.698944 0.496399 0.007080
0.847198 0.528809 0.003296
0.938904 0.561432 0.000519
0.000519 0.663635 0.267944
0.000000 0.662994 0.281219
0.136749 0.658325 0.287292
0.408569 0.637329 0.271332
0.566132 0.633667 0.244049
0.693237 0.646057 0.175842
0.804565 0.652374 0.059113
0.899048 0.679718 0.001770
0.003052 0.782532 0.407471
0.165741 0.785583 0.411652
0.384308 0.778259 0.439728
0.494629 0.773315 0.421509
0.613678 0.758759 0.404175
0.699677 0.764587 0.367981
0.783051 0.769531 0.310822
0.863525 0.777740 0.238586
0.454010 0.869446 0.574188
0.490570 0.870331 0.584961
0.567230 0.865417 0.609375
0.612000 0.860229 0.599518
0.668060 0.856537 0.585693
0.733582 0.856689 0.572418
0.785583 0.860718 0.543976
0.845306 0.868835 0.513855
0.000000 0.057922 0.159882
0.000000 0.059845 0.153046
0.060852 0.070587 0.142303
0.198334 0.061737 0.123077
0.345642 0.037048 0.108795
0.583832 0.003937 0.078064
0.778748 0.000000 0.008850
0.915131 0.015076 0.000000
0.000000 0.103973 0.166351
0.003418 0.103485 0.177094
0.065399 0.106903 0.163818
0.201752 0.108795 0.145599
0.387756 0.089050 0.126495
0.610260 0.029358 0.093964
0.796082 0.010895 0.009338
0.918030 0.110565 0.000000
0.000000 0.192261 0.205933
0.000000 0.193787 0.200623
0.024780 0.199097 0.193298
0.252350 0.200104 0.175079
0.469208 0.195190 0.143311
0.669586 0.183044 0.094116
0.820892 0.193298 0.002014
0.930054 0.237579 0.000000
0.000000 0.339508 0.255127
0.000519 0.336609 0.247284
0.000519 0.350159 0.238312
0.294586 0.340393 0.212006
0.547668 0.348755 0.168884
0.742065 0.366455 0.106873
0.859589 0.367981 0.004028
0.944977 0.388977 0.002533
0.002899 0.517914 0.300323
0.001526 0.518555 0.292847
0.005066 0.511230 0.283508
0.380890 0.490082 0.276794
0.549408 0.493500 0.242371
0.725769 0.512604 0.185059
0.849213 0.543457 0.082489
0.938782 0.568024 0.001892
0.001404 0.673889 0.359528
0.001007 0.673004 0.361176
0.099579 0.673248 0.353058
0.435303 0.652893 0.362823
0.579773 0.645416 0.340027
0.700195 0.655792 0.292480
0.814423 0.661743 0.233643
0.902588 0.689941 0.136108
0.061768 0.789520 0.460205
0.194977 0.791412 0.461731
0.364441 0.783569 0.478821
0.514618 0.778259 0.484894
0.618988 0.765961 0.461975
0.707031 0.765961 0.440247
0.782410 0.775848 0.392792
0.863129 0.785217 0.342834
0.452240 0.873383 0.605560
0.476013 0.869843 0.604553
0.535370 0.868439 0.608337
0.617584 0.863495 0.634918
0.674408 0.862000 0.619232
0.731567 0.855774 0.598206
0.782684 0.862122 0.578369
0.842773 0.869446 0.554199
0.000000 0.068176 0.281189
0.000000 0.074005 0.285889
0.052612 0.071594 0.276764
0.263092 0.052765 0.257660
0.492737 0.001892 0.221375
0.617188 0.001526 0.188873
0.772949 0.002411 0.150513
0.911438 0.001526 0.089539
0.001007 0.111816 0.300171
0.004822 0.115234 0.299805
0.043488 0.121063 0.296875
0.284851 0.101349 0.278656
0.505005 0.002411 0.234039
0.622650 0.002411 0.196808
0.794952 0.000000 0.166840
0.922943 0.000366 0.099548
0.000000 0.217316 0.323334
0.004822 0.214905 0.327637
0.002014 0.214294 0.327118
0.322052 0.207458 0.316376
0.514221 0.179504 0.273743
0.661621 0.150146 0.234009
0.817200 0.144836 0.186951
0.933472 0.174561 0.116241
0.003021 0.365967 0.384033
0.006836 0.371277 0.384033
0.002899 0.365051 0.384033
0.372009 0.375305 0.369873
0.573944 0.362549 0.330658
0.730194 0.351776 0.290558
0.852875 0.353302 0.233490
0.946747 0.365723 0.146973
0.001892 0.545502 0.440338
0.000519 0.547882 0.435669
0.022614 0.544495 0.420990
0.410217 0.542969 0.409607
0.591034 0.529297 0.394440
0.746765 0.548920 0.364075
0.858582 0.568512 0.319397
0.936127 0.561188 0.219849
0.000000 0.692474 0.488159
0.001007 0.695007 0.482086
0.199982 0.689056 0.476013
0.455292 0.684753 0.486664
0.603821 0.666534 0.470825
0.710938 0.673004 0.429596
0.811127 0.686676 0.396576
0.896118 0.710327 0.348114
0.129578 0.797974 0.539398
0.235168 0.797485 0.549896
0.377106 0.792023 0.551422
0.518005 0.790375 0.567261
0.630249 0.779266 0.559265
0.705994 0.776855 0.534210
0.777740 0.779266 0.495117
0.854523 0.791534 0.464111
0.435181 0.876160 0.647186
0.463623 0.877289 0.646667
0.523743 0.876282 0.655792
0.592163 0.873871 0.662354
0.668823 0.867950 0.667175
0.733215 0.857056 0.657043
0.781158 0.863495 0.636169
0.834534 0.869843 0.610107
0.000000 0.086395 0.445557
0.004944 0.086792 0.452271
0.007843 0.081329 0.450226
0.342041 0.015076 0.458099
0.569153 0.000000 0.425690
0.775360 0.001404 0.371948
0.838470 0.002014 0.306152
0.915131 0.001526 0.263672
0.000000 0.134338 0.465546
0.000000 0.134338 0.469330
0.001007 0.130798 0.473633
0.350372 0.095001 0.472870
0.582947 0.001892 0.441650
0.777893 0.001892 0.372955
0.842773 0.003052 0.318939
0.908783 0.001526 0.274139
0.001007 0.247192 0.486664
0.000000 0.242859 0.485291
0.000000 0.227692 0.502350
0.369476 0.223145 0.495392
0.612427 0.184570 0.473022
0.773956 0.154694 0.402283
0.833801 0.140533 0.349274
0.919434 0.139130 0.300476
0.001892 0.383148 0.518921
0.001526 0.386444 0.514099
0.004822 0.386078 0.519165
0.390625 0.384033 0.528778
0.638580 0.389496 0.513611
0.746002 0.373932 0.455170
0.829224 0.353302 0.401764
0.929413 0.348358 0.344360
0.002014 0.553345 0.567139
0.000000 0.556396 0.563599
0.105255 0.560181 0.561432
0.430359 0.561188 0.566620
0.623932 0.580780 0.568909
0.744202 0.567505 0.529297
0.836426 0.561188 0.483765
0.923096 0.547913 0.407104
0.000519 0.705139 0.613037
0.004303 0.705261 0.615570
0.273773 0.707550 0.612030
0.463623 0.706268 0.607727
0.621399 0.702362 0.599518
0.718658 0.695007 0.579773
0.810242 0.714111 0.566498
0.885895 0.733978 0.523346
0.188263 0.809113 0.646576
0.260498 0.807220 0.645813
0.367981 0.807220 0.641510
0.500183 0.803680 0.638489
0.622772 0.797211 0.648346
0.717773 0.787598 0.637695
0.781525 0.791412 0.611145
0.848206 0.804321 0.592682
0.371643 0.883118 0.699310
0.409485 0.881744 0.702972
0.475769 0.879700 0.699951
0.563934 0.876526 0.702087
0.652252 0.875793 0.711060
0.722717 0.868958 0.716125
0.776337 0.869202 0.697052
0.834167 0.873383 0.673492
0.000000 0.110962 0.619354
0.004791 0.110443 0.626465
0.000000 0.100067 0.622162
0.369995 0.019989 0.633148
0.627991 0.000000 0.643036
0.796967 0.002533 0.595825
0.915894 0.005066 0.511597
0.965485 0.002899 0.453766
0.001892 0.149139 0.630371
0.002014 0.154449 0.637573
0.000519 0.147125 0.638977
0.367584 0.115234 0.638092
0.628357 0.006073 0.645050
0.804321 0.000000 0.610779
0.913483 0.000519 0.524994
0.961426 0.025818 0.461761
0.000000 0.261841 0.639587
0.001007 0.245667 0.642517
0.002014 0.249725 0.650879
0.382263 0.240997 0.645050
0.641388 0.231750 0.660095
0.802277 0.221375 0.627716
0.897675 0.245667 0.548004
0.944733 0.251862 0.487183
0.003937 0.403412 0.648987
0.001007 0.406189 0.655914
0.134338 0.408081 0.649963
0.415161 0.399353 0.667938
0.638092 0.417938 0.672119
0.789001 0.428314 0.647583
0.870850 0.441223 0.581665
0.920685 0.414795 0.524994
0.000000 0.557770 0.676300
0.005951 0.557648 0.678192
0.211395 0.560822 0.677673
0.444397 0.566498 0.676788
0.619873 0.584198 0.686157
0.758514 0.603943 0.679321
0.831635 0.589142 0.628723
0.886414 0.554718 0.570282
0.003937 0.703094 0.710938
0.158173 0.702209 0.709320
0.333221 0.707672 0.704742
0.487396 0.709686 0.710938
0.620758 0.722839 0.710571
0.729156 0.738159 0.712097
0.797729 0.729156 0.684387
0.871216 0.719543 0.644165
0.298187 0.813049 0.747894
0.335114 0.814545 0.747131
0.425323 0.808594 0.745880
0.518005 0.813904 0.742065
0.617462 0.814301 0.737122
0.708923 0.812012 0.734741
0.774200 0.811646 0.717407
0.845795 0.824677 0.709442
0.402771 0.889832 0.784698
0.424927 0.892975 0.787109
0.472107 0.890076 0.781677
0.539001 0.886536 0.777252
0.618225 0.882111 0.770538
0.708405 0.880585 0.779388
0.771790 0.872498 0.765961
0.827087 0.880829 0.749023
0.000885 0.151184 0.765961
0.000885 0.143829 0.767120
0.010101 0.133606 0.768890
0.390137 0.094757 0.765106
0.625946 0.012024 0.774078
0.806213 0.000000 0.773834
0.913727 0.024292 0.739807
0.978760 0.173187 0.656952
0.000000 0.195312 0.768127
0.002533 0.189240 0.765594
0.020203 0.184937 0.767365
0.400482 0.168243 0.775330
0.626709 0.140289 0.773682
0.802277 0.137634 0.772797
0.914124 0.171051 0.744232
0.976105 0.251373 0.664795
0.002014 0.284637 0.771179
0.000885 0.288055 0.771790
0.073883 0.288300 0.769135
0.422119 0.283478 0.780518
0.633667 0.289703 0.781799
0.796722 0.318665 0.782166
0.895264 0.341797 0.746490
0.960175 0.389618 0.683502
0.002411 0.438690 0.772949
0.010101 0.439453 0.774078
0.246002 0.430328 0.786224
0.451996 0.429352 0.779236
0.631897 0.451843 0.782928
0.782043 0.492218 0.789520
0.871216 0.505371 0.762451
0.926880 0.532959 0.707275
0.001007 0.568909 0.777740
0.043060 0.574982 0.774841
0.299438 0.574860 0.776733
0.483612 0.588135 0.780396
0.624817 0.597504 0.789642
0.746246 0.631256 0.791901
0.832397 0.645569 0.774963
0.893616 0.651886 0.732086
0.188141 0.711578 0.792419
0.256439 0.709045 0.794830
0.368500 0.708282 0.790375
0.486664 0.710846 0.788116
0.606964 0.717651 0.787994
0.714355 0.734741 0.800903
0.800751 0.756866 0.800140
0.862000 0.737518 0.756622
0.358521 0.809113 0.813904
0.386841 0.811279 0.813904
0.447174 0.812164 0.821625
0.530029 0.813049 0.819366
0.615814 0.812897 0.811005
0.699554 0.824280 0.819489
0.778625 0.837463 0.825684
0.843262 0.829102 0.800385
0.449341 0.892487 0.859344
0.467194 0.889435 0.855408
0.498932 0.892853 0.851868
0.554077 0.889801 0.850220
0.622650 0.891327 0.849976
0.689178 0.892853 0.845306
0.764587 0.888550 0.837952
0.823792 0.888947 0.824921
0.000000 0.225922 0.877686
0.000366 0.222534 0.883759
0.272217 0.217468 0.878296
0.480957 0.212280 0.876038
0.654785 0.217346 0.879578
0.800751 0.261627 0.880219
0.900208 0.314606 0.880341
0.968628 0.362427 0.850220
0.000366 0.259216 0.878052
0.010101 0.260101 0.886017
0.295990 0.262604 0.882599
0.488922 0.261230 0.884247
0.657196 0.273132 0.883606
0.799011 0.317902 0.882111
0.898682 0.369141 0.878174
0.967743 0.409760 0.856812
0.002533 0.350403 0.892975
0.144714 0.354950 0.880341
0.340668 0.356842 0.882233
0.512451 0.363678 0.876282
0.666168 0.384308 0.883240
0.785583 0.425171 0.884125
0.879578 0.471344 0.880829
0.945465 0.498047 0.857056
0.278931 0.494995 0.875793
0.306732 0.486267 0.881592
0.383667 0.482971 0.881836
0.531921 0.490692 0.881989
0.660614 0.512848 0.883240
0.770905 0.550018 0.883759
0.854523 0.590759 0.881226
0.920044 0.603424 0.856537
0.288696 0.616699 0.871857
0.334595 0.618744 0.877167
0.428986 0.621155 0.876923
0.537628 0.626343 0.879944
0.637329 0.632385 0.880829
0.742828 0.658325 0.881714
0.825684 0.691589 0.881592
0.893738 0.699432 0.865295
0.323364 0.731323 0.881592
0.356110 0.728027 0.885895
0.422028 0.732330 0.882599
0.512054 0.728790 0.881836
0.617218 0.732086 0.879700
0.709808 0.742462 0.883118
0.795685 0.771545 0.890594
0.861847 0.781158 0.871857
0.410248 0.820496 0.890442
0.429230 0.823792 0.895020
0.475281 0.820374 0.895386
0.538269 0.821625 0.886902
0.607971 0.817322 0.884613
0.684875 0.823914 0.889557
0.763824 0.832642 0.889435
0.850220 0.849213 0.888947
0.493347 0.889069 0.905518
0.505615 0.892609 0.911591
0.533600 0.888428 0.909058
0.577606 0.891479 0.909058
0.625549 0.893738 0.905518
0.687042 0.897797 0.908661
0.755981 0.894379 0.901703
0.834534 0.905121 0.905121
