assets/luts/Moody_Stock.cube
#Created by: Adobe Photoshop Export Color Lookup Plugin
#Copyright: (C) Copyright 2022 Tim Martin and Presetpro.com
TITLE "Presetpro - Moody Stock.jpg"
#LUT size
LUT_3D_SIZE 32
#data domain
DOMAIN_MIN 0.0 0.0 0.0
DOMAIN_MAX 1.0 1.0 1.0
#LUT data points
0.003937 0.050995 0.050995
0.000000 0.058563 0.058685
0.003662 0.047577 0.055145
0.000763 0.054535 0.066681
0.000000 0.054901 0.058838
0.005188 0.058197 0.062744
0.016449 0.055664 0.062744
0.023529 0.062744 0.066681
0.037323 0.055908 0.065643
0.065002 0.063873 0.061615
0.075653 0.066681 0.052246
0.112823 0.065521 0.059082
0.136993 0.066681 0.065155
0.179108 0.064392 0.058838
0.218842 0.064514 0.058838
0.254486 0.066681 0.054901
0.306427 0.054901 0.049072
0.365875 0.042755 0.044891
0.427734 0.016693 0.038574
0.492249 0.001526 0.035309
0.541840 0.001404 0.029999
0.601654 0.000000 0.018219
0.649231 0.000000 0.003418
0.703735 0.000000 0.000000
0.748535 0.003052 0.000000
0.788361 0.003174 0.000000
0.834808 0.000000 0.000000
0.864655 0.000000 0.000000
0.900452 0.003937 0.000366
0.928650 0.000244 0.000000
0.952576 0.000122 0.000000
0.976471 0.000000 0.000000
0.000000 0.051239 0.055023
0.000000 0.062744 0.062744
0.000000 0.058960 0.058838
0.000000 0.059204 0.058838
0.003418 0.059204 0.058563
0.000641 0.062103 0.058838
0.004669 0.060852 0.060211
0.021362 0.065796 0.058838
0.040466 0.063995 0.054138
0.064240 0.074127 0.061737
0.084259 0.068054 0.056305
0.112701 0.069580 0.058685
0.140900 0.073242 0.056305
0.179108 0.074768 0.058685
0.219208 0.074768 0.049469
0.270325 0.071106 0.049072
0.314392 0.066681 0.043518
0.374084 0.052734 0.041382
0.437469 0.028198 0.036285
0.495148 0.004791 0.027313
0.551056 0.002533 0.018219
0.605591 0.001251 0.006439
0.652252 0.003784 0.001251
0.704742 0.001007 0.000000
0.749542 0.003784 0.000000
0.794830 0.000244 0.003052
0.835419 0.000641 0.000641
0.864777 0.000000 0.000366
0.900452 0.003937 0.000366
0.928650 0.000000 0.000244
0.960266 0.003662 0.003784
0.980377 0.003937 0.003784
0.000000 0.062744 0.062744
0.000000 0.062744 0.062744
0.000244 0.062988 0.062744
0.000244 0.062988 0.059082
0.000000 0.063263 0.059082
0.003662 0.067169 0.062988
0.008606 0.064758 0.061737
0.025055 0.071472 0.055786
0.041107 0.070343 0.058319
0.067169 0.074768 0.054901
0.093231 0.078430 0.059570
0.114227 0.081207 0.057678
0.142670 0.082855 0.052246
0.184937 0.082367 0.050476
0.223114 0.084381 0.047577
0.272583 0.082733 0.048828
0.322876 0.076904 0.039612
0.380157 0.065277 0.042389
0.440247 0.045135 0.030731
0.497559 0.020355 0.024780
0.558899 0.000244 0.019104
0.611023 0.002411 0.007599
0.660095 0.002533 0.001129
0.714508 0.000000 0.000000
0.756622 0.000000 0.000000
0.800385 0.000763 0.000519
0.839722 0.000000 0.000641
0.869568 0.003174 0.003418
0.901062 0.003296 0.000000
0.928650 0.000244 0.000000
0.960022 0.007080 0.000000
0.980133 0.003662 0.000000
0.000000 0.070953 0.063110
0.000000 0.067413 0.066681
0.000000 0.070953 0.063110
0.000000 0.070953 0.063110
0.000366 0.071350 0.063507
0.000000 0.075256 0.065796
0.002258 0.076019 0.058838
0.025665 0.082733 0.061371
0.042358 0.086639 0.047699
0.066528 0.083862 0.054138
0.092957 0.087799 0.056671
0.127869 0.087402 0.057068
0.153442 0.092468 0.054901
0.202271 0.092224 0.046692
0.237061 0.095245 0.048584
0.286255 0.094879 0.042389
0.338165 0.094482 0.045929
0.392670 0.083099 0.032776
0.450745 0.067169 0.024780
0.512085 0.045288 0.014404
0.564575 0.020355 0.009247
0.618103 0.003937 0.000366
0.674408 0.000000 0.002411
0.719818 0.000366 0.000366
0.757996 0.000366 0.000000
0.803680 0.003540 0.000000
0.841370 0.000000 0.000366
0.876801 0.000519 0.000000
0.903992 0.000000 0.000763
0.929047 0.000366 0.000641
0.956848 0.000000 0.000000
0.980377 0.003937 0.003540
0.000000 0.083374 0.074524
0.003784 0.083252 0.078308
0.000244 0.075775 0.067688
0.000000 0.079437 0.071106
0.003937 0.079956 0.064758
0.000000 0.086273 0.066681
0.001251 0.090454 0.058563
0.023773 0.091217 0.058685
0.038452 0.101959 0.055420
0.072845 0.098541 0.049835
0.104095 0.104370 0.055420
0.134094 0.106506 0.056427
0.168854 0.113220 0.055298
0.208069 0.111328 0.044922
0.250824 0.111328 0.042633
0.304474 0.110687 0.033905
0.354980 0.109802 0.030853
0.411652 0.102478 0.018585
0.466187 0.093872 0.016327
0.524628 0.081451 0.010254
0.586365 0.063232 0.002533
0.634308 0.039948 0.003418
0.683380 0.015808 0.010254
0.725372 0.002533 0.001007
0.771301 0.006439 0.004303
0.805328 0.000763 0.006073
0.845032 0.003418 0.004547
0.877930 0.000000 0.001007
0.908173 0.003052 0.003418
0.939148 0.000763 0.003174
0.957611 0.003662 0.001007
0.974060 0.009491 0.003418
0.000000 0.099304 0.073883
0.000000 0.099304 0.075134
0.000000 0.095764 0.071594
0.003662 0.092346 0.071838
0.000000 0.099060 0.071716
0.000000 0.102600 0.067291
0.000244 0.099304 0.063873
0.015808 0.101074 0.062744
0.036804 0.110046 0.066040
0.072357 0.108917 0.060486
0.116241 0.118896 0.058960
0.145844 0.122070 0.044281
0.186188 0.127625 0.049072
0.226807 0.127747 0.041229
0.267914 0.134216 0.029480
0.320404 0.135864 0.026184
0.376862 0.132690 0.017212
0.430511 0.127625 0.008362
0.486786 0.120178 0.001648
0.541443 0.109924 0.000641
0.597351 0.100555 0.006592
0.649231 0.088654 0.002533
0.696411 0.076141 0.006714
0.744354 0.062592 0.001007
0.780151 0.047058 0.000885
0.817200 0.042358 0.002533
0.851746 0.038330 0.002655
0.887054 0.041748 0.000000
0.912201 0.048706 0.006195
0.933472 0.057281 0.000000
0.960785 0.076019 0.003174
0.981659 0.090698 0.005188
0.003174 0.112091 0.075256
0.003174 0.112823 0.076019
0.003174 0.112091 0.080078
0.003174 0.112457 0.080444
0.003174 0.112579 0.074249
0.007080 0.115234 0.077667
0.000000 0.119171 0.076172
0.008850 0.118408 0.069946
0.035797 0.123322 0.069580
0.065277 0.127380 0.055267
0.109406 0.135101 0.057709
0.152679 0.139526 0.050110
0.196564 0.149780 0.049469
0.243500 0.152039 0.035309
0.295227 0.155975 0.027832
0.346832 0.159882 0.014313
0.406738 0.157867 0.002533
0.461121 0.157745 0.000000
0.516388 0.153687 0.003143
0.569794 0.143311 0.003174
0.618225 0.141052 0.000000
0.669861 0.134460 0.000000
0.709167 0.129272 0.000763
0.749420 0.123199 0.000000
0.790131 0.119019 0.010895
0.824280 0.112701 0.004669
0.858826 0.112579 0.000641
0.890686 0.115112 0.000519
0.917267 0.119781 0.007477
0.941162 0.126617 0.003418
0.959656 0.132294 0.000122
0.982666 0.146484 0.000000
0.003052 0.132935 0.084503
0.003052 0.132050 0.086273
0.003052 0.132050 0.086273
0.003052 0.132050 0.086273
0.006439 0.135468 0.083618
0.003052 0.132050 0.080200
0.000000 0.135986 0.078430
0.006073 0.135986 0.074524
0.018707 0.140045 0.075256
0.060577 0.140167 0.064758
0.103210 0.154205 0.059845
0.143829 0.158356 0.047577
0.198853 0.167358 0.037964
0.254761 0.175201 0.028076
0.308258 0.183044 0.017334
0.365692 0.186096 0.002014
0.430756 0.182922 0.001129
0.488312 0.183929 0.001770
0.540192 0.185577 0.000000
0.594452 0.185455 0.000000
0.635803 0.181763 0.004791
0.690460 0.176971 0.000000
0.727386 0.173920 0.000000
0.764465 0.171021 0.000000
0.804321 0.167847 0.003937
0.836304 0.165344 0.000000
0.867188 0.169373 0.002411
0.895142 0.170898 0.000000
0.919159 0.177460 0.000000
0.945221 0.181519 0.000000
0.965210 0.188477 0.000000
0.988220 0.197449 0.001770
0.000000 0.162811 0.084381
0.000122 0.162933 0.084503
0.000000 0.159882 0.087280
0.002899 0.156982 0.087280
0.002899 0.156982 0.087280
0.000000 0.156982 0.084381
0.002899 0.156982 0.087280
0.003784 0.159882 0.084381
0.009857 0.163818 0.076416
0.049469 0.164062 0.073639
0.099182 0.169769 0.068817
0.148499 0.180267 0.060333
0.201752 0.185455 0.044159
0.255646 0.194550 0.034027
0.319275 0.203033 0.018219
0.387573 0.207825 0.000000
0.458344 0.211884 0.002899
0.509460 0.215668 0.000000
0.567017 0.215179 0.002533
0.622772 0.217316 0.001007
0.664154 0.218719 0.003784
0.706512 0.219482 0.000000
0.742584 0.220734 0.001007
0.782288 0.221741 0.004822
0.819122 0.219849 0.002899
0.847443 0.220245 0.002014
0.872375 0.219482 0.001007
0.900940 0.222626 0.000000
0.928284 0.228210 0.000000
0.948273 0.226929 0.000000
0.965454 0.236298 0.000000
0.987213 0.244263 0.001007
0.000000 0.190002 0.085754
0.001129 0.191650 0.094116
0.001129 0.188873 0.099182
0.001526 0.188477 0.099182
0.006073 0.189484 0.102600
0.002777 0.184937 0.090210
0.003540 0.185699 0.096527
0.000244 0.186066 0.085907
0.002136 0.192657 0.087524
0.039337 0.194427 0.076782
0.095123 0.194183 0.067688
0.146332 0.204803 0.064148
0.198853 0.216064 0.056427
0.259796 0.220856 0.037689
0.327362 0.228088 0.021637
0.391632 0.236664 0.008118
0.465179 0.237701 0.000000
0.531067 0.248077 0.001129
0.592438 0.253876 0.001129
0.638733 0.251740 0.000000
0.680206 0.256653 0.000000
0.722717 0.255402 0.000000
0.755737 0.265015 0.001129
0.796448 0.268433 0.001129
0.823914 0.266541 0.000000
0.860840 0.269562 0.003418
0.884888 0.268433 0.002777
0.910553 0.267914 0.002777
0.932190 0.271576 0.002777
0.953583 0.277161 0.002533
0.972046 0.277283 0.005310
0.989899 0.285248 0.000000
0.000000 0.224670 0.096649
0.000000 0.228577 0.100677
0.000000 0.221985 0.103210
0.000366 0.218445 0.103607
0.000000 0.224396 0.106384
0.000000 0.218079 0.102600
0.000519 0.216827 0.101959
0.000000 0.216309 0.100189
0.000000 0.221985 0.094635
0.045654 0.223389 0.086395
0.097778 0.228577 0.083740
0.139252 0.231110 0.073120
0.201508 0.238831 0.067566
0.261841 0.244659 0.047699
0.328369 0.251862 0.029480
0.393524 0.261841 0.007721
0.469238 0.263885 0.001526
0.530060 0.272247 0.000000
0.595978 0.280579 0.002289
0.655701 0.289795 0.003815
0.701477 0.295105 0.001282
0.741455 0.292603 0.001404
0.777222 0.301941 0.003937
0.810242 0.301453 0.002533
0.834290 0.312195 0.001251
0.867432 0.314209 0.001251
0.891602 0.318024 0.006592
0.912567 0.317383 0.002167
0.938782 0.318634 0.000000
0.957611 0.320038 0.000000
0.972412 0.327637 0.000000
0.989624 0.331818 0.000000
0.001404 0.257935 0.104492
0.003784 0.260590 0.109802
0.000000 0.261841 0.112854
0.000000 0.265778 0.119049
0.002258 0.259583 0.112335
0.000000 0.261841 0.112335
0.000000 0.256531 0.109924
0.003143 0.253510 0.110321
0.000000 0.255890 0.101074
0.038818 0.259064 0.090454
0.105865 0.260590 0.090454
0.155975 0.260468 0.079834
0.204010 0.263123 0.079315
0.261322 0.268311 0.058960
0.329620 0.280457 0.039612
0.397583 0.285248 0.018219
0.467957 0.293854 0.001404
0.537018 0.299286 0.000000
0.597504 0.312317 0.000000
0.653534 0.318787 0.001404
0.706787 0.323212 0.001404
0.755859 0.333710 0.001282
0.789001 0.339386 0.004181
0.826324 0.343201 0.005066
0.847443 0.350403 0.001648
0.876038 0.356598 0.001404
0.892853 0.363800 0.003296
0.912201 0.370636 0.000000
0.938660 0.366577 0.001404
0.956360 0.370239 0.002289
0.972412 0.373932 0.001404
0.989380 0.376953 0.006439
0.006317 0.303223 0.114624
0.000000 0.305603 0.117645
0.000000 0.303223 0.116760
0.001526 0.304108 0.122192
0.000000 0.300171 0.120056
0.005432 0.299286 0.121582
0.000000 0.300171 0.115234
0.000641 0.299286 0.114349
0.003540 0.291321 0.117157
0.047668 0.295105 0.110565
0.120789 0.298920 0.103851
0.176331 0.297760 0.092743
0.221466 0.304108 0.091095
0.274719 0.303345 0.068939
0.332397 0.306122 0.045410
0.397827 0.316620 0.024414
0.474518 0.320801 0.003021
0.533356 0.333954 0.001526
0.594849 0.334595 0.000000
0.650635 0.345734 0.002411
0.698944 0.355194 0.000000
0.749298 0.367340 0.001251
0.792816 0.379883 0.000000
0.832275 0.386841 0.001526
0.852264 0.389496 0.000000
0.876770 0.394928 0.000000
0.898926 0.401245 0.000641
0.923981 0.410980 0.005829
0.941559 0.412628 0.000000
0.959381 0.416687 0.002167
0.976227 0.419220 0.003784
0.992157 0.424774 0.002411
0.003937 0.344818 0.129425
0.003937 0.344818 0.129425
0.002289 0.345062 0.128021
0.002289 0.345703 0.129791
0.001648 0.343811 0.133331
0.002655 0.344818 0.128784
0.001648 0.339264 0.129272
0.000763 0.338379 0.130157
0.000641 0.337616 0.123108
0.072327 0.330292 0.114227
0.133057 0.340271 0.108917
0.200745 0.332306 0.105621
0.242981 0.339264 0.093353
0.297119 0.340912 0.075500
0.349121 0.339508 0.064636
0.404785 0.345703 0.044128
0.475311 0.353699 0.009094
0.538940 0.363800 0.001770
0.600281 0.367981 0.001648
0.656952 0.377594 0.001648
0.702850 0.387207 0.003296
0.750549 0.396210 0.004547
0.790375 0.407715 0.001648
0.828613 0.413391 0.002289
0.855042 0.429199 0.005554
0.883240 0.438049 0.002289
0.902344 0.442871 0.000000
0.923981 0.450836 0.000000
0.940033 0.458801 0.001892
0.962311 0.460815 0.000000
0.976349 0.464630 0.003784
0.989868 0.468048 0.000000
0.005676 0.390991 0.135101
0.007721 0.393158 0.137512
0.000244 0.389496 0.137360
0.001404 0.390625 0.144318
0.001770 0.385315 0.139008
0.003937 0.387451 0.136871
0.003174 0.388214 0.136871
0.000000 0.380493 0.136383
0.003021 0.377594 0.136230
0.085876 0.376343 0.128387
0.167206 0.377472 0.125610
0.215790 0.373932 0.114105
0.272583 0.377472 0.106384
0.326599 0.381378 0.092224
0.374939 0.377472 0.070984
0.420715 0.383148 0.051117
0.474670 0.385834 0.028687
0.536255 0.395691 0.000000
0.598633 0.401367 0.003540
0.651276 0.408844 0.000641
0.700317 0.419586 0.003937
0.745880 0.431091 0.004791
0.783569 0.444000 0.001129
0.819733 0.450195 0.000000
0.856567 0.458923 0.001770
0.882629 0.469055 0.002533
0.904114 0.481567 0.001251
0.927887 0.491180 0.001770
0.940430 0.498657 0.004303
0.960022 0.502716 0.002014
0.970642 0.506744 0.000122
0.989990 0.512177 0.001770
0.000000 0.440704 0.139008
0.001892 0.438812 0.144958
0.003937 0.434906 0.148743
0.005829 0.434509 0.153564
0.005951 0.430969 0.154968
0.005310 0.431610 0.151550
0.004303 0.430084 0.150024
0.000000 0.430969 0.148010
0.003662 0.424286 0.148773
0.089386 0.422882 0.144470
0.185455 0.411865 0.133331
0.245758 0.420227 0.130798
0.297119 0.417297 0.123077
0.344940 0.421234 0.111938
0.392639 0.423004 0.088562
0.442749 0.421112 0.064636
0.490326 0.427063 0.042877
0.538544 0.421234 0.018951
0.590393 0.431488 0.001648
0.647186 0.443909 0.000000
0.695160 0.457153 0.000000
0.743469 0.463867 0.000000
0.777863 0.476257 0.005676
0.812805 0.484985 0.000000
0.847443 0.490051 0.000000
0.873505 0.500946 0.002014
0.898163 0.510925 0.003937
0.922089 0.524200 0.003937
0.938904 0.530426 0.000763
0.958496 0.536987 0.001892
0.970520 0.544556 0.000000
0.986328 0.550659 0.000000
0.000000 0.484528 0.156982
0.005829 0.484650 0.162811
0.002289 0.484894 0.167114
0.003784 0.484406 0.170410
0.005432 0.484283 0.166504
0.003296 0.478699 0.163574
0.000000 0.474915 0.164978
0.001892 0.477692 0.165985
0.003021 0.468079 0.159760
0.097870 0.468719 0.154205
0.208069 0.457611 0.148010
0.270721 0.457336 0.143341
0.317261 0.457184 0.127655
0.365326 0.461243 0.124878
0.417084 0.462891 0.114502
0.456787 0.465027 0.092621
0.506409 0.468964 0.060730
0.546265 0.470856 0.036957
0.592438 0.467316 0.005829
0.642120 0.476807 0.001526
0.691101 0.487183 0.004059
0.733459 0.497040 0.002655
0.773071 0.503876 0.001129
0.810638 0.515015 0.002014
0.842377 0.523987 0.000000
0.872742 0.532471 0.003174
0.892853 0.544098 0.000000
0.915497 0.552063 0.000000
0.932587 0.563080 0.000000
0.954071 0.570526 0.000000
0.970001 0.584442 0.003937
0.984192 0.590546 0.004059
0.002167 0.530579 0.165100
0.002167 0.530457 0.168884
0.000519 0.532349 0.175446
0.003937 0.531952 0.185089
0.007324 0.524994 0.186859
0.003021 0.524261 0.185089
0.003174 0.521332 0.182922
0.000000 0.519196 0.175964
0.002777 0.516022 0.176208
0.117004 0.510468 0.174713
0.220459 0.506683 0.174347
0.284607 0.503113 0.159790
0.344330 0.495270 0.155334
0.392395 0.504883 0.146515
0.439819 0.504486 0.133728
0.472992 0.505157 0.114746
0.514648 0.508545 0.094238
0.561951 0.514893 0.066284
0.605591 0.511475 0.022522
0.640137 0.514893 0.001526
0.679718 0.521332 0.002167
0.724854 0.528931 0.000000
0.761932 0.540436 0.000641
0.799896 0.551941 0.001007
0.833130 0.555878 0.000000
0.864380 0.567871 0.000000
0.884003 0.575989 0.002167
0.905762 0.582428 0.002167
0.932190 0.590790 0.002533
0.946625 0.600525 0.000000
0.965973 0.608490 0.007202
0.980377 0.618622 0.003937
0.001648 0.576111 0.187225
0.001648 0.576233 0.187500
0.001648 0.574463 0.194427
0.002014 0.575989 0.204193
0.003540 0.573334 0.202911
0.005554 0.569916 0.203552
0.001526 0.568146 0.198761
0.002533 0.568909 0.199249
0.011108 0.561310 0.190796
0.136475 0.555359 0.193939
0.232880 0.558136 0.188629
0.304871 0.548645 0.176849
0.361908 0.543091 0.177887
0.404938 0.547028 0.169891
0.450958 0.543610 0.158020
0.489319 0.545135 0.141083
0.532593 0.548523 0.118652
0.573334 0.552460 0.102325
0.611389 0.547028 0.078430
0.647980 0.555115 0.027466
0.682098 0.556763 0.000000
0.720825 0.560791 0.000000
0.758392 0.572693 0.001129
0.796326 0.580017 0.000000
0.820984 0.587738 0.000763
0.854401 0.598114 0.000000
0.874634 0.605591 0.000000
0.897522 0.615967 0.000000
0.918915 0.620514 0.001251
0.941803 0.632141 0.000000
0.955841 0.639587 0.000000
0.974823 0.648346 0.000000
0.001526 0.619873 0.210236
0.000000 0.618347 0.208984
0.001526 0.618347 0.217072
0.001526 0.617981 0.221008
0.001526 0.615967 0.230621
0.000000 0.621033 0.228607
0.000763 0.609619 0.219879
0.001526 0.609619 0.219879
0.026764 0.607361 0.211639
0.168243 0.600128 0.221527
0.256287 0.602936 0.216461
0.322418 0.592957 0.208099
0.381653 0.589142 0.200897
0.428070 0.589264 0.202545
0.470306 0.583954 0.185852
0.509796 0.586487 0.169037
0.546265 0.589630 0.157990
0.583710 0.592163 0.135864
0.619232 0.596222 0.116394
0.655792 0.597229 0.093506
0.686035 0.600128 0.045563
0.718933 0.597870 0.007721
0.751190 0.599762 0.001129
0.788635 0.612549 0.000000
0.814545 0.621399 0.000000
0.844788 0.630890 0.000000
0.870453 0.634033 0.000000
0.894623 0.642517 0.000000
0.909424 0.653900 0.000000
0.939148 0.657959 0.005188
0.951172 0.665924 0.000244
0.972534 0.671478 0.000000
0.003937 0.661102 0.232269
0.000000 0.662140 0.233917
0.001404 0.656952 0.242889
0.001404 0.659729 0.247437
0.003296 0.656433 0.257446
0.003937 0.657196 0.254669
0.000000 0.653259 0.250732
0.001404 0.651886 0.250732
0.097168 0.650879 0.245422
0.209717 0.641785 0.243164
0.278839 0.644287 0.234924
0.337982 0.633423 0.237823
0.399475 0.632141 0.233276
0.440460 0.626953 0.225952
0.482330 0.623657 0.215820
0.521057 0.626312 0.202301
0.554993 0.626953 0.194824
0.589020 0.631897 0.175842
0.624817 0.632019 0.154602
0.652771 0.631134 0.142212
0.686035 0.636200 0.112091
0.724365 0.641388 0.080078
0.747009 0.639862 0.027588
0.777374 0.644409 0.002533
0.802277 0.652374 0.000000
0.831879 0.658966 0.000000
0.856415 0.663269 0.000000
0.883240 0.671478 0.002533
0.902222 0.676788 0.003540
0.924988 0.685791 0.000244
0.941162 0.693756 0.000000
0.962158 0.704254 0.000000
0.000000 0.696899 0.266937
0.001251 0.695648 0.269470
0.001251 0.695648 0.270721
0.003937 0.692993 0.276031
0.001251 0.691711 0.289948
0.000000 0.691101 0.295502
0.000763 0.690979 0.287048
0.069214 0.683014 0.285645
0.173065 0.686157 0.283508
0.249725 0.681366 0.280090
0.313599 0.674774 0.276031
0.365326 0.677185 0.272003
0.415558 0.669342 0.264160
0.457031 0.669464 0.260498
0.495605 0.662506 0.254272
0.534332 0.658447 0.244049
0.567139 0.661621 0.237457
0.597351 0.665527 0.220001
0.630737 0.663910 0.207458
0.660614 0.665527 0.194946
0.688446 0.674652 0.170288
0.717773 0.676025 0.150543
0.745605 0.677185 0.117279
0.770538 0.672119 0.084656
0.793427 0.676788 0.026581
0.818604 0.684906 0.000000
0.849731 0.693634 0.000000
0.870850 0.698181 0.005310
0.889313 0.708282 0.001648
0.914490 0.712860 0.000244
0.927765 0.721436 0.000000
0.951538 0.729553 0.000000
0.001129 0.727142 0.300812
0.000000 0.728790 0.308044
0.000000 0.728790 0.308563
0.000366 0.729156 0.316254
0.001129 0.727661 0.326508
0.011871 0.724854 0.322205
0.088715 0.723724 0.329407
0.184082 0.716125 0.325623
0.245178 0.717773 0.330566
0.302460 0.713623 0.320312
0.340271 0.709167 0.317017
0.390900 0.707520 0.311951
0.437958 0.708038 0.301971
0.476532 0.702484 0.300201
0.510803 0.694519 0.292877
0.551300 0.693481 0.285400
0.579285 0.692749 0.281342
0.606842 0.702240 0.266541
0.633789 0.698547 0.253143
0.663025 0.702087 0.240631
0.692230 0.703613 0.228210
0.721588 0.705261 0.209106
0.745605 0.711975 0.186462
0.763824 0.710449 0.157776
0.794312 0.708282 0.132965
0.814545 0.709930 0.094910
0.840240 0.717529 0.045685
0.859589 0.728271 0.016724
0.882721 0.730682 0.000000
0.903717 0.738647 0.003052
0.923462 0.742584 0.002777
0.945099 0.750671 0.006714
0.002899 0.753845 0.341949
0.002899 0.753845 0.346893
0.000000 0.756500 0.347382
0.000000 0.753845 0.354736
0.064789 0.754852 0.359650
0.178009 0.748627 0.375336
0.219360 0.750427 0.367004
0.268707 0.750916 0.362701
0.310699 0.748016 0.363586
0.351288 0.745605 0.357391
0.384186 0.743958 0.358246
0.429474 0.739655 0.354858
0.459198 0.738525 0.347900
0.494110 0.733215 0.341309
0.524719 0.730316 0.334229
0.561523 0.729279 0.330322
0.591278 0.727386 0.326141
0.617462 0.726379 0.313354
0.640747 0.729675 0.301086
0.671356 0.731323 0.291473
0.692474 0.733459 0.280579
0.716766 0.740814 0.261108
0.743591 0.737274 0.251892
0.769531 0.737122 0.235046
0.791412 0.740173 0.211273
0.811249 0.740295 0.181152
0.830872 0.744720 0.149658
0.852509 0.752319 0.128662
0.867920 0.756989 0.097565
0.895386 0.763184 0.052917
0.916504 0.768646 0.020386
0.930420 0.774445 0.000000
0.000000 0.786865 0.392944
0.021118 0.779755 0.382812
0.078217 0.785339 0.392944
0.149200 0.779388 0.398987
0.222656 0.779144 0.403931
0.268188 0.779907 0.412140
0.307037 0.777740 0.413544
0.338898 0.777740 0.408234
0.371552 0.770905 0.409363
0.397217 0.776855 0.400513
0.430359 0.771667 0.399139
0.455170 0.769897 0.395081
0.484863 0.770782 0.388000
0.517639 0.766479 0.386353
0.549530 0.760284 0.381653
0.578369 0.761292 0.374084
0.608246 0.755219 0.373322
0.629120 0.758118 0.360291
0.653778 0.758636 0.354584
0.672363 0.758118 0.344360
0.697418 0.762054 0.332458
0.721710 0.761688 0.316132
0.744720 0.764832 0.303101
0.764709 0.771027 0.288177
0.782532 0.765961 0.273132
0.805573 0.769135 0.252258
0.821899 0.770142 0.225311
0.838959 0.770782 0.206970
0.863770 0.774323 0.188110
0.884247 0.782928 0.170929
0.908783 0.789520 0.151184
0.931580 0.794312 0.137024
0.198273 0.805573 0.431519
0.221161 0.809479 0.432404
0.245941 0.808472 0.432251
0.270477 0.806702 0.436188
0.313232 0.808990 0.440094
0.354584 0.801636 0.454773
0.386993 0.801636 0.456696
0.399872 0.806580 0.447327
0.424408 0.801636 0.448212
0.442902 0.799622 0.443665
0.469452 0.796478 0.442139
0.495880 0.797089 0.446075
0.516754 0.795441 0.436310
0.545349 0.792053 0.433014
0.572052 0.789124 0.430756
0.597595 0.786621 0.426208
0.619873 0.785217 0.415436
0.643921 0.789124 0.412659
0.665802 0.784332 0.406586
0.684143 0.782806 0.395447
0.712463 0.785339 0.384308
0.726135 0.786713 0.373932
0.746368 0.791534 0.362427
0.759003 0.790131 0.346497
0.780273 0.790649 0.336884
0.803162 0.793793 0.324097
0.822266 0.797089 0.308044
0.841888 0.800629 0.278046
0.855652 0.804443 0.267303
0.875519 0.805328 0.251495
0.897675 0.810242 0.236450
0.920044 0.818085 0.234039
0.313354 0.830109 0.468048
0.323608 0.833893 0.471466
0.343079 0.828583 0.474884
0.366364 0.825165 0.480347
0.390137 0.823395 0.486908
0.418335 0.822906 0.495514
0.444031 0.825684 0.503479
0.460724 0.825806 0.499695
0.477295 0.822632 0.498169
0.493866 0.824432 0.490967
0.515747 0.820374 0.490326
0.530304 0.823029 0.489685
0.553436 0.816833 0.484375
0.576599 0.816071 0.482483
0.597076 0.812897 0.476532
0.613037 0.815186 0.470734
0.638092 0.807831 0.469971
0.656311 0.811646 0.461853
0.672241 0.809235 0.455658
0.689575 0.806824 0.446289
0.711060 0.811249 0.446564
0.729553 0.813171 0.437469
0.749664 0.813782 0.428101
0.767487 0.813171 0.412903
0.781921 0.817719 0.397339
0.801514 0.814545 0.390900
0.824921 0.817719 0.377991
0.838318 0.817841 0.355621
0.850616 0.825165 0.342316
0.870728 0.825928 0.328156
0.883881 0.828979 0.316010
0.911072 0.837311 0.315887
0.399384 0.846039 0.515137
0.407593 0.846161 0.526001
0.423676 0.845551 0.530060
0.434937 0.846436 0.534088
0.452881 0.849457 0.535248
0.475769 0.846039 0.539795
0.496033 0.842621 0.543335
0.509552 0.848572 0.543579
0.521454 0.840729 0.542572
0.536499 0.843781 0.541443
0.554596 0.843781 0.541565
0.562683 0.842133 0.534729
0.581390 0.839600 0.531311
0.602905 0.838196 0.532440
0.617706 0.835938 0.533722
