assets/luts/Portra_800.cube
#Created by: Adobe Photoshop Export Color Lookup Plugin
#Copyright: (C) Copyright 2022 Tim Martin and Presetpro.com
TITLE "Presetpro - Portra 800.jpg"
#LUT size
LUT_3D_SIZE 32
#data domain
DOMAIN_MIN 0.0 0.0 0.0
DOMAIN_MAX 1.0 1.0 1.0
#LUT data points
0.000000 0.000000 0.000000
0.015686 0.000000 0.000000
0.035797 0.003937 0.000000
0.059204 0.003540 0.000000
0.083374 0.004425 0.007324
0.107788 0.004547 0.000000
0.131683 0.016449 0.001526
0.171265 0.013916 0.003937
0.196198 0.015686 0.002899
0.233124 0.010620 0.000000
0.280823 0.006592 0.002655
0.327362 0.000000 0.003937
0.368988 0.001526 0.003021
0.421600 0.000000 0.002289
0.465515 0.003937 0.000000
0.519287 0.000000 0.001892
0.563080 0.002014 0.000000
0.616852 0.000000 0.000000
0.662384 0.001648 0.000000
0.704620 0.002411 0.000000
0.755219 0.001404 0.000000
0.800262 0.003937 0.000000
0.837463 0.000000 0.001129
0.877289 0.003937 0.002899
0.917145 0.000000 0.004791
0.943573 0.000000 0.000000
0.991669 0.000000 0.000000
0.992676 0.006836 0.003418
0.999634 0.003540 0.003540
0.996338 0.000244 0.000244
0.996216 0.000122 0.000122
1.000000 0.039215 0.011780
0.003784 0.012024 0.000122
0.011780 0.015930 0.000000
0.031891 0.019867 0.000122
0.055786 0.019989 0.000366
0.079071 0.020477 0.000000
0.104370 0.027710 0.000000
0.136353 0.028320 0.000122
0.170654 0.031616 0.006073
0.198212 0.034668 0.000885
0.240845 0.026825 0.002777
0.280945 0.026581 0.001129
0.328247 0.015930 0.000000
0.369873 0.002777 0.001526
0.425415 0.000000 0.007599
0.465515 0.003937 0.000000
0.519135 0.000000 0.000122
0.565094 0.000000 0.000000
0.618500 0.002014 0.000000
0.656830 0.002289 0.000000
0.704498 0.003784 0.004700
0.753845 0.000000 0.000000
0.797729 0.000122 0.003784
0.838715 0.000122 0.001251
0.881104 0.002899 0.002899
0.914124 0.000122 0.002899
0.951691 0.000000 0.000000
0.986847 0.003784 0.007080
0.996063 0.000000 0.000000
0.996063 0.000000 0.000000
0.996063 0.000000 0.007080
0.992401 0.012146 0.000244
1.000000 0.082855 0.000122
0.000000 0.028198 0.000519
0.004547 0.032135 0.004059
0.024292 0.036041 0.007599
0.052002 0.040344 0.003784
0.069183 0.044159 0.000763
0.104736 0.047821 0.003296
0.135620 0.048309 0.000519
0.167358 0.054779 0.003052
0.201874 0.048065 0.000000
0.243774 0.051727 0.000000
0.280823 0.047058 0.001007
0.327118 0.041626 0.004791
0.374939 0.025940 0.000244
0.424133 0.006958 0.002533
0.469299 0.002411 0.000244
0.520905 0.000000 0.000000
0.561432 0.001770 0.001892
0.616852 0.000000 0.000000
0.658722 0.001648 0.002014
0.708801 0.000000 0.000000
0.752441 0.001404 0.005066
0.797852 0.001526 0.000000
0.835175 0.001404 0.000244
0.874390 0.001007 0.002655
0.915009 0.003052 0.000000
0.956757 0.000000 0.000763
0.982788 0.000244 0.003296
0.996063 0.000244 0.000000
0.996063 0.000366 0.000000
0.999237 0.004669 0.003418
0.999756 0.056152 0.007324
0.996063 0.114471 0.000244
0.000366 0.051727 0.011383
0.008362 0.055420 0.008362
0.024292 0.056030 0.004425
0.051361 0.059967 0.008209
0.075409 0.071228 0.000000
0.100830 0.071991 0.000000
0.125366 0.072113 0.000366
0.164459 0.072601 0.000366
0.200500 0.076019 0.000000
0.240601 0.076416 0.000000
0.281586 0.074768 0.000366
0.324982 0.071106 0.001007
0.380127 0.061615 0.000000
0.427185 0.047302 0.001251
0.473358 0.028717 0.002533
0.519287 0.006714 0.000000
0.565491 0.000366 0.000763
0.616852 0.000000 0.000000
0.658844 0.003540 0.000000
0.710968 0.000000 0.000000
0.759155 0.000366 0.002167
0.797974 0.000366 0.001251
0.840240 0.003937 0.000366
0.874756 0.001404 0.002899
0.914124 0.003937 0.000000
0.955872 0.000366 0.000000
0.981781 0.000763 0.003662
0.996460 0.003418 0.000366
0.996063 0.003418 0.000000
0.999634 0.056152 0.006592
0.996216 0.107513 0.000000
1.000000 0.143066 0.000763
0.006836 0.072113 0.019104
0.015167 0.072601 0.011780
0.023529 0.072601 0.015167
0.043274 0.076782 0.015442
0.061340 0.091217 0.001526
0.102966 0.095642 0.003784
0.138275 0.100067 0.000000
0.167480 0.104370 0.000000
0.204559 0.103973 0.000000
0.244507 0.100677 0.000000
0.287659 0.103210 0.001251
0.332825 0.102203 0.004791
0.377228 0.096130 0.000000
0.427826 0.088287 0.000519
0.469940 0.074768 0.000000
0.519135 0.063873 0.000000
0.573334 0.039215 0.001892
0.615204 0.017700 0.000000
0.659088 0.002533 0.001770
0.712982 0.000519 0.006836
0.755737 0.000000 0.004791
0.800262 0.001770 0.004303
0.841370 0.002777 0.003937
0.882233 0.003937 0.003937
0.916260 0.000000 0.000000
0.947998 0.004425 0.000000
0.984436 0.008453 0.006195
1.000000 0.030487 0.000000
0.999634 0.080566 0.004547
0.996826 0.115753 0.000763
0.999878 0.150543 0.000000
0.996582 0.176086 0.000000
0.003296 0.096008 0.024780
0.007843 0.099304 0.020233
0.012634 0.100189 0.017212
0.031494 0.103485 0.017456
0.059845 0.108398 0.012512
0.083618 0.118896 0.010498
0.124725 0.127502 0.003784
0.167603 0.134979 0.000000
0.196564 0.132935 0.000000
0.244263 0.129150 0.000000
0.282715 0.134583 0.000000
0.333069 0.130554 0.002014
0.376831 0.132568 0.006317
0.425903 0.120789 0.002014
0.473358 0.116882 0.003296
0.523834 0.108398 0.000000
0.568390 0.098541 0.005188
0.620148 0.086151 0.000000
0.664673 0.076660 0.004944
0.716400 0.063599 0.001526
0.753845 0.051971 0.001892
0.798248 0.046783 0.001251
0.834167 0.040710 0.001770
0.876038 0.042877 0.001251
0.916504 0.058563 0.000641
0.947266 0.074005 0.003784
0.981781 0.095367 0.000000
0.999481 0.117126 0.000000
0.999634 0.143829 0.000000
0.999756 0.171661 0.000000
0.999878 0.190887 0.000000
0.993408 0.218201 0.000000
0.000000 0.120667 0.025787
0.006439 0.127014 0.030609
0.007843 0.120667 0.027710
0.027069 0.124969 0.027069
0.047302 0.128510 0.014282
0.080078 0.138763 0.015808
0.115997 0.144196 0.007080
0.165222 0.159271 0.003937
0.200378 0.170654 0.002899
0.238953 0.166992 0.000000
0.285492 0.167236 0.000000
0.330536 0.162415 0.000000
0.377716 0.164581 0.003174
0.429596 0.158508 0.000885
0.472351 0.153809 0.003174
0.521179 0.152802 0.001129
0.571045 0.148895 0.000000
0.617859 0.139648 0.000000
0.661499 0.133972 0.003052
0.710968 0.130798 0.000000
0.757019 0.125854 0.002136
0.801544 0.121796 0.005188
0.841370 0.123718 0.001129
0.882233 0.128784 0.000000
0.912598 0.132935 0.000000
0.949158 0.142548 0.000763
0.981018 0.163422 0.000000
0.999481 0.172150 0.002655
1.000000 0.188873 0.003540
0.996063 0.211121 0.000000
0.996948 0.231628 0.001526
0.999237 0.253998 0.003174
0.003052 0.148621 0.037048
0.003052 0.148621 0.036804
0.003052 0.148621 0.029205
0.013916 0.149506 0.031372
0.039459 0.156616 0.033539
0.073761 0.160400 0.025940
0.107025 0.171143 0.020233
0.135986 0.179993 0.006958
0.190765 0.190125 0.000000
0.240967 0.201141 0.000885
0.291718 0.202637 0.002655
0.333435 0.200500 0.000000
0.380768 0.205933 0.005432
0.426544 0.199738 0.002289
0.474243 0.193542 0.001770
0.525208 0.194672 0.004669
0.572052 0.186829 0.003937
0.618500 0.184418 0.001282
0.662384 0.180389 0.003296
0.711609 0.177856 0.000000
0.752197 0.181763 0.001404
0.795471 0.181763 0.000885
0.839355 0.185699 0.005829
0.880463 0.188599 0.000000
0.913239 0.192657 0.000885
0.948273 0.200623 0.003052
0.983307 0.215820 0.002411
0.998993 0.224396 0.000000
1.000000 0.242889 0.002136
0.999115 0.258575 0.000000
0.993927 0.273865 0.000000
1.000000 0.284607 0.000000
0.000000 0.179504 0.037323
0.000122 0.178619 0.037445
0.000763 0.179260 0.038086
0.000000 0.176575 0.037323
0.023407 0.179993 0.031891
0.049591 0.187988 0.029480
0.091217 0.193024 0.023285
0.128906 0.199097 0.014923
0.173676 0.211884 0.000000
0.225677 0.227814 0.001129
0.284729 0.243011 0.006317
0.330292 0.243256 0.000000
0.380127 0.240356 0.005310
0.427185 0.239716 0.001007
0.473358 0.237427 0.003937
0.520172 0.232635 0.000000
0.562195 0.234528 0.002014
0.614075 0.234283 0.002014
0.665283 0.232239 0.001648
0.710083 0.231110 0.002014
0.752319 0.229584 0.003937
0.794312 0.230591 0.001251
0.835693 0.233521 0.001129
0.877289 0.237427 0.000000
0.915131 0.244385 0.003937
0.946991 0.249451 0.002899
0.984711 0.263245 0.000000
1.000000 0.273102 0.004822
0.998993 0.283722 0.003296
0.995331 0.299683 0.000000
0.999878 0.313599 0.002777
1.000000 0.330536 0.002899
0.000000 0.209595 0.046539
0.000000 0.209595 0.046539
0.000000 0.208466 0.045410
0.001129 0.208466 0.049316
0.000519 0.208984 0.043640
0.041229 0.215820 0.044281
0.073242 0.223785 0.036041
0.115875 0.229828 0.024048
0.156738 0.240723 0.004059
0.208466 0.248810 0.003937
0.261841 0.263611 0.000000
0.329285 0.281342 0.001404
0.380127 0.281464 0.002411
0.430084 0.280823 0.002289
0.474884 0.277802 0.010498
0.525208 0.276276 0.001129
0.565094 0.273254 0.000000
0.619629 0.273499 0.000000
0.662384 0.276276 0.003937
0.706299 0.275146 0.000000
0.751312 0.280182 0.004791
0.795197 0.276276 0.002258
0.836334 0.284119 0.000000
0.875031 0.286499 0.001770
0.907288 0.294098 0.003052
0.948029 0.303345 0.001526
0.978485 0.309296 0.000000
0.998993 0.316620 0.007324
1.000000 0.330414 0.002411
0.997742 0.339020 0.001648
0.998749 0.351776 0.000122
0.997223 0.366455 0.000000
0.002655 0.240356 0.054901
0.001129 0.244263 0.056152
0.000000 0.243256 0.057678
0.000000 0.243011 0.054901
0.007965 0.237671 0.054901
0.012390 0.244904 0.051605
0.058197 0.252991 0.050720
0.102966 0.259186 0.040466
0.144714 0.271210 0.019867
0.192535 0.276764 0.013428
0.241608 0.288666 0.001251
0.299042 0.302094 0.001526
0.371033 0.320038 0.003662
0.423889 0.322327 0.000000
0.471069 0.321686 0.002655
0.521301 0.318787 0.003296
0.565094 0.314728 0.000000
0.615570 0.317383 0.000000
0.658447 0.316132 0.004303
0.703491 0.317261 0.003815
0.744720 0.321289 0.002533
0.789764 0.323975 0.000000
0.829620 0.329132 0.000000
0.872375 0.333710 0.001648
0.908051 0.340912 0.003937
0.943970 0.344086 0.001892
0.970032 0.354065 0.000000
0.995056 0.364838 0.003418
0.996948 0.373291 0.000366
0.998474 0.385193 0.000000
0.996216 0.394287 0.000000
1.000000 0.406311 0.001251
0.000000 0.271088 0.059082
0.002533 0.274750 0.062744
0.000000 0.269928 0.062988
0.000763 0.268555 0.064148
0.003937 0.268311 0.066681
0.001251 0.275391 0.058319
0.036438 0.274384 0.052490
0.086761 0.282349 0.048462
0.131683 0.301819 0.029602
0.175964 0.299927 0.016968
0.225800 0.315247 0.004181
0.280060 0.327118 0.000000
0.343811 0.335205 0.003937
0.415405 0.359253 0.000000
0.465118 0.363434 0.001404
0.518402 0.362427 0.000000
0.563965 0.357361 0.001404
0.615448 0.362427 0.000000
0.655914 0.361267 0.003021
0.703247 0.363800 0.007721
0.744598 0.363800 0.003937
0.787231 0.366455 0.001404
0.827087 0.369110 0.002533
0.866669 0.378479 0.000000
0.900970 0.384186 0.005066
0.940674 0.388733 0.001404
0.971283 0.397827 0.001404
0.997986 0.405945 0.001404
0.997833 0.414032 0.000366
0.997711 0.423767 0.000000
0.995056 0.435272 0.001404
0.998596 0.439697 0.002533
0.002411 0.304108 0.074524
0.002411 0.304108 0.074524
0.000000 0.306519 0.074524
0.001129 0.304626 0.074127
0.000000 0.304108 0.076904
0.001526 0.302582 0.072113
0.018585 0.308777 0.067291
0.076782 0.308899 0.065765
0.116760 0.325623 0.054382
0.164581 0.329651 0.040100
0.219330 0.339386 0.020630
0.270569 0.350891 0.004059
0.326111 0.362915 0.000000
0.387604 0.376465 0.000122
0.455139 0.392395 0.004547
0.516235 0.403290 0.000000
0.566010 0.399719 0.000000
0.611023 0.401245 0.001526
0.655304 0.405182 0.000000
0.699188 0.406067 0.002411
0.744965 0.409088 0.003021
0.783173 0.411865 0.000000
0.823273 0.415802 0.000000
0.862244 0.422241 0.001007
0.896027 0.422363 0.005432
0.935883 0.431854 0.000000
0.970276 0.437439 0.002411
0.996582 0.449188 0.003021
1.000000 0.457672 0.000366
0.997589 0.462463 0.000000
0.999878 0.471588 0.007599
0.995178 0.484497 0.000000
0.006195 0.332062 0.086273
0.007843 0.335968 0.083344
0.001648 0.334351 0.086273
0.001648 0.334351 0.083984
0.001648 0.331055 0.080078
0.003937 0.329773 0.083984
0.008606 0.332062 0.076141
0.063232 0.337738 0.075409
0.114868 0.347748 0.072876
0.159760 0.356720 0.057556
0.203644 0.366974 0.039978
0.252350 0.372650 0.014160
0.309296 0.389984 0.003540
0.360504 0.400360 0.000000
0.419464 0.404785 0.002411
0.499023 0.434387 0.004303
0.564575 0.443756 0.004181
0.609131 0.444000 0.002289
0.649963 0.445129 0.001648
0.695038 0.448181 0.000000
0.736511 0.449951 0.000885
0.781921 0.454010 0.000000
0.818970 0.459198 0.001129
0.855408 0.462463 0.003296
0.897034 0.468170 0.003296
0.933472 0.472473 0.003296
0.961792 0.479797 0.000641
0.988373 0.488281 0.000000
1.000000 0.497772 0.000000
1.000000 0.502319 0.002289
1.000000 0.512207 0.000000
0.996063 0.515717 0.002289
0.000000 0.369995 0.091949
0.002167 0.366089 0.093719
0.002167 0.366089 0.093719
0.002136 0.365326 0.097260
0.001251 0.362152 0.092865
0.002167 0.361786 0.095886
0.005188 0.361786 0.091583
0.056671 0.362152 0.088531
0.104858 0.374573 0.085510
0.150146 0.378998 0.072479
0.198853 0.392639 0.056427
0.240845 0.403168 0.039978
0.297119 0.412262 0.017334
0.347107 0.420471 0.000366
0.402771 0.432373 0.000000
0.468536 0.446411 0.000000
0.539825 0.470459 0.000275
0.599396 0.483734 0.000000
0.645050 0.487671 0.000000
0.693268 0.488922 0.007080
0.734222 0.493713 0.000000
0.781555 0.498657 0.000000
0.816071 0.501953 0.000000
0.855927 0.505859 0.001770
0.888824 0.507751 0.002167
0.925995 0.513977 0.000000
0.957123 0.523071 0.000000
0.985443 0.528259 0.000000
0.998230 0.534332 0.005676
0.998230 0.540405 0.000000
0.998230 0.546082 0.002167
0.997833 0.557861 0.001770
0.001892 0.397827 0.109680
0.001892 0.397827 0.109680
0.001892 0.395813 0.107635
0.001892 0.395050 0.109680
0.001404 0.397339 0.107147
0.000000 0.395935 0.108398
0.005585 0.393921 0.109680
0.046539 0.393921 0.103851
0.103210 0.394928 0.104858
0.149261 0.404419 0.094727
0.188599 0.416046 0.075653
0.230621 0.424774 0.063263
0.284882 0.434143 0.052734
0.337494 0.448578 0.016815
0.388977 0.458160 0.000244
0.448822 0.470306 0.000000
0.508453 0.486267 0.000000
0.576385 0.508148 0.000000
0.639252 0.527130 0.001892
0.689606 0.531036 0.002014
0.728424 0.535461 0.000000
0.774078 0.537628 0.003296
0.813934 0.540009 0.003021
0.850861 0.542816 0.001007
0.882874 0.549774 0.000000
0.920563 0.552673 0.000000
0.954468 0.556458 0.002014
0.986206 0.561401 0.000000
0.996216 0.572144 0.000000
1.000000 0.577606 0.000000
1.000000 0.583923 0.003937
0.998108 0.591766 0.000000
0.000000 0.427704 0.119812
0.000244 0.427582 0.119812
0.000000 0.425812 0.123596
0.001892 0.427704 0.124359
0.000000 0.425690 0.117767
0.003784 0.425201 0.120453
0.002258 0.421906 0.122986
0.041473 0.421906 0.119812
0.096130 0.419861 0.113861
0.145721 0.428864 0.108795
0.186584 0.440613 0.098816
0.232361 0.450623 0.090332
0.275757 0.459595 0.077332
0.323578 0.470459 0.062012
0.377075 0.482086 0.028625
0.430969 0.490479 0.004333
0.486542 0.508179 0.001892
0.550293 0.524109 0.001892
0.612274 0.542450 0.000519
0.680603 0.571289 0.000000
0.728271 0.567505 0.000000
0.767487 0.576874 0.000000
0.807220 0.578766 0.001129
0.846954 0.584595 0.000000
0.876648 0.589508 0.000000
0.915894 0.592560 0.002014
0.941956 0.597748 0.000000
0.974945 0.605072 0.000000
0.997742 0.611664 0.002014
0.997711 0.615692 0.000000
1.000000 0.621765 0.003784
0.997986 0.627716 0.000000
0.001770 0.457428 0.135101
0.000000 0.459595 0.131958
0.000000 0.457428 0.129791
0.000000 0.457428 0.129791
0.000000 0.459198 0.129791
0.001770 0.455688 0.134583
0.003021 0.448853 0.132965
0.046173 0.451752 0.130188
0.100922 0.447693 0.131714
0.142944 0.454651 0.123718
0.183533 0.463898 0.120697
0.227692 0.471985 0.106018
0.268158 0.483368 0.099945
0.320892 0.496155 0.081085
0.367462 0.508026 0.066437
0.418823 0.514252 0.032532
0.466797 0.532227 0.000000
0.530182 0.548035 0.000000
0.586487 0.563843 0.000000
0.646057 0.578247 0.000244
0.720703 0.605438 0.000366
0.765839 0.610901 0.000000
0.804321 0.614929 0.004303
0.840851 0.624695 0.001007
0.874908 0.626465 0.000000
0.906769 0.630371 0.000000
0.938141 0.636444 0.002777
0.967102 0.638580 0.001251
0.991760 0.648224 0.001770
0.996979 0.653656 0.000519
0.996063 0.657837 0.000000
1.000000 0.659607 0.000000
0.004547 0.487549 0.147369
0.005554 0.483643 0.145111
0.000000 0.485901 0.143463
0.001892 0.489441 0.147003
0.002289 0.485260 0.144745
0.003296 0.483002 0.149017
0.002258 0.482880 0.144226
0.048431 0.481995 0.141815
0.109558 0.477417 0.139160
0.142944 0.480194 0.137878
0.188354 0.488190 0.131683
0.225800 0.495392 0.127014
0.269562 0.505615 0.123108
0.315735 0.523224 0.110077
0.358978 0.530182 0.093262
0.407196 0.540436 0.071350
0.462250 0.553955 0.034058
0.516388 0.573456 0.010620
0.572174 0.585602 0.001648
0.625824 0.597473 0.002289
0.689331 0.616089 0.002533
0.752563 0.641266 0.004547
0.799896 0.652252 0.000000
0.833893 0.655182 0.000000
0.869568 0.659210 0.001770
0.906769 0.664917 0.004547
0.934723 0.670227 0.002899
0.964325 0.675293 0.002258
0.987213 0.681610 0.000000
0.997467 0.688934 0.000000
0.996216 0.689209 0.002289
0.996063 0.693756 0.000000
0.001526 0.517029 0.153839
0.000000 0.515503 0.152313
0.000000 0.517914 0.152313
0.000000 0.521454 0.155853
0.003021 0.514374 0.158386
0.003540 0.512848 0.154724
0.004547 0.514893 0.152191
0.061981 0.510712 0.156860
0.112335 0.507660 0.148895
0.149139 0.509308 0.146515
0.190247 0.517029 0.144470
0.230988 0.527283 0.146393
0.267914 0.535736 0.135742
0.311798 0.544586 0.123108
0.358978 0.554352 0.114349
0.402527 0.569885 0.099335
0.456055 0.581024 0.079315
0.507050 0.592163 0.046814
0.561188 0.607971 0.006073
0.617462 0.623810 0.000000
0.669220 0.637329 0.002655
0.721710 0.651123 0.000000
0.786865 0.680969 0.000000
0.835175 0.694397 0.000519
0.863129 0.694122 0.000641
0.898926 0.702240 0.000763
0.929291 0.709442 0.002411
0.953949 0.711578 0.000000
0.986328 0.712860 0.001526
0.997345 0.716522 0.000000
0.998596 0.723236 0.004822
1.000000 0.727264 0.000000
0.000000 0.555237 0.167236
0.003937 0.551300 0.172302
0.003937 0.551300 0.172546
0.003937 0.552063 0.172668
0.003418 0.550812 0.173187
0.002777 0.548004 0.168518
0.012512 0.548523 0.165863
0.072845 0.545990 0.168121
0.123199 0.546387 0.169128
0.161163 0.544586 0.163330
0.193146 0.546112 0.159393
0.235291 0.552704 0.163330
0.272736 0.561676 0.150024
0.314331 0.569122 0.148529
0.356323 0.584442 0.132721
0.399078 0.594940 0.118683
0.446960 0.606598 0.111969
0.499207 0.622925 0.083496
0.551575 0.634033 0.054016
0.600006 0.647705 0.015961
0.651886 0.661102 0.003937
0.701202 0.675659 0.001404
0.755859 0.689331 0.000000
0.815186 0.710693 0.002533
0.860870 0.728271 0.001007
0.892365 0.734222 0.000763
0.919922 0.737000 0.000763
0.951172 0.743225 0.002533
0.979126 0.747009 0.004944
0.998596 0.748779 0.000244
0.996063 0.753845 0.000000
0.995819 0.760529 0.002533
0.000000 0.588379 0.188232
0.001251 0.587097 0.185699
0.000000 0.586090 0.181641
0.002899 0.590271 0.184692
0.001251 0.587097 0.188232
0.005035 0.585205 0.182922
0.028961 0.585083 0.185699
0.090454 0.580139 0.181793
0.136108 0.583557 0.180786
0.165192 0.579254 0.172821
0.199860 0.575348 0.175201
0.240723 0.580658 0.175201
0.283112 0.591400 0.167236
0.319397 0.600525 0.159515
0.356598 0.608490 0.150818
0.401611 0.623047 0.142700
0.449341 0.632904 0.134247
0.494019 0.647064 0.117401
0.539185 0.661224 0.091705
0.589752 0.670471 0.076050
0.637207 0.687286 0.026825
0.689056 0.703491 0.001251
0.736877 0.711578 0.000244
0.785706 0.721954 0.003662
0.840240 0.745483 0.002533
0.883759 0.764069 0.000000
0.913727 0.768768 0.000000
0.946228 0.774841 0.000000
0.971283 0.773560 0.000000
0.990509 0.776855 0.000000
0.999878 0.780396 0.002655
1.000000 0.787109 0.001251
0.000000 0.626831 0.204437
0.001129 0.621765 0.200500
0.001129 0.621765 0.200500
0.001129 0.625702 0.192657
0.001129 0.624054 0.194427
0.008331 0.622894 0.191162
0.067047 0.616211 0.197723
0.118530 0.616821 0.193054
0.150909 0.621887 0.195709
0.181519 0.619507 0.193298
0.214294 0.615448 0.189880
0.247559 0.615051 0.185699
0.285004 0.623047 0.176849
0.323578 0.630096 0.178619
0.361786 0.640472 0.170654
0.406433 0.652008 0.163452
0.451752 0.663025 0.153687
0.490326 0.675415 0.140686
0.541321 0.685150 0.125366
0.580658 0.694641 0.111450
0.628601 0.707794 0.088043
0.684753 0.720825 0.053528
0.727661 0.734344 0.012268
0.773560 0.744598 0.000000
0.813538 0.756989 0.000000
0.866425 0.782043 0.003174
0.908417 0.796600 0.002899
0.939667 0.801147 0.000000
0.966736 0.807220 0.000000
0.992279 0.807220 0.000244
1.000000 0.808350 0.003937
1.000000 0.815063 0.005585
0.000000 0.662628 0.216583
0.000000 0.661621 0.213654
0.000244 0.661377 0.213654
0.004944 0.659729 0.213654
0.003540 0.663513 0.212158
0.053894 0.660095 0.213043
0.098785 0.658447 0.217590
0.141541 0.653900 0.216461
0.168732 0.657684 0.207947
0.199615 0.655548 0.207977
0.228577 0.652130 0.210754
0.262482 0.649841 0.207214
0.290192 0.656311 0.202301
0.328766 0.661346 0.200897
0.371399 0.671844 0.196198
0.409485 0.684143 0.186340
0.455048 0.694000 0.177368
0.494141 0.701080 0.168365
0.540802 0.712982 0.158386
0.583557 0.724365 0.151825
0.628967 0.733856 0.131836
0.676025 0.747375 0.114349
0.722351 0.758514 0.090332
0.761688 0.765594 0.053528
0.808228 0.775726 0.009735
0.847443 0.785950 0.000763
0.889832 0.808868 0.000000
0.929932 0.827850 0.000000
0.963959 0.831879 0.001129
0.984833 0.835938 0.002899
1.000000 0.836182 0.005829
1.000000 0.840118 0.000000
0.006073 0.695374 0.236572
0.000000 0.697662 0.230499
0.004059 0.700592 0.233276
0.034027 0.698792 0.229095
0.075287 0.695374 0.229095
0.108307 0.700592 0.235931
0.134338 0.696655 0.228088
0.172546 0.698425 0.229614
0.193542 0.693634 0.231750
0.225433 0.694763 0.229614
0.252991 0.690948 0.228333
0.282471 0.689697 0.226196
0.308411 0.688812 0.229370
0.347382 0.694763 0.219238
0.384430 0.706757 0.213409
0.428192 0.712097 0.203186
0.456177 0.720062 0.197479
0.502747 0.733734 0.195190
0.544617 0.740814 0.192657
0.590027 0.751801 0.175079
0.624817 0.764587 0.163940
0.666931 0.772552 0.152802
0.708923 0.780518 0.137878
0.755341 0.792419 0.125366
0.793427 0.796478 0.085785
0.836426 0.812286 0.038208
0.868317 0.820496 0.006317
0.914215 0.831635 0.000000
0.959381 0.856293 0.000519
0.991394 0.857056 0.000000
1.000000 0.862244 0.000000
0.999115 0.860992 0.000000
0.063141 0.737396 0.251862
0.077301 0.738159 0.257172
0.097046 0.733978 0.256561
0.113983 0.734222 0.259338
0.138794 0.735474 0.253143
0.155975 0.734863 0.250854
0.178131 0.739807 0.253510
0.205688 0.736511 0.247070
0.226959 0.732452 0.255554
0.256561 0.732208 0.254669
0.279816 0.731445 0.251862
0.307007 0.726379 0.250854
0.329285 0.728790 0.250214
0.363556 0.731934 0.244019
0.400238 0.739899 0.241241
0.431763 0.744110 0.235565
0.472137 0.758270 0.230225
0.515137 0.765991 0.224030
0.551941 0.771790 0.217590
0.590027 0.779022 0.209503
0.632263 0.791656 0.201538
0.671356 0.797211 0.189117
0.708435 0.805206 0.178131
0.748657 0.816315 0.159760
0.784698 0.820618 0.150024
0.828339 0.832275 0.128784
0.861725 0.840363 0.099182
0.898041 0.848206 0.063660
0.930939 0.864777 0.006317
0.981415 0.881348 0.000000
0.998474 0.891083 0.003174
0.996063 0.889435 0.001526
0.145996 0.777222 0.276550
0.155853 0.777740 0.277802
0.163208 0.777222 0.279572
0.176086 0.773956 0.277557
0.185974 0.773834 0.281586
0.203278 0.773315 0.283112
0.224426 0.773956 0.281616
0.247437 0.774841 0.275024
0.269440 0.769379 0.285034
0.290955 0.772675 0.284241
0.313599 0.773315 0.278564
0.336884 0.766846 0.270081
0.362183 0.766998 0.273773
0.388367 0.768372 0.274261
0.417572 0.772430 0.267822
0.454010 0.778503 0.266815
0.490601 0.784454 0.258179
0.523224 0.796326 0.259583
0.560791 0.804321 0.256683
0.598755 0.814301 0.244781
0.629730 0.824921 0.233521
0.672760 0.828217 0.230743
0.709167 0.832764 0.222015
0.748260 0.843384 0.221405
0.782532 0.848206 0.204926
0.820374 0.855530 0.184204
0.853638 0.864136 0.162170
0.888794 0.872101 0.151672
0.920166 0.876160 0.126404
0.958771 0.892975 0.072632
0.992401 0.908417 0.016449
1.000000 0.912476 0.001892
0.216064 0.813171 0.315613
0.223907 0.816589 0.312195
0.231506 0.812897 0.311951
0.240112 0.813660 0.316132
0.254791 0.812653 0.318542
0.266052 0.812653 0.307281
0.275665 0.811249 0.308289
0.295380 0.815430 0.310822
0.309296 0.812164 0.313110
0.335999 0.812531 0.312836
0.354095 0.809235 0.310699
0.375336 0.806335 0.304993
0.394562 0.810638 0.304352
0.418457 0.807983 0.299805
0.443115 0.807587 0.295013
