assets/luts/Portra_800.cube
#Created by: Adobe Photoshop Export Color Lookup Plugin
#Copyright: (C) Copyright 2022 Tim Martin and Presetpro.com
TITLE "Presetpro - Portra 800.jpg"
#LUT size
LUT_3D_SIZE 5
#data domain
#LUT data points
DOMAIN_MIN 0.000000 0.000000 0.000000
DOMAIN_MAX 0.903226 0.903226 0.903226
0.000000 0.000000 0.000000
0.171265 0.013916 0.003937
0.465515 0.003937 0.000000
0.800262 0.003937 0.000000
0.999634 0.003540 0.003540
0.003052 0.148621 0.037048
0.135986 0.179993 0.006958
0.474243 0.193542 0.001770
0.795471 0.181763 0.000885
1.000000 0.242889 0.002136
0.000000 0.369995 0.091949
0.056671 0.362152 0.088531
0.402771 0.432373 0.000000
0.781555 0.498657 0.000000
0.998230 0.534332 0.005676
0.000000 0.588379 0.188232
0.090454 0.580139 0.181793
0.356598 0.608490 0.150818
0.689056 0.703491 0.001251
0.971283 0.773560 0.000000
0.290710 0.849091 0.354584
0.349396 0.853394 0.354095
0.480072 0.847321 0.346375
0.694366 0.881226 0.324860
0.901947 0.923981 0.264008
0.008728 0.003937 0.166962
0.183929 0.000000 0.186584
0.479919 0.002167 0.179108
0.803680 0.001251 0.183044
0.999634 0.001251 0.194427
0.000000 0.176086 0.179108
0.184814 0.192657 0.188721
0.483856 0.196564 0.191376
0.802429 0.190491 0.189606
1.000000 0.256775 0.192657
0.058044 0.401886 0.232758
0.175690 0.391388 0.222260
0.437164 0.445007 0.196198
0.784058 0.496002 0.197968
0.997345 0.542175 0.207458
0.069427 0.612396 0.275513
0.196960 0.607605 0.277679
0.389740 0.616699 0.261993
0.700836 0.700836 0.223145
0.970886 0.777100 0.212769
0.322449 0.859955 0.414307
0.369019 0.854645 0.402771
0.494476 0.851227 0.401154
0.700439 0.883484 0.388489
0.908661 0.925232 0.355835
0.001770 0.007843 0.449829
0.177856 0.000000 0.457153
0.509033 0.002167 0.477264
0.806702 0.000885 0.474243
0.998230 0.002167 0.473358
0.000000 0.194427 0.447174
0.195679 0.201385 0.455017
0.517761 0.194794 0.479431
0.810272 0.131683 0.474213
0.999634 0.187073 0.477783
0.122955 0.448059 0.440216
0.271576 0.451965 0.446777
0.504730 0.473358 0.465515
0.798859 0.495605 0.485107
0.997833 0.541412 0.501190
0.334717 0.667816 0.505615
0.399231 0.668549 0.503357
0.481567 0.652893 0.468933
0.725128 0.711700 0.472717
0.969269 0.772827 0.511688
0.415558 0.878693 0.564941
0.450348 0.874268 0.554840
0.541046 0.866547 0.541412
0.700958 0.879578 0.530182
0.904755 0.926117 0.540283
0.000000 0.000000 0.716522
0.228973 0.000000 0.722198
0.546600 0.002655 0.742706
0.828979 0.000000 0.761047
0.999115 0.002655 0.751801
0.000000 0.210999 0.714752
0.261597 0.211365 0.719543
0.559265 0.205688 0.737885
0.829865 0.198853 0.758392
0.998230 0.206696 0.754486
0.004425 0.458435 0.705658
0.233643 0.455536 0.709198
0.540405 0.476776 0.728271
0.811523 0.504364 0.755737
0.996582 0.514343 0.754089
0.346497 0.712585 0.708679
0.419739 0.713470 0.707794
0.582275 0.721710 0.717407
0.775330 0.743958 0.736115
0.961670 0.779266 0.757507
0.589386 0.900055 0.771912
0.605438 0.896027 0.771912
0.674255 0.897797 0.767487
0.731323 0.884766 0.720428
0.909180 0.930939 0.747009
0.311829 0.022003 0.951416
0.427338 0.000000 0.952301
0.645142 0.000000 0.950043
0.863373 0.038483 0.958008
0.996460 0.170288 0.967865
0.341553 0.239197 0.945740
0.439850 0.242371 0.945221
0.643768 0.245026 0.948242
0.862488 0.281342 0.956116
1.000000 0.339661 0.961670
0.280487 0.481201 0.939667
0.415558 0.486877 0.937012
0.623779 0.502563 0.940033
0.838959 0.538757 0.951813
0.995331 0.581024 0.959259
0.302734 0.737518 0.923859
0.385101 0.731812 0.926117
0.546478 0.725739 0.930542
0.787994 0.751801 0.938782
0.962555 0.791534 0.947357
0.587097 0.920441 0.928284
0.614166 0.920807 0.920441
0.692963 0.924744 0.926514
0.807587 0.929535 0.928284
0.936493 0.943573 0.940033
