assets/luts/Portra_800.cube
#Created by: Adobe Photoshop Export Color Lookup Plugin
#Copyright: (C) Copyright 2022 Tim Martin and Presetpro.com
TITLE "Presetpro - Portra 800.jpg"
#LUT size
LUT_3D_SIZE 8
#data domain
#LUT data points
DOMAIN_MIN 0.000000 0.000000 0.000000
DOMAIN_MAX 0.903226 0.903226 0.903226
0.000000 0.000000 0.000000
0.083374 0.004425 0.007324
0.196198 0.015686 0.002899
0.368988 0.001526 0.003021
0.563080 0.002014 0.000000
0.755219 0.001404 0.000000
0.917145 0.000000 0.004791
0.999634 0.003540 0.003540
0.006836 0.072113 0.019104
0.061340 0.091217 0.001526
0.204559 0.103973 0.000000
0.377228 0.096130 0.000000
0.573334 0.039215 0.001892
0.755737 0.000000 0.004791
0.916260 0.000000 0.000000
0.999634 0.080566 0.004547
0.000000 0.179504 0.037323
0.023407 0.179993 0.031891
0.173676 0.211884 0.000000
0.380127 0.240356 0.005310
0.562195 0.234528 0.002014
0.752319 0.229584 0.003937
0.915131 0.244385 0.003937
0.998993 0.283722 0.003296
0.002411 0.304108 0.074524
0.000000 0.304108 0.076904
0.116760 0.325623 0.054382
0.326111 0.362915 0.000000
0.566010 0.399719 0.000000
0.744965 0.409088 0.003021
0.896027 0.422363 0.005432
1.000000 0.457672 0.000366
0.000000 0.427704 0.119812
0.000000 0.425690 0.117767
0.096130 0.419861 0.113861
0.275757 0.459595 0.077332
0.486542 0.508179 0.001892
0.728271 0.567505 0.000000
0.876648 0.589508 0.000000
0.997742 0.611664 0.002014
0.000000 0.555237 0.167236
0.003418 0.550812 0.173187
0.123199 0.546387 0.169128
0.272736 0.561676 0.150024
0.446960 0.606598 0.111969
0.651886 0.661102 0.003937
0.860870 0.728271 0.001007
0.979126 0.747009 0.004944
0.006073 0.695374 0.236572
0.075287 0.695374 0.229095
0.193542 0.693634 0.231750
0.308411 0.688812 0.229370
0.456177 0.720062 0.197479
0.624817 0.764587 0.163940
0.793427 0.796478 0.085785
0.959381 0.856293 0.000519
0.290710 0.849091 0.354584
0.304108 0.852631 0.353577
0.363312 0.851990 0.350677
0.438324 0.847565 0.345612
0.543976 0.857300 0.339661
0.668182 0.880463 0.332458
0.788239 0.903992 0.308411
0.901947 0.923981 0.264008
0.011780 0.003418 0.086792
0.080963 0.003937 0.084381
0.207458 0.000000 0.091217
0.382141 0.000000 0.080444
0.559662 0.002411 0.086761
0.751801 0.000519 0.078430
0.913239 0.003052 0.060577
1.000000 0.000519 0.037048
0.003418 0.083862 0.087280
0.076538 0.092224 0.088287
0.211365 0.100067 0.089813
0.381653 0.084381 0.087799
0.574860 0.028961 0.079071
0.753845 0.000519 0.069183
0.914612 0.003937 0.056152
1.000000 0.099670 0.038330
0.007324 0.197723 0.116241
0.064758 0.193298 0.107910
0.192261 0.220245 0.084869
0.388458 0.235931 0.086792
0.572449 0.237823 0.079926
0.754364 0.234894 0.066650
0.910706 0.246277 0.031982
0.999481 0.290955 0.005035
0.003418 0.321289 0.132935
0.005951 0.319794 0.131927
0.154083 0.326630 0.130432
0.337494 0.365967 0.090820
0.566132 0.401245 0.041229
0.745483 0.406189 0.055908
0.901855 0.429352 0.036530
0.999481 0.458557 0.012390
0.000000 0.441895 0.172668
0.001526 0.437592 0.173553
0.143311 0.428741 0.166351
0.294220 0.462860 0.143311
0.498810 0.510590 0.100555
0.723846 0.573334 0.002899
0.879181 0.591553 0.005554
0.999634 0.610260 0.070343
0.000000 0.560150 0.215942
0.005035 0.559143 0.211884
0.161407 0.553833 0.202026
0.288544 0.562561 0.203033
0.458588 0.611145 0.166473
0.654663 0.664520 0.110840
0.861755 0.731689 0.003662
0.977234 0.744598 0.021240
0.043671 0.705902 0.264893
0.129028 0.700317 0.265900
0.225311 0.702087 0.266937
0.325348 0.690216 0.253143
0.465668 0.725494 0.242126
0.630890 0.763702 0.211365
0.796478 0.803436 0.171295
0.953064 0.855804 0.035919
0.306396 0.856415 0.375092
0.324097 0.852997 0.378998
0.371796 0.855042 0.370514
0.442383 0.850494 0.368256
0.541687 0.856934 0.362183
0.670715 0.876526 0.362183
0.788239 0.906891 0.334595
0.907288 0.923859 0.306763
0.000000 0.005951 0.204163
0.084869 0.003937 0.216309
0.220734 0.000000 0.226562
0.378235 0.000519 0.217834
0.575867 0.000000 0.212891
0.762573 0.001007 0.208984
0.914246 0.003052 0.228577
1.000000 0.001007 0.239349
0.006836 0.092224 0.217834
0.076019 0.097137 0.213409
0.227570 0.093231 0.228577
0.399231 0.049957 0.229462
0.579773 0.001892 0.217834
0.759277 0.002533 0.223663
0.919800 0.005554 0.237823
0.999634 0.124969 0.231750
0.000000 0.212891 0.210876
0.085388 0.220734 0.217316
0.225677 0.231506 0.222748
0.399231 0.238831 0.217438
0.574982 0.235535 0.228699
0.756378 0.238586 0.234039
0.912079 0.259064 0.230469
0.997467 0.299408 0.239349
0.083588 0.347748 0.243866
0.156464 0.347748 0.252625
0.217438 0.347748 0.247192
0.365967 0.371765 0.226166
0.577240 0.399231 0.235413
0.753204 0.411499 0.241852
0.900696 0.431610 0.238312
0.995941 0.463989 0.238953
0.113800 0.467957 0.275635
0.145721 0.467804 0.271210
0.228729 0.458221 0.260101
0.334961 0.466553 0.261841
0.514008 0.516907 0.238312
0.733215 0.570923 0.223785
0.883636 0.589661 0.246277
0.996582 0.611664 0.260712
0.117249 0.583679 0.299164
0.161926 0.584198 0.297272
0.236420 0.581299 0.288940
0.326752 0.567505 0.285370
0.477692 0.613037 0.274261
0.670471 0.667175 0.254639
0.864899 0.727020 0.226562
0.979248 0.746002 0.265259
0.163055 0.719055 0.337494
0.197327 0.716644 0.333069
0.270844 0.714233 0.338654
0.360657 0.703857 0.325500
0.475159 0.721954 0.315125
0.638214 0.766113 0.300934
0.796326 0.803162 0.278809
0.956879 0.857574 0.256805
0.327759 0.861481 0.430878
0.349396 0.854767 0.424805
0.396973 0.860107 0.421631
0.460083 0.857056 0.412537
0.546112 0.855804 0.414673
0.669708 0.878937 0.415436
0.791016 0.898041 0.401520
0.908661 0.923981 0.381653
0.000000 0.005432 0.365967
0.040100 0.004425 0.364044
0.222626 0.002411 0.376709
0.405182 0.003937 0.389496
0.581177 0.001892 0.389862
0.767120 0.000000 0.381653
0.921082 0.001526 0.385559
0.994415 0.003540 0.377716
0.001007 0.100067 0.368347
0.043640 0.104492 0.378113
0.226166 0.099548 0.381653
0.415405 0.064758 0.396698
0.583710 0.003418 0.384033
0.761810 0.003937 0.387085
0.925385 0.001007 0.387451
1.000000 0.002014 0.386566
0.001007 0.225159 0.364929
0.020111 0.223755 0.366852
0.235931 0.236938 0.374817
0.413513 0.236938 0.386566
0.585205 0.214935 0.389496
0.769531 0.204163 0.390381
0.920441 0.208069 0.384552
0.999481 0.298157 0.409332
0.035034 0.364441 0.361420
0.143829 0.371765 0.375183
0.277161 0.381134 0.376709
0.413025 0.391876 0.384674
0.592560 0.398224 0.396698
0.761688 0.409088 0.401245
0.906281 0.432617 0.410614
0.997986 0.464142 0.415283
0.226685 0.495911 0.400391
0.260956 0.499817 0.400757
0.338531 0.503235 0.408081
0.405548 0.493866 0.401367
0.546875 0.531708 0.384552
0.743958 0.570038 0.402649
0.884247 0.590546 0.419861
0.999634 0.617615 0.424011
0.297913 0.623413 0.443756
0.322327 0.623413 0.438965
0.333069 0.620514 0.414795
0.407959 0.608093 0.407074
0.507660 0.617096 0.396851
0.686157 0.675415 0.399719
0.866547 0.728790 0.399597
0.973450 0.744110 0.433624
0.273987 0.742432 0.443512
0.292969 0.742188 0.445923
0.346100 0.739166 0.439087
0.413666 0.728912 0.425659
0.495911 0.721466 0.411377
0.647064 0.767242 0.415558
0.804321 0.805817 0.419983
0.950043 0.855164 0.415802
0.381897 0.868683 0.511688
0.400513 0.872986 0.511810
0.436188 0.865143 0.503082
0.490204 0.863770 0.498413
0.564331 0.855408 0.491211
0.669861 0.874512 0.489166
0.792023 0.899933 0.491699
0.908295 0.923981 0.485382
0.000000 0.009857 0.523865
0.001007 0.007202 0.525879
0.222626 0.000000 0.532715
0.418091 0.001892 0.548920
0.606354 0.002014 0.563080
0.761536 0.000000 0.557648
0.918915 0.001007 0.563202
0.996460 0.002258 0.551697
0.000000 0.109436 0.527771
0.011017 0.107758 0.531189
0.236542 0.103485 0.538544
0.428711 0.079956 0.548920
0.611664 0.004425 0.561676
0.760803 0.001892 0.555237
0.921814 0.002899 0.560822
0.997223 0.003937 0.562714
0.000000 0.229614 0.518921
0.055908 0.235535 0.524872
0.252106 0.243256 0.535614
0.431885 0.248566 0.540070
0.610260 0.232635 0.564087
0.768005 0.205688 0.560181
0.915131 0.199341 0.561188
0.998993 0.237061 0.560669
0.001526 0.374298 0.516022
0.079041 0.377228 0.521820
0.250732 0.383026 0.526642
0.431091 0.391022 0.543854
0.606720 0.403290 0.561188
0.768494 0.388092 0.553711
0.910065 0.402771 0.562317
0.999115 0.433746 0.561066
0.194183 0.523865 0.518036
0.238220 0.521851 0.519928
0.341309 0.529816 0.527771
0.461609 0.538025 0.535126
0.592560 0.549286 0.547394
0.757263 0.567505 0.567017
0.890594 0.589783 0.569031
0.991791 0.615570 0.578247
0.353455 0.655029 0.560547
0.377747 0.654785 0.557404
0.428711 0.659210 0.562073
0.511200 0.656677 0.559143
0.573181 0.647583 0.541565
0.707672 0.690094 0.543091
0.868317 0.726898 0.568390
0.975952 0.746124 0.592438
0.421021 0.770020 0.587616
0.438232 0.769379 0.587097
0.480713 0.764221 0.585602
0.506653 0.762695 0.562836
0.558014 0.747375 0.546509
0.657684 0.768494 0.536011
0.811127 0.811005 0.559418
0.952423 0.855927 0.583191
0.503876 0.878937 0.639099
0.501862 0.878815 0.636841
0.499207 0.879333 0.614807
0.535736 0.873901 0.601776
0.593170 0.871490 0.585724
0.668060 0.868195 0.578003
0.787994 0.898407 0.587616
0.904755 0.926239 0.597107
0.001404 0.002777 0.681854
0.005035 0.000000 0.680573
0.255646 0.000000 0.683258
0.450836 0.000000 0.695526
0.633667 0.000519 0.716003
0.794434 0.001404 0.726379
0.914612 0.000000 0.718170
0.997467 0.003540 0.716766
0.000000 0.111328 0.674530
0.067688 0.112335 0.685272
0.276794 0.098175 0.692108
0.455658 0.075012 0.699951
0.636200 0.024139 0.716644
0.791290 0.003937 0.727020
0.916138 0.000519 0.718170
0.997742 0.001007 0.726013
0.000000 0.241364 0.678833
0.110687 0.246674 0.681000
0.285645 0.247192 0.683258
0.463623 0.244263 0.693115
0.634186 0.249207 0.707306
0.792908 0.241486 0.725006
0.911072 0.226929 0.721069
1.000000 0.244263 0.718536
0.001526 0.382538 0.674133
0.087921 0.383148 0.673492
0.280090 0.387085 0.678833
0.460449 0.399719 0.692108
0.632660 0.407471 0.708679
0.782196 0.417816 0.721069
0.905121 0.413513 0.716156
1.000000 0.427826 0.716644
0.087433 0.539032 0.669312
0.173828 0.533600 0.676300
0.299805 0.537140 0.671997
0.433502 0.535492 0.680847
0.606079 0.556763 0.696411
0.764954 0.573975 0.714478
0.886536 0.573456 0.712219
0.995331 0.596985 0.716125
0.307922 0.681854 0.668945
0.346008 0.682251 0.676056
0.418457 0.680328 0.680328
0.520813 0.688568 0.681091
0.626190 0.697052 0.690582
0.744843 0.705627 0.701721
0.870209 0.728271 0.719055
0.972809 0.750305 0.729919
0.498566 0.790894 0.712982
0.511078 0.794434 0.706635
0.543976 0.796844 0.710571
0.600250 0.796967 0.711700
0.666565 0.794067 0.708435
0.704254 0.784180 0.678558
0.825684 0.820496 0.696411
0.944092 0.857819 0.726898
0.564697 0.894379 0.746643
0.578003 0.896515 0.753082
0.600006 0.892975 0.745483
0.635681 0.891479 0.744720
0.663147 0.889557 0.720825
0.700958 0.883362 0.696014
0.788635 0.893494 0.697815
0.907898 0.926117 0.716766
0.076935 0.000000 0.826965
0.191925 0.000885 0.824432
0.337494 0.002014 0.825684
0.499939 0.001526 0.838715
0.662140 0.001007 0.848602
0.823792 0.000000 0.855804
0.937653 0.004791 0.857056
0.996063 0.003052 0.860474
0.125366 0.119659 0.825958
0.214050 0.117767 0.828217
0.352051 0.101562 0.831390
0.510803 0.081970 0.839722
0.665680 0.056671 0.845032
0.811646 0.082367 0.851868
0.934998 0.080719 0.866150
0.996948 0.080322 0.854401
0.161285 0.255035 0.818848
0.240234 0.255035 0.824432
0.361908 0.253113 0.824677
0.516632 0.254639 0.830994
0.666168 0.260101 0.841492
0.812164 0.276642 0.853638
0.927643 0.287659 0.859222
0.999115 0.281708 0.855408
0.100128 0.388855 0.819092
0.222260 0.392761 0.817474
0.353180 0.396301 0.819489
0.502319 0.406067 0.831116
0.658569 0.415558 0.838470
0.804688 0.437195 0.850861
0.916504 0.455261 0.856812
0.997589 0.458954 0.852875
0.000000 0.535767 0.799255
0.143829 0.537140 0.802795
0.302216 0.534607 0.808350
0.463501 0.539673 0.820496
0.632660 0.560181 0.823029
0.783051 0.586975 0.845428
0.898285 0.604309 0.854279
0.988495 0.607239 0.848969
0.258209 0.689453 0.808228
0.298065 0.687683 0.811523
0.376862 0.690216 0.808868
0.480438 0.689087 0.815186
0.599396 0.691101 0.815582
0.749786 0.711700 0.830627
0.868835 0.735229 0.843536
0.967499 0.739166 0.847076
0.439606 0.816071 0.808228
0.467041 0.812164 0.815063
0.516144 0.812164 0.805328
0.590118 0.813904 0.816711
0.662872 0.820007 0.815948
0.762695 0.828217 0.829224
0.844421 0.837463 0.838715
0.954346 0.859711 0.850861
0.632782 0.911194 0.847443
0.635681 0.911591 0.846069
0.657043 0.914124 0.847443
0.687286 0.913727 0.844421
0.735626 0.911713 0.848602
0.781158 0.912079 0.843658
0.815704 0.902985 0.817352
0.916016 0.930939 0.835297
0.311829 0.022003 0.951416
0.360779 0.010132 0.950409
0.454254 0.000000 0.950806
0.578217 0.003540 0.954224
0.704895 0.000000 0.950287
0.835052 0.010498 0.958649
0.946106 0.140564 0.962799
0.996460 0.170288 0.967865
0.330170 0.142822 0.945984
0.371277 0.142426 0.947388
0.460724 0.132050 0.949768
0.580383 0.125732 0.951691
0.708191 0.130798 0.951813
0.835693 0.162811 0.961914
0.946869 0.225555 0.963959
0.999634 0.243652 0.963959
0.339294 0.275635 0.943573
0.380768 0.275269 0.945862
0.463501 0.276276 0.946350
0.582916 0.278809 0.947510
0.710571 0.284119 0.949646
0.831512 0.310699 0.955109
0.938019 0.352936 0.956726
0.996460 0.372528 0.958252
0.322449 0.417053 0.941071
0.367493 0.415283 0.942047
0.459961 0.419342 0.945099
0.573181 0.427948 0.948639
0.700439 0.436157 0.951416
0.814941 0.458191 0.952179
0.921326 0.499176 0.957123
0.997986 0.515106 0.958008
0.248199 0.550934 0.935974
0.301086 0.548767 0.932709
0.399994 0.551300 0.933228
0.542053 0.564087 0.940521
0.675903 0.577881 0.941681
0.801636 0.598877 0.953339
0.898285 0.631775 0.946381
0.985443 0.646942 0.953827
0.265045 0.701843 0.928894
0.298676 0.697937 0.928802
0.374573 0.691101 0.928406
0.491943 0.693115 0.927246
0.633270 0.696014 0.930939
0.771301 0.719299 0.936890
0.877686 0.747894 0.944977
0.970398 0.763702 0.954346
0.429993 0.825684 0.917908
0.451508 0.827454 0.923584
0.497162 0.825806 0.922821
0.560272 0.828217 0.926758
0.641510 0.823425 0.926392
0.732574 0.825562 0.932709
0.853149 0.843536 0.935486
0.952698 0.861115 0.941315
0.587097 0.920441 0.928284
0.601257 0.920807 0.923981
0.625183 0.923981 0.923981
0.668549 0.922333 0.927887
0.720184 0.926758 0.920044
0.786865 0.930817 0.931824
0.856293 0.935242 0.932312
0.936493 0.943573 0.940033
